;FLAVOR:Marlin
;TIME:5647
;Filament used: 3.3749m
;Layer height: 0.28
;MINX:64.551
;MINY:101.478
;MINZ:0.28
;MAXX:168.55
;MAXY:133.533
;MAXZ:120.12
;Generated with Cura_SteamEngine master
M140 S50
M105
M190 S50
M104 S200
M105
M109 S200
M82 ;absolute extrusion mode
; Ender 3 Custom Start G-code
G92 E0 ; Reset Extruder
G28 ; Home all axes
G1 Z2.0 F3000 ; Move Z Axis up little to prevent scratching of Heat Bed
G1 X0.1 Y20 Z0.3 F5000.0 ; Move to start position
G1 X0.1 Y200.0 Z0.3 F1500.0 E15 ; Draw the first line
G1 X0.4 Y200.0 Z0.3 F5000.0 ; Move to side a little
G1 X0.4 Y20 Z0.3 F1500.0 E30 ; Draw the second line
G92 E0 ; Reset Extruder
G1 Z2.0 F3000 ; Move Z Axis up little to prevent scratching of Heat Bed
G1 X5 Y20 Z0.3 F5000.0 ; Move over to prevent blob squish
G92 E0
G92 E0
G1 F2700 E-5
;LAYER_COUNT:429
;LAYER:0
M107
G0 F6000 X69.985 Y103.165 Z0.28
;TYPE:SKIRT
G1 F2700 E0
G1 F1200 X70.804 Y102.708 E0.04367
G1 X71.659 Y102.322 E0.08735
G1 X72.544 Y102.01 E0.13105
G1 X73.175 Y101.838 E0.1615
G1 X73.374 Y101.79 E0.17103
G1 X74.294 Y101.609 E0.21469
G1 X75.226 Y101.507 E0.25835
G1 X76.164 Y101.485 E0.30204
G1 X77.556 Y101.6 E0.36708
G1 X77.909 Y101.652 E0.38369
G1 X78.262 Y101.71 E0.40035
G1 X78.57 Y101.766 E0.41493
G1 X81.056 Y102.18 E0.53228
G1 X83.601 Y102.53 E0.6519
G1 X86.055 Y102.797 E0.76684
G1 X88.602 Y103.001 E0.88582
G1 X91.085 Y103.129 E1.0016
G1 X93.615 Y103.189 E1.11944
G1 X96.133 Y103.177 E1.23669
G1 X98.665 Y103.093 E1.35465
G1 X101.144 Y102.941 E1.4703
G1 X103.689 Y102.712 E1.58929
G1 X106.154 Y102.42 E1.70487
G1 X108.035 Y102.15 E1.79335
G1 X108.489 Y102.081 E1.81474
G1 X109.52 Y101.934 E1.86323
G1 X110.374 Y101.824 E1.90332
G1 X110.731 Y101.784 E1.92005
G1 X111.818 Y101.68 E1.9709
G1 X112.852 Y101.596 E2.0192
G1 X113.206 Y101.573 E2.03572
G1 X114.385 Y101.517 E2.09068
G1 X115.31 Y101.486 E2.13378
G1 X115.589 Y101.48 E2.14677
G1 X115.938 Y101.478 E2.16303
G1 X116.899 Y101.48 E2.20777
G1 X117.751 Y101.492 E2.24745
G1 X118.017 Y101.499 E2.25984
G1 X118.398 Y101.514 E2.2776
G1 X119.43 Y101.566 E2.32571
G1 X120.245 Y101.618 E2.36374
G1 X120.518 Y101.639 E2.37649
G1 X121.024 Y101.685 E2.40015
G1 X121.865 Y101.769 E2.4395
G1 X122.78 Y101.872 E2.48238
G1 X123.431 Y101.958 E2.51295
G1 X124.915 Y102.176 E2.5828
G1 X126.622 Y102.43 E2.66316
G1 X129.128 Y102.731 E2.78068
G1 X131.663 Y102.962 E2.89921
G1 X134.158 Y103.12 E3.01562
G1 X136.646 Y103.206 E3.13155
G1 X139.205 Y103.222 E3.25071
G1 X141.693 Y103.168 E3.36658
G1 X144.212 Y103.041 E3.48403
G1 X146.722 Y102.843 E3.60127
G1 X149.234 Y102.574 E3.71891
G1 X151.733 Y102.235 E3.83634
G1 X154.219 Y101.825 E3.95366
G1 X154.974 Y101.685 E3.98941
G1 X156.165 Y101.531 E4.04533
G1 X156.408 Y101.513 E4.05668
G1 X157.346 Y101.484 E4.10038
G1 X158.282 Y101.534 E4.14402
G1 X159.211 Y101.665 E4.18771
G1 X160.125 Y101.873 E4.23136
G1 X161.019 Y102.159 E4.27506
G1 X161.884 Y102.52 E4.31871
G1 X162.934 Y103.083 E4.37419
G1 X163.166 Y103.224 E4.38683
G1 X163.946 Y103.745 E4.4305
G1 X164.679 Y104.33 E4.47417
G1 X165.359 Y104.976 E4.51785
G1 X165.982 Y105.677 E4.56152
G1 X166.542 Y106.429 E4.60518
G1 X167.037 Y107.226 E4.64886
G1 X167.462 Y108.062 E4.69253
G1 X167.889 Y109.145 E4.74674
G1 X167.973 Y109.397 E4.75911
G1 X168.231 Y110.299 E4.80279
G1 X168.412 Y111.219 E4.84645
G1 X168.513 Y112.152 E4.89015
G1 X168.535 Y112.688 E4.91513
G1 X168.55 Y113.634 E4.95919
G1 X168.55 Y121.196 E5.3113
G1 X168.539 Y121.943 E5.34609
G1 X168.431 Y123.323 E5.41055
G1 X168.415 Y123.436 E5.41586
G1 X168.244 Y124.358 E5.45953
G1 X167.996 Y125.263 E5.50322
G1 X167.764 Y125.912 E5.53531
G1 X167.682 Y126.121 E5.54577
G1 X167.303 Y126.978 E5.5894
G1 X166.851 Y127.801 E5.63312
G1 X166.332 Y128.581 E5.67675
G1 X165.947 Y129.079 E5.70606
G1 X165.737 Y129.335 E5.72148
G1 X165.111 Y130.035 E5.7652
G1 X164.429 Y130.678 E5.80885
G1 X163.694 Y131.261 E5.85253
G1 X162.912 Y131.779 E5.89621
G1 X161.952 Y132.295 E5.94696
G1 X161.651 Y132.438 E5.96248
G1 X160.788 Y132.804 E6.00613
G1 X159.896 Y133.095 E6.04982
G1 X158.983 Y133.309 E6.09348
G1 X157.62 Y133.48 E6.15745
G1 X157.174 Y133.508 E6.17826
G1 X156.733 Y133.528 E6.19881
G1 X156.389 Y133.533 E6.21483
G1 X144.15 Y133.532 E6.78473
G1 X143.609 Y133.526 E6.80992
G1 X143.354 Y133.521 E6.8218
G1 X143.033 Y133.51 E6.83675
G1 X142.484 Y133.477 E6.86236
G1 X142.271 Y133.459 E6.87232
G1 X141.731 Y133.4 E6.89761
G1 X141.493 Y133.368 E6.90879
G1 X140.991 Y133.289 E6.93246
G1 X140.76 Y133.247 E6.94339
G1 X140.31 Y133.155 E6.96478
G1 X139.884 Y133.059 E6.98511
G1 X139.524 Y132.972 E7.00236
G1 X137.516 Y132.448 E7.09899
G1 X135.062 Y131.881 E7.21627
G1 X132.633 Y131.396 E7.3316
G1 X130.13 Y130.967 E7.44985
G1 X127.628 Y130.611 E7.56753
G1 X125.147 Y130.328 E7.68381
G1 X122.632 Y130.114 E7.80134
G1 X120.15 Y129.973 E7.9171
G1 X117.593 Y129.901 E8.03621
G1 X115.106 Y129.901 E8.15201
G1 X112.574 Y129.973 E8.26996
G1 X110.034 Y130.116 E8.38842
G1 X107.574 Y130.325 E8.50338
G1 X105.054 Y130.611 E8.62148
G1 X102.555 Y130.966 E8.73901
G1 X100.056 Y131.395 E8.85708
G1 X97.615 Y131.884 E8.973
G1 X95.19 Y132.441 E9.08886
G1 X93.455 Y132.89 E9.17231
G1 X92.689 Y133.078 E9.20903
G1 X92.195 Y133.188 E9.2326
G1 X91.931 Y133.24 E9.24513
G1 X91.434 Y133.326 E9.26862
G1 X91.207 Y133.36 E9.2793
G1 X90.715 Y133.422 E9.30239
G1 X90.436 Y133.451 E9.31546
G1 X89.863 Y133.496 E9.34222
G1 X89.571 Y133.511 E9.35583
G1 X89.14 Y133.524 E9.37591
G1 X88.344 Y133.533 E9.41298
G1 X77.289 Y133.533 E9.92775
G1 X77.081 Y133.531 E9.93743
G1 X76.023 Y133.511 E9.98671
G1 X75.087 Y133.453 E10.03037
G1 X74.159 Y133.316 E10.07405
G1 X73.174 Y133.08 E10.12122
G1 X72.977 Y133.023 E10.13077
G1 X72.088 Y132.724 E10.17444
G1 X71.227 Y132.35 E10.21815
G1 X70.308 Y131.848 E10.26691
G1 X70.121 Y131.734 E10.27711
G1 X69.342 Y131.212 E10.32077
G1 X68.61 Y130.626 E10.36444
G1 X67.756 Y129.794 E10.41995
G1 X67.616 Y129.642 E10.42958
G1 X67.011 Y128.926 E10.47322
G1 X66.339 Y127.955 E10.52821
G1 X66.315 Y127.916 E10.53034
G1 X65.858 Y127.097 E10.57401
G1 X65.613 Y126.577 E10.60078
G1 X65.515 Y126.354 E10.61212
G1 X65.174 Y125.48 E10.65581
G1 X64.909 Y124.58 E10.69949
G1 X64.711 Y123.588 E10.7466
G1 X64.691 Y123.457 E10.75277
G1 X64.589 Y122.525 E10.79642
G1 X64.566 Y121.971 E10.82224
G1 X64.553 Y121.15 E10.86048
G1 X64.551 Y113.532 E11.2152
G1 X64.56 Y112.844 E11.24724
G1 X64.589 Y112.21 E11.2768
G1 X64.605 Y111.992 E11.28697
G1 X64.713 Y111.06 E11.33066
G1 X64.9 Y110.141 E11.37433
G1 X65.165 Y109.242 E11.41797
G1 X65.506 Y108.368 E11.46166
G1 X65.92 Y107.526 E11.50535
G1 X66.449 Y106.656 E11.55276
G1 X66.628 Y106.39 E11.56769
G1 X67.184 Y105.635 E11.61135
G1 X67.803 Y104.93 E11.65504
G1 X68.479 Y104.28 E11.6987
G1 X69.209 Y103.69 E11.74241
G1 X69.985 Y103.165 E11.78604
G0 F6000 X70.267 Y103.462
G1 F1200 X71.075 Y103.02 E11.82892
G1 X71.918 Y102.649 E11.87181
G1 X72.79 Y102.354 E11.91467
G1 X73.268 Y102.227 E11.9377
G1 X73.467 Y102.179 E11.94723
G1 X74.371 Y102.002 E11.99013
G1 X75.286 Y101.904 E12.03298
G1 X76.207 Y101.886 E12.07587
G1 X77.498 Y101.996 E12.1362
G1 X77.851 Y102.048 E12.15282
G1 X78.191 Y102.104 E12.16886
G1 X78.428 Y102.147 E12.18008
G1 X81.042 Y102.582 E12.30347
G1 X83.505 Y102.921 E12.41924
G1 X86.051 Y103.198 E12.53849
G1 X88.55 Y103.398 E12.65523
G1 X91.091 Y103.53 E12.77371
G1 X93.607 Y103.589 E12.8909
G1 X96.148 Y103.577 E13.00922
G1 X98.666 Y103.493 E13.12653
G1 X101.171 Y103.339 E13.24339
G1 X103.736 Y103.109 E13.36331
G1 X106.219 Y102.815 E13.47974
G1 X108.149 Y102.538 E13.57053
G1 X108.546 Y102.477 E13.58923
G1 X109.571 Y102.331 E13.63744
G1 X110.425 Y102.221 E13.67753
G1 X110.769 Y102.182 E13.69365
G1 X112.015 Y102.064 E13.75193
G1 X112.884 Y101.994 E13.79253
G1 X113.225 Y101.972 E13.80844
G1 X114.398 Y101.917 E13.86312
G1 X115.323 Y101.886 E13.90622
G1 X115.592 Y101.88 E13.91874
G1 X115.938 Y101.878 E13.93486
G1 X116.893 Y101.88 E13.97932
G1 X117.745 Y101.892 E14.019
G1 X118.002 Y101.899 E14.03097
G1 X118.378 Y101.914 E14.04849
G1 X119.405 Y101.966 E14.09638
G1 X120.22 Y102.018 E14.1344
G1 X120.483 Y102.038 E14.14669
G1 X120.985 Y102.083 E14.17016
G1 X121.821 Y102.167 E14.20928
G1 X122.736 Y102.27 E14.25215
G1 X122.987 Y102.301 E14.26393
G1 X123.373 Y102.354 E14.28207
G1 X124.856 Y102.572 E14.35187
G1 X126.587 Y102.83 E14.43336
G1 X129.077 Y103.129 E14.55014
G1 X131.602 Y103.359 E14.6682
G1 X134.12 Y103.518 E14.78568
G1 X136.664 Y103.606 E14.90421
G1 X139.211 Y103.622 E15.02282
G1 X141.686 Y103.568 E15.13809
G1 X144.263 Y103.438 E15.25824
G1 X146.763 Y103.242 E15.37501
G1 X149.259 Y102.973 E15.4919
G1 X151.781 Y102.632 E15.61041
G1 X154.308 Y102.215 E15.72967
G1 X155.047 Y102.078 E15.76466
G1 X156.195 Y101.93 E15.81856
G1 X156.438 Y101.912 E15.82991
G1 X157.358 Y101.884 E15.87277
G1 X158.277 Y101.936 E15.91563
G1 X159.189 Y102.067 E15.95853
G1 X160.085 Y102.277 E16.00138
G1 X160.96 Y102.564 E16.04426
G1 X161.806 Y102.926 E16.08711
G1 X162.726 Y103.425 E16.13584
G1 X162.958 Y103.566 E16.14848
G1 X163.723 Y104.078 E16.19135
G1 X164.441 Y104.654 E16.23421
G1 X165.107 Y105.29 E16.27709
G1 X165.714 Y105.982 E16.31995
G1 X166.259 Y106.724 E16.36282
G1 X166.738 Y107.51 E16.40568
G1 X167.147 Y108.335 E16.44856
G1 X167.509 Y109.272 E16.49533
G1 X167.593 Y109.524 E16.5077
G1 X167.846 Y110.409 E16.55056
G1 X168.021 Y111.313 E16.59344
G1 X168.117 Y112.229 E16.63632
G1 X168.135 Y112.694 E16.65799
G1 X168.15 Y113.634 E16.70177
G1 X168.15 Y121.19 E17.05361
G1 X168.139 Y121.937 E17.0884
G1 X168.035 Y123.267 E17.15051
G1 X168.019 Y123.38 E17.15583
G1 X167.851 Y124.285 E17.19869
G1 X167.604 Y125.172 E17.24156
G1 X167.392 Y125.766 E17.27093
G1 X167.31 Y125.975 E17.28139
G1 X166.937 Y126.816 E17.32422
G1 X166.492 Y127.622 E17.3671
G1 X165.979 Y128.387 E17.40998
G1 X165.637 Y128.826 E17.4359
G1 X165.427 Y129.082 E17.45132
G1 X164.813 Y129.768 E17.49418
G1 X164.142 Y130.397 E17.53701
G1 X163.418 Y130.967 E17.57992
G1 X162.648 Y131.471 E17.62277
G1 X161.781 Y131.933 E17.66851
G1 X161.48 Y132.076 E17.68403
G1 X160.632 Y132.435 E17.72691
G1 X159.756 Y132.719 E17.76979
G1 X158.859 Y132.925 E17.81265
G1 X157.595 Y133.081 E17.87195
G1 X157.149 Y133.109 E17.89276
G1 X156.72 Y133.128 E17.91275
G1 X156.389 Y133.133 E17.92817
G1 X144.154 Y133.132 E18.49788
G1 X143.613 Y133.126 E18.52307
G1 X143.368 Y133.121 E18.53449
G1 X143.047 Y133.11 E18.54944
G1 X142.517 Y133.078 E18.57417
G1 X142.304 Y133.06 E18.58412
G1 X141.785 Y133.003 E18.60843
G1 X141.547 Y132.971 E18.61961
G1 X141.063 Y132.895 E18.64243
G1 X140.832 Y132.853 E18.65336
G1 X140.398 Y132.765 E18.67398
G1 X139.972 Y132.669 E18.69431
G1 X139.625 Y132.584 E18.71095
G1 X137.635 Y132.065 E18.80671
G1 X135.158 Y131.493 E18.92509
G1 X132.708 Y131.004 E19.04142
G1 X130.188 Y130.571 E19.16048
G1 X127.693 Y130.216 E19.27783
G1 X125.19 Y129.931 E19.39513
G1 X122.652 Y129.715 E19.51374
G1 X120.15 Y129.573 E19.63043
G1 X117.604 Y129.501 E19.74903
G1 X115.095 Y129.501 E19.86586
G1 X112.539 Y129.573 E19.98492
G1 X110.047 Y129.714 E20.10115
G1 X107.496 Y129.931 E20.22036
G1 X105.024 Y130.211 E20.3362
G1 X102.469 Y130.574 E20.45637
G1 X100.01 Y130.996 E20.57254
G1 X97.518 Y131.496 E20.6909
G1 X95.08 Y132.055 E20.80736
G1 X93.222 Y132.536 E20.89673
G1 X92.594 Y132.69 E20.92684
G1 X92.118 Y132.795 E20.94954
G1 X91.854 Y132.847 E20.96207
G1 X91.375 Y132.93 E20.98471
G1 X91.148 Y132.964 E20.99539
G1 X90.674 Y133.024 E21.01764
G1 X90.395 Y133.053 E21.0307
G1 X89.843 Y133.096 E21.05648
G1 X89.551 Y133.111 E21.0701
G1 X89.135 Y133.124 E21.08948
G1 X88.344 Y133.133 E21.12631
G1 X77.289 Y133.133 E21.64108
G1 X77.089 Y133.131 E21.65039
G1 X76.031 Y133.111 E21.69967
G1 X75.112 Y133.054 E21.74254
G1 X74.201 Y132.917 E21.78544
G1 X73.285 Y132.695 E21.82933
G1 X73.088 Y132.638 E21.83888
G1 X72.215 Y132.344 E21.88177
G1 X71.372 Y131.976 E21.9246
G1 X70.516 Y131.507 E21.97005
G1 X70.329 Y131.393 E21.98025
G1 X69.565 Y130.88 E22.0231
G1 X68.848 Y130.303 E22.06595
G1 X68.05 Y129.523 E22.11791
G1 X67.91 Y129.371 E22.12754
G1 X67.316 Y128.668 E22.17039
G1 X66.679 Y127.745 E22.22261
G1 X66.655 Y127.706 E22.22474
G1 X66.207 Y126.902 E22.2676
G1 X65.979 Y126.416 E22.2926
G1 X65.881 Y126.193 E22.30394
G1 X65.547 Y125.335 E22.34681
G1 X65.29 Y124.451 E22.38968
G1 X65.106 Y123.528 E22.4335
G1 X65.086 Y123.397 E22.43967
G1 X64.987 Y122.482 E22.48253
G1 X64.966 Y121.965 E22.50662
G1 X64.952 Y120.977 E22.55263
G1 X64.952 Y113.367 E22.90699
G1 X64.96 Y112.851 E22.93102
G1 X64.987 Y112.239 E22.95954
G1 X65.003 Y112.021 E22.96972
G1 X65.111 Y111.107 E23.01258
G1 X65.297 Y110.205 E23.05546
G1 X65.56 Y109.323 E23.09832
G1 X65.9 Y108.467 E23.14121
G1 X66.312 Y107.644 E23.18406
G1 X66.781 Y106.879 E23.22584
G1 X66.96 Y106.613 E23.24077
G1 X67.506 Y105.872 E23.28363
G1 X68.115 Y105.182 E23.32649
G1 X68.782 Y104.547 E23.36937
G1 X69.501 Y103.972 E23.41224
G1 X70.267 Y103.462 E23.45509
G0 F6000 X70.548 Y103.76
G1 F1200 X71.344 Y103.333 E23.49715
G1 X72.175 Y102.979 E23.53921
G1 X73.362 Y102.615 E23.59702
G1 X73.561 Y102.567 E23.60655
G1 X74.448 Y102.395 E23.64863
G1 X75.346 Y102.301 E23.69067
G1 X76.249 Y102.287 E23.73272
G1 X77.44 Y102.392 E23.78839
G1 X77.793 Y102.444 E23.80501
G1 X78.12 Y102.498 E23.82044
G1 X78.369 Y102.543 E23.83222
G1 X80.958 Y102.975 E23.95445
G1 X83.479 Y103.321 E24.07293
G1 X86.008 Y103.596 E24.19139
G1 X88.533 Y103.799 E24.30934
G1 X91.059 Y103.929 E24.42712
G1 X93.6 Y103.989 E24.54547
G1 X96.163 Y103.977 E24.66482
G1 X98.67 Y103.893 E24.78162
G1 X101.231 Y103.736 E24.90109
G1 X103.748 Y103.51 E25.01877
G1 X106.283 Y103.21 E25.13763
G1 X108.172 Y102.939 E25.22649
G1 X108.603 Y102.873 E25.2468
G1 X109.471 Y102.748 E25.28763
G1 X110.476 Y102.618 E25.33482
G1 X110.808 Y102.58 E25.35038
G1 X112.047 Y102.463 E25.40833
G1 X112.916 Y102.393 E25.44892
G1 X113.245 Y102.372 E25.46427
G1 X114.411 Y102.317 E25.51863
G1 X115.336 Y102.286 E25.56172
G1 X115.595 Y102.28 E25.57379
G1 X115.937 Y102.278 E25.58971
G1 X116.888 Y102.28 E25.63399
G1 X117.74 Y102.292 E25.67367
G1 X117.987 Y102.298 E25.68518
G1 X118.359 Y102.313 E25.70251
G1 X119.232 Y102.356 E25.74321
G1 X120.194 Y102.417 E25.7881
G1 X120.448 Y102.436 E25.79996
G1 X120.945 Y102.481 E25.82319
G1 X121.776 Y102.564 E25.86208
G1 X122.691 Y102.667 E25.90496
G1 X122.933 Y102.697 E25.91631
G1 X123.315 Y102.75 E25.93427
G1 X124.797 Y102.967 E26.00401
G1 X126.551 Y103.228 E26.08659
G1 X129.029 Y103.526 E26.2028
G1 X131.574 Y103.758 E26.3218
G1 X134.117 Y103.918 E26.44045
G1 X136.648 Y104.006 E26.55837
G1 X139.182 Y104.022 E26.67637
G1 X141.75 Y103.966 E26.79597
G1 X144.243 Y103.84 E26.91221
G1 X146.804 Y103.639 E27.03182
G1 X149.32 Y103.369 E27.14965
G1 X151.862 Y103.024 E27.2691
G1 X154.387 Y102.608 E27.38826
G1 X155.119 Y102.472 E27.42293
G1 X156.225 Y102.329 E27.47486
G1 X156.468 Y102.311 E27.48621
G1 X157.37 Y102.284 E27.52823
G1 X158.272 Y102.337 E27.5703
G1 X159.165 Y102.47 E27.61234
G1 X160.043 Y102.681 E27.65439
G1 X160.899 Y102.969 E27.69644
G1 X161.726 Y103.332 E27.7385
G1 X162.518 Y103.767 E27.78057
G1 X162.75 Y103.908 E27.79321
G1 X163.501 Y104.41 E27.83528
G1 X164.204 Y104.977 E27.87733
G1 X164.853 Y105.605 E27.91938
G1 X165.445 Y106.287 E27.96144
G1 X165.975 Y107.018 E28.00348
G1 X166.437 Y107.794 E28.04553
G1 X166.829 Y108.608 E28.0876
G1 X167.13 Y109.398 E28.12697
G1 X167.214 Y109.65 E28.13934
G1 X167.461 Y110.519 E28.1814
G1 X167.631 Y111.406 E28.22346
G1 X167.736 Y112.701 E28.28396
G1 X167.749 Y113.46 E28.3193
G1 X167.751 Y121.033 E28.67193
G1 X167.739 Y121.931 E28.71375
G1 X167.639 Y123.211 E28.77354
G1 X167.623 Y123.324 E28.77885
G1 X167.457 Y124.212 E28.82091
G1 X167.213 Y125.081 E28.86294
G1 X167.019 Y125.619 E28.88957
G1 X166.937 Y125.828 E28.90003
G1 X166.571 Y126.654 E28.9421
G1 X166.132 Y127.443 E28.98414
G1 X165.626 Y128.191 E29.02619
G1 X165.328 Y128.572 E29.04871
G1 X165.118 Y128.828 E29.06413
G1 X164.515 Y129.5 E29.10617
G1 X163.855 Y130.116 E29.14821
G1 X163.143 Y130.672 E29.19028
G1 X162.384 Y131.162 E29.23234
G1 X161.609 Y131.572 E29.27317
G1 X161.308 Y131.715 E29.28869
G1 X160.476 Y132.066 E29.33074
G1 X159.616 Y132.342 E29.37279
G1 X158.735 Y132.541 E29.41485
G1 X157.57 Y132.682 E29.46949
