;FLAVOR:Marlin
;TIME:23214
;Filament used: 18.8965m
;Layer height: 0.2
;MINX:39.7
;MINY:40.838
;MINZ:0.2
;MAXX:195.3
;MAXY:185.962
;MAXZ:12.2
;Generated with Cura_SteamEngine master
M140 S50
M105
M190 S50
M104 S200
M105
M109 S200
M82 ;absolute extrusion mode
; Ender 3 Custom Start G-code
G92 E0 ; Reset Extruder
G28 ; Home all axes
G1 Z2.0 F3000 ; Move Z Axis up little to prevent scratching of Heat Bed
G1 X0.1 Y20 Z0.3 F5000.0 ; Move to start position
G1 X0.1 Y200.0 Z0.3 F1500.0 E15 ; Draw the first line
G1 X0.4 Y200.0 Z0.3 F5000.0 ; Move to side a little
G1 X0.4 Y20 Z0.3 F1500.0 E30 ; Draw the second line
G92 E0 ; Reset Extruder
G1 Z2.0 F3000 ; Move Z Axis up little to prevent scratching of Heat Bed
G1 X5 Y20 Z0.3 F5000.0 ; Move over to prevent blob squish
G92 E0
G92 E0
G1 F2700 E-5
;LAYER_COUNT:61
;LAYER:0
M107
G0 F6000 X43.095 Y44.001 Z0.2
;TYPE:SKIRT
G1 F2700 E0
G1 F1200 X43.192 Y43.908 E0.00447
G1 X43.896 Y43.288 E0.03567
G1 X44.651 Y42.731 E0.06688
G1 X45.45 Y42.24 E0.09807
G1 X46.288 Y41.818 E0.12927
G1 X47.158 Y41.47 E0.16044
G1 X48.056 Y41.197 E0.19166
G1 X48.973 Y41.002 E0.22284
G1 X49.903 Y40.885 E0.25401
G1 X50.479 Y40.853 E0.2732
G1 X50.966 Y40.841 E0.2894
G1 X51.277 Y40.838 E0.29975
G1 X183.493 Y40.838 E4.69727
G1 X184.352 Y40.849 E4.72584
G1 X185.288 Y40.902 E4.75702
G1 X186.216 Y41.035 E4.78821
G1 X187.13 Y41.247 E4.81941
G1 X188.023 Y41.535 E4.85062
G1 X188.887 Y41.899 E4.8818
G1 X189.718 Y42.335 E4.91302
G1 X190.508 Y42.84 E4.9442
G1 X191.252 Y43.41 E4.97537
G1 X191.973 Y44.07 E5.00788
G1 X192.068 Y44.165 E5.01235
G1 X192.702 Y44.856 E5.04354
G1 X193.276 Y45.598 E5.07475
G1 X193.783 Y46.387 E5.10594
G1 X194.222 Y47.215 E5.13711
G1 X194.589 Y48.079 E5.16833
G1 X194.881 Y48.97 E5.19952
G1 X195.095 Y49.883 E5.23071
G1 X195.232 Y50.811 E5.26191
G1 X195.284 Y51.567 E5.28711
G1 X195.294 Y51.947 E5.29975
G1 X195.3 Y52.477 E5.31738
G1 X195.299 Y174.377 E9.37179
G1 X195.289 Y175.104 E9.39598
G1 X195.236 Y176.041 E9.42719
G1 X195.104 Y176.969 E9.45837
G1 X194.893 Y177.883 E9.48957
G1 X194.604 Y178.775 E9.52075
G1 X194.241 Y179.64 E9.55195
G1 X193.806 Y180.471 E9.58315
G1 X193.301 Y181.261 E9.61433
G1 X192.731 Y182.006 E9.64553
G1 X192.1 Y182.7 E9.67673
G1 X191.411 Y183.337 E9.70794
G1 X190.671 Y183.913 E9.73913
G1 X189.885 Y184.424 E9.77031
G1 X189.058 Y184.866 E9.8015
G1 X188.196 Y185.236 E9.8327
G1 X187.306 Y185.531 E9.86388
G1 X186.394 Y185.75 E9.89508
G1 X185.467 Y185.89 E9.92626
G1 X184.599 Y185.949 E9.9552
G1 X184.279 Y185.958 E9.96585
G1 X183.97 Y185.962 E9.97612
G1 X51.265 Y185.961 E14.38991
G1 X50.567 Y185.952 E14.41313
G1 X49.631 Y185.9 E14.44431
G1 X48.702 Y185.768 E14.47552
G1 X47.788 Y185.558 E14.50671
G1 X46.895 Y185.271 E14.53791
G1 X46.03 Y184.908 E14.56911
G1 X45.199 Y184.474 E14.60029
G1 X44.408 Y183.97 E14.63148
G1 X43.663 Y183.4 E14.66268
G1 X42.969 Y182.769 E14.69388
G1 X42.332 Y182.082 E14.72504
G1 X41.755 Y181.342 E14.75625
G1 X41.243 Y180.556 E14.78745
G1 X40.8 Y179.729 E14.81865
G1 X40.429 Y178.868 E14.84984
G1 X40.133 Y177.978 E14.88103
G1 X39.914 Y177.066 E14.91223
G1 X39.773 Y176.139 E14.94342
G1 X39.712 Y175.23 E14.97372
G1 X39.703 Y174.873 E14.98559
G1 X39.7 Y174.596 E14.99481
G1 X39.7 Y52.464 E19.05693
G1 X39.709 Y51.793 E19.07925
G1 X39.762 Y50.857 E19.11044
G1 X39.894 Y49.929 E19.14161
G1 X40.104 Y49.015 E19.1728
G1 X40.392 Y48.122 E19.20401
G1 X40.755 Y47.257 E19.23521
G1 X41.19 Y46.426 E19.26641
G1 X41.695 Y45.636 E19.29759
G1 X42.264 Y44.891 E19.32877
G1 X43.095 Y44.001 E19.36927
G0 F6000 X43.372 Y44.29
G1 F1200 X43.469 Y44.197 E19.37374
G1 X44.161 Y43.589 E19.40438
G1 X44.902 Y43.043 E19.43499
G1 X45.689 Y42.565 E19.46562
G1 X46.514 Y42.156 E19.49625
G1 X47.371 Y41.82 E19.52686
G1 X48.254 Y41.56 E19.55748
G1 X49.156 Y41.377 E19.58809
G1 X50.491 Y41.253 E19.63268
G1 X50.97 Y41.241 E19.64862
G1 X51.277 Y41.238 E19.65883
G1 X183.493 Y41.238 E24.05635
G1 X184.346 Y41.249 E24.08473
G1 X185.265 Y41.302 E24.11534
G1 X186.176 Y41.435 E24.14596
G1 X187.072 Y41.646 E24.17658
G1 X187.947 Y41.934 E24.20722
G1 X188.793 Y42.297 E24.23784
G1 X189.604 Y42.732 E24.26845
G1 X190.375 Y43.236 E24.29908
G1 X191.099 Y43.804 E24.32969
G1 X191.69 Y44.353 E24.35652
G1 X191.785 Y44.448 E24.36099
G1 X192.407 Y45.126 E24.39159
G1 X192.968 Y45.856 E24.42221
G1 X193.464 Y46.632 E24.45284
G1 X193.89 Y47.448 E24.48346
G1 X194.244 Y48.298 E24.51408
G1 X194.522 Y49.176 E24.54472
G1 X194.724 Y50.074 E24.57533
G1 X194.847 Y50.987 E24.60597
G1 X194.884 Y51.58 E24.62573
G1 X194.894 Y51.952 E24.63811
G1 X194.9 Y52.477 E24.65557
G1 X194.899 Y174.372 E28.70982
G1 X194.889 Y175.099 E28.734
G1 X194.836 Y176.018 E28.76461
G1 X194.704 Y176.929 E28.79523
G1 X194.493 Y177.825 E28.82585
G1 X194.206 Y178.7 E28.85648
G1 X193.843 Y179.546 E28.88709
G1 X193.409 Y180.358 E28.91772
G1 X192.905 Y181.129 E28.94835
G1 X192.337 Y181.853 E28.97896
G1 X191.708 Y182.525 E29.00957
G1 X191.023 Y183.14 E29.04019
G1 X190.287 Y183.693 E29.07081
G1 X189.506 Y184.181 E29.10144
G1 X188.686 Y184.599 E29.13205
G1 X187.832 Y184.944 E29.16269
G1 X186.952 Y185.213 E29.1933
G1 X186.051 Y185.406 E29.22394
G1 X185.138 Y185.519 E29.25454
G1 X184.588 Y185.549 E29.27286
G1 X184.268 Y185.558 E29.28351
G1 X183.97 Y185.562 E29.29342
G1 X51.27 Y185.561 E33.70704
G1 X50.572 Y185.552 E33.73026
G1 X49.653 Y185.5 E33.76087
G1 X48.742 Y185.369 E33.79148
G1 X47.846 Y185.159 E33.82209
G1 X46.971 Y184.872 E33.85272
G1 X46.124 Y184.51 E33.88336
G1 X45.312 Y184.076 E33.91398
G1 X44.541 Y183.574 E33.94458
G1 X43.816 Y183.006 E33.97521
G1 X43.143 Y182.377 E34.00585
G1 X42.528 Y181.693 E34.03645
G1 X41.974 Y180.958 E34.06706
G1 X41.486 Y180.177 E34.09769
G1 X41.067 Y179.357 E34.12832
G1 X40.721 Y178.504 E34.15893
G1 X40.451 Y177.624 E34.18955
G1 X40.258 Y176.723 E34.22019
G1 X40.144 Y175.81 E34.2508
G1 X40.112 Y175.22 E34.27045
G1 X40.103 Y174.863 E34.28233
G1 X40.1 Y174.596 E34.29121
G1 X40.1 Y52.47 E38.35314
G1 X40.109 Y51.799 E38.37545
G1 X40.161 Y50.88 E38.40607
G1 X40.293 Y49.969 E38.43669
G1 X40.504 Y49.072 E38.46733
G1 X40.791 Y48.198 E38.49793
G1 X41.153 Y47.351 E38.52857
G1 X41.588 Y46.539 E38.55921
G1 X42.091 Y45.768 E38.58982
G1 X42.659 Y45.044 E38.62043
G1 X43.372 Y44.29 E38.65495
G0 F6000 X43.649 Y44.578
G1 F1200 X43.746 Y44.485 E38.65942
G1 X44.425 Y43.89 E38.68944
G1 X45.154 Y43.357 E38.71948
G1 X45.927 Y42.89 E38.74952
G1 X46.738 Y42.494 E38.77954
G1 X47.582 Y42.171 E38.80959
G1 X48.45 Y41.923 E38.83962
G1 X49.338 Y41.754 E38.86968
G1 X50.503 Y41.652 E38.90858
G1 X50.974 Y41.64 E38.92425
G1 X51.176 Y41.638 E38.93097
G1 X183.493 Y41.638 E43.33185
G1 X184.34 Y41.649 E43.36002
G1 X185.242 Y41.702 E43.39008
G1 X186.135 Y41.834 E43.4201
G1 X187.013 Y42.045 E43.45013
G1 X187.869 Y42.333 E43.48017
G1 X188.697 Y42.695 E43.51023
G1 X189.489 Y43.129 E43.54027
G1 X190.239 Y43.632 E43.5703
G1 X190.942 Y44.198 E43.60032
G1 X191.407 Y44.636 E43.62157
G1 X191.502 Y44.731 E43.62604
G1 X192.112 Y45.397 E43.65607
G1 X192.661 Y46.114 E43.68611
G1 X193.143 Y46.878 E43.71615
G1 X193.557 Y47.681 E43.7462
G1 X193.897 Y48.517 E43.77622
G1 X194.163 Y49.38 E43.80626
G1 X194.351 Y50.263 E43.83628
G1 X194.484 Y51.594 E43.88077
G1 X194.494 Y51.958 E43.89288
G1 X194.5 Y52.477 E43.91015
G1 X194.499 Y174.366 E47.96419
G1 X194.489 Y175.093 E47.98837
G1 X194.437 Y175.995 E48.01842
G1 X194.305 Y176.888 E48.04845
G1 X194.094 Y177.767 E48.07851
G1 X193.807 Y178.623 E48.10854
G1 X193.445 Y179.45 E48.13857
G1 X193.011 Y180.242 E48.16861
G1 X192.509 Y180.993 E48.19865
G1 X191.943 Y181.696 E48.22867
G1 X191.316 Y182.347 E48.25873
G1 X190.635 Y182.939 E48.28874
G1 X189.904 Y183.469 E48.31878
G1 X189.128 Y183.932 E48.34883
G1 X188.315 Y184.325 E48.37886
G1 X187.47 Y184.645 E48.40892
G1 X186.601 Y184.888 E48.43893
G1 X185.713 Y185.053 E48.46897
G1 X184.577 Y185.149 E48.50689
G1 X184.257 Y185.158 E48.51753
G1 X183.97 Y185.162 E48.52708
G1 X51.275 Y185.161 E52.94053
G1 X50.577 Y185.152 E52.96375
G1 X49.676 Y185.101 E52.99377
G1 X48.782 Y184.969 E53.02382
G1 X47.904 Y184.76 E53.05384
G1 X47.047 Y184.473 E53.0839
G1 X46.22 Y184.112 E53.11392
G1 X45.427 Y183.679 E53.14397
G1 X44.676 Y183.178 E53.17399
G1 X43.972 Y182.612 E53.20404
G1 X43.321 Y181.986 E53.23408
G1 X42.728 Y181.305 E53.26411
G1 X42.198 Y180.574 E53.29414
G1 X41.734 Y179.799 E53.32418
G1 X41.34 Y178.986 E53.35423
G1 X41.02 Y178.142 E53.38425
G1 X40.776 Y177.272 E53.41431
G1 X40.61 Y176.384 E53.44435
G1 X40.512 Y175.21 E53.48354
G1 X40.503 Y174.853 E53.49541
G1 X40.5 Y174.596 E53.50396
G1 X40.5 Y52.475 E57.56572
G1 X40.509 Y51.804 E57.58804
G1 X40.561 Y50.903 E57.61806
G1 X40.693 Y50.009 E57.64812
G1 X40.903 Y49.131 E57.67814
G1 X41.19 Y48.275 E57.70817
G1 X41.551 Y47.447 E57.73822
G1 X41.985 Y46.655 E57.76825
G1 X42.487 Y45.904 E57.7983
G1 X43.053 Y45.2 E57.82834
G1 X43.649 Y44.578 E57.85699
G1 F2700 E52.85699
;MESH:TOP_PANEL.stl
G0 F6000 X71.464 Y54.803
G0 X71.464 Y53.368
G0 X103.428 Y53.71
G0 X103.438 Y63.265
G0 X101.631 Y66.438
;TYPE:WALL-INNER
G1 F2700 E57.85699
G1 F1200 X103.6 Y63.311 E57.9799
G1 X103.6 Y53.538 E58.30495
G1 X67.4 Y53.538 E59.50897
G1 X67.4 Y63.311 E59.83402
G1 X69.369 Y66.438 E59.95692
G1 X101.631 Y66.438 E61.02996
G0 F6000 X101.41 Y66.038
;TYPE:WALL-OUTER
G1 F1200 X103.2 Y63.196 E61.14168
G1 X103.2 Y53.938 E61.4496
G1 X67.8 Y53.938 E62.62701
G1 X67.8 Y63.196 E62.93493
G1 X69.59 Y66.038 E63.04664
G1 X101.41 Y66.038 E64.10498
G1 F2700 E59.10498
G0 F6000 X101.662 Y66.199
G0 X101.738 Y66.631
G0 X100.936 Y65.178
G0 X138.438 Y165.311
G0 X136.983 Y165.311
G0 X137.316 Y171.863
;TYPE:WALL-INNER
G1 F2700 E64.10498
G1 F1200 X157.097 Y171.863 E64.7629
G1 X157.096 Y159.422 E65.17669
G1 X157.227 Y143.594 E65.70315
G1 X157.084 Y137.042 E65.92112
G1 X137.303 Y137.042 E66.57904
G1 X137.304 Y149.483 E66.99283
G1 X137.173 Y165.31 E67.51925
G1 X137.316 Y171.863 E67.73726
G0 F6000 X137.707 Y171.463
;TYPE:WALL-OUTER
G1 F1200 X156.697 Y171.463 E68.36887
G1 X156.696 Y159.419 E68.76945
G1 X156.827 Y143.597 E69.29571
G1 X156.693 Y137.442 E69.50048
G1 X137.703 Y137.442 E70.13209
G1 X137.704 Y149.486 E70.53267
G1 X137.573 Y165.307 E71.0589
G1 X137.707 Y171.463 E71.2637
G1 F2700 E66.2637
G0 F6000 X137.707 Y171.763
G0 X157.293 Y172.059
G0 X157.293 Y174.152
G0 X183.7 Y174.362
;TYPE:WALL-INNER
G1 F2700 E71.2637
G1 F1200 X51.3 Y174.362 E75.66734
G1 X51.299 Y52.438 E79.72255
G1 X183.7 Y52.438 E84.12622
G1 X183.7 Y174.362 E88.18143
G0 F6000 X184.1 Y174.762
;TYPE:WALL-OUTER
G1 F1200 X50.9 Y174.762 E92.61168
G1 X50.899 Y52.038 E96.6935
G1 X184.1 Y52.038 E101.12378
G1 X184.1 Y174.762 E105.2056
G0 F6000 X183.83 Y174.492
G0 X183.59 Y173.972
G0 X183.31 Y173.972
;TYPE:SKIN
G1 F1200 X51.69 Y173.972 E109.5833
G1 X51.689 Y52.828 E113.61256
G1 X183.31 Y52.828 E117.99029
G1 X183.31 Y173.972 E122.01956
G1 F2700 E117.01956
G0 F6000 X183.59 Y173.972
G0 X159.831 Y174.154
G0 X157.206 Y174.152
G0 X157.206 Y172.053
G1 F2700 E122.01956
G0 F6000 X157.487 Y172.253
G1 F1200 X157.486 Y159.426 E122.44619
G1 X157.617 Y143.592 E122.97285
G1 X157.466 Y136.652 E123.20373
G1 X136.913 Y136.652 E123.88732
G1 X136.914 Y149.479 E124.31395
G1 X136.783 Y165.312 E124.84058
G1 X136.934 Y172.253 E125.07149
G1 X157.487 Y172.253 E125.75509
G1 F2700 E120.75509
G0 F6000 X157.206 Y172.002
G0 X157.067 Y143.596
G0 X156.916 Y137.214
G0 X139.23 Y136.872
G0 X139.23 Y138.307
G0 X100.936 Y65.178
G0 X101.738 Y66.631
G1 F2700 E125.75509
G0 F6000 X101.846 Y66.828
G1 F1200 X103.99 Y63.424 E125.88889
G1 X103.99 Y53.148 E126.23067
G1 X67.01 Y53.148 E127.46063
G1 X67.01 Y63.424 E127.80241
G1 X69.154 Y66.828 E127.93621
G1 X101.846 Y66.828 E129.02355
G1 F2700 E124.02355
G0 F6000 X101.699 Y66.548
G0 X103.791 Y63.367
G0 X102.337 Y62.946
G0 X184.965 Y63.367
G0 X183.49 Y63.367
G0 X183.59 Y53.607
G1 F2700 E129.02355
G0 F6000 X183.149 Y53.607
G1 F1200 X182.53 Y52.988 E129.05267
G0 F6000 X181.964 Y52.988
G1 F1200 X183.149 Y54.172 E129.10839
G0 F6000 X183.149 Y54.738
G1 F1200 X181.399 Y52.988 E129.1907
G0 F6000 X180.833 Y52.988
G1 F1200 X183.149 Y55.304 E129.29964
G0 F6000 X183.149 Y55.869
G1 F1200 X180.267 Y52.988 E129.43517
G0 F6000 X179.701 Y52.988
G1 F1200 X183.149 Y56.435 E129.59733
G0 F6000 X183.149 Y57.001
G1 F1200 X179.136 Y52.988 E129.78609
G0 F6000 X178.57 Y52.988
G1 F1200 X183.149 Y57.566 E130.00145
G0 F6000 X183.149 Y58.132
G1 F1200 X178.004 Y52.988 E130.24343
G0 F6000 X177.439 Y52.988
G1 F1200 X183.149 Y58.698 E130.51201
G0 F6000 X183.149 Y59.264
G1 F1200 X176.873 Y52.988 E130.80722
G0 F6000 X176.307 Y52.988
G1 F1200 X183.149 Y59.829 E131.12902
G0 F6000 X183.149 Y60.395
G1 F1200 X175.742 Y52.988 E131.47742
G0 F6000 X175.176 Y52.988
G1 F1200 X183.149 Y60.961 E131.85245
G0 F6000 X183.149 Y61.526
G1 F1200 X174.61 Y52.988 E132.25407
G0 F6000 X174.045 Y52.988
G1 F1200 X183.149 Y62.092 E132.6823
G0 F6000 X183.149 Y62.658
G1 F1200 X173.479 Y52.988 E133.13715
G0 F6000 X172.913 Y52.988
G1 F1200 X183.149 Y63.223 E133.61859
G0 F6000 X183.149 Y63.789
G1 F1200 X172.348 Y52.988 E134.12664
G0 F6000 X171.782 Y52.988
G1 F1200 X183.149 Y64.355 E134.66131
G0 F6000 X183.149 Y64.92
G1 F1200 X171.216 Y52.988 E135.22257
G0 F6000 X170.651 Y52.988
G1 F1200 X183.149 Y65.486 E135.81044
G0 F6000 X183.149 Y66.052
G1 F1200 X170.085 Y52.988 E136.42493
G0 F6000 X169.519 Y52.988
G1 F1200 X183.149 Y66.617 E137.06602
G0 F6000 X183.149 Y67.183
G1 F1200 X168.953 Y52.988 E137.73374
G0 F6000 X168.388 Y52.988
G1 F1200 X183.149 Y67.749 E138.42805
G0 F6000 X183.149 Y68.315
G1 F1200 X167.822 Y52.988 E139.14898
G0 F6000 X167.256 Y52.988
G1 F1200 X183.149 Y68.88 E139.89652
G0 F6000 X183.149 Y69.446
G1 F1200 X166.691 Y52.988 E140.67065
G0 F6000 X166.125 Y52.988
G1 F1200 X183.149 Y70.012 E141.47141
G0 F6000 X183.149 Y70.577
G1 F1200 X165.559 Y52.988 E142.29876
G0 F6000 X164.994 Y52.988
G1 F1200 X183.149 Y71.143 E143.15272
G0 F6000 X183.149 Y71.709
G1 F1200 X164.428 Y52.988 E144.0333
G0 F6000 X163.862 Y52.988
G1 F1200 X183.149 Y72.274 E144.94048
G0 F6000 X183.149 Y72.84
G1 F1200 X163.297 Y52.988 E145.87425
G0 F6000 X162.731 Y52.988
G1 F1200 X183.149 Y73.406 E146.83465
G0 F6000 X183.149 Y73.971
G1 F1200 X162.165 Y52.988 E147.82165
G0 F6000 X161.6 Y52.988
G1 F1200 X183.149 Y74.537 E148.83525
G0 F6000 X183.149 Y75.103
G1 F1200 X161.034 Y52.988 E149.87547
G0 F6000 X160.468 Y52.988
G1 F1200 X183.149 Y75.668 E150.94229
G0 F6000 X183.149 Y76.234
G1 F1200 X159.903 Y52.988 E152.03572
G0 F6000 X159.337 Y52.988
G1 F1200 X183.149 Y76.8 E153.15576
G0 F6000 X183.149 Y77.365
G1 F1200 X158.771 Y52.988 E154.3024
G0 F6000 X158.205 Y52.988
G1 F1200 X183.149 Y77.931 E155.47567
G0 F6000 X183.149 Y78.497
G1 F1200 X157.64 Y52.988 E156.67553
G0 F6000 X157.074 Y52.988
G1 F1200 X183.149 Y79.063 E157.90202
G0 F6000 X183.149 Y79.628
G1 F1200 X156.508 Y52.988 E159.15511
G0 F6000 X155.943 Y52.988
G1 F1200 X183.149 Y80.194 E160.43479
G0 F6000 X183.149 Y80.76
G1 F1200 X155.377 Y52.988 E161.7411
G0 F6000 X154.811 Y52.988
G1 F1200 X183.149 Y81.325 E163.07401
G0 F6000 X183.149 Y81.891
G1 F1200 X154.246 Y52.988 E164.43352
G0 F6000 X153.68 Y52.988
G1 F1200 X183.149 Y82.457 E165.81965
G0 F6000 X183.149 Y83.022
G1 F1200 X153.114 Y52.988 E167.23238
G0 F6000 X152.549 Y52.988
G1 F1200 X183.149 Y83.588 E168.67171
G0 F6000 X183.149 Y84.154
G1 F1200 X151.983 Y52.988 E170.13767
G0 F6000 X151.417 Y52.988
G1 F1200 X183.149 Y84.719 E171.63022
G0 F6000 X183.149 Y85.285
G1 F1200 X150.852 Y52.988 E173.14937
G0 F6000 X150.286 Y52.988
G1 F1200 X183.149 Y85.851 E174.69515
G0 F6000 X183.149 Y86.416
G1 F1200 X149.72 Y52.988 E176.26752
G0 F6000 X149.154 Y52.988
G1 F1200 X183.149 Y86.982 E177.86652
G0 F6000 X183.149 Y87.548
G1 F1200 X148.589 Y52.988 E179.49211
G0 F6000 X148.023 Y52.988
G1 F1200 X183.149 Y88.113 E181.14431
G0 F6000 X183.149 Y88.679
G1 F1200 X147.457 Y52.988 E182.82313
G0 F6000 X146.892 Y52.988
G1 F1200 X183.149 Y89.245 E184.52855
G0 F6000 X183.149 Y89.811
G1 F1200 X146.326 Y52.988 E186.26059
G0 F6000 X145.76 Y52.988
G1 F1200 X183.149 Y90.376 E188.01923
G0 F6000 X183.149 Y90.942
G1 F1200 X145.195 Y52.988 E189.80447
G0 F6000 X144.629 Y52.988
G1 F1200 X183.149 Y91.508 E191.61633
G0 F6000 X183.149 Y92.073
G1 F1200 X144.063 Y52.988 E193.45479
G0 F6000 X143.498 Y52.988
