;FLAVOR:Marlin
;TIME:13615
;Filament used: 10.7289m
;Layer height: 0.2
;MINX:20.6
;MINY:75
;MINZ:0.2
;MAXX:214.4
;MAXY:159.1
;MAXZ:10.2
;Generated with Cura_SteamEngine master
M140 S50
M105
M190 S50
M104 S200
M105
M109 S200
M82 ;absolute extrusion mode
; Ender 3 Custom Start G-code
G92 E0 ; Reset Extruder
G28 ; Home all axes
G1 Z2.0 F3000 ; Move Z Axis up little to prevent scratching of Heat Bed
G1 X0.1 Y20 Z0.3 F5000.0 ; Move to start position
G1 X0.1 Y200.0 Z0.3 F1500.0 E15 ; Draw the first line
G1 X0.4 Y200.0 Z0.3 F5000.0 ; Move to side a little
G1 X0.4 Y20 Z0.3 F1500.0 E30 ; Draw the second line
G92 E0 ; Reset Extruder
G1 Z2.0 F3000 ; Move Z Axis up little to prevent scratching of Heat Bed
G1 X5 Y20 Z0.3 F5000.0 ; Move over to prevent blob squish
G92 E0
G92 E0
G1 F2700 E-5
;LAYER_COUNT:51
;LAYER:0
M107
G0 F6000 X27.698 Y75.811 Z0.2
;TYPE:SKIRT
G1 F2700 E0
G1 F1200 X28.588 Y75.516 E0.03119
G1 X29.5 Y75.297 E0.06238
G1 X30.427 Y75.157 E0.09356
G1 X31.292 Y75.098 E0.1224
G1 X31.605 Y75.089 E0.13281
G1 X31.916 Y75.084 E0.14316
G1 X202.716 Y75 E5.82399
G1 X203.554 Y75.011 E5.85187
G1 X204.491 Y75.065 E5.88308
G1 X205.419 Y75.199 E5.91427
G1 X206.333 Y75.411 E5.94547
G1 X207.225 Y75.7 E5.97666
G1 X208.089 Y76.064 E6.00784
G1 X208.919 Y76.501 E6.03904
G1 X209.709 Y77.006 E6.07023
G1 X210.453 Y77.577 E6.10142
G1 X211.146 Y78.21 E6.13264
G1 X211.782 Y78.899 E6.16382
G1 X212.357 Y79.639 E6.19499
G1 X212.867 Y80.426 E6.22619
G1 X213.309 Y81.254 E6.2574
G1 X213.678 Y82.116 E6.28859
G1 X213.972 Y83.007 E6.3198
G1 X214.189 Y83.919 E6.35098
G1 X214.328 Y84.846 E6.38215
G1 X214.385 Y85.666 E6.40949
G1 X214.395 Y85.986 E6.42014
G1 X214.4 Y86.33 E6.43158
G1 X214.399 Y147.499 E8.46607
G1 X214.39 Y148.227 E8.49029
G1 X214.339 Y149.163 E8.52147
G1 X214.207 Y150.092 E8.55267
G1 X213.998 Y151.006 E8.58386
G1 X213.711 Y151.899 E8.61506
G1 X213.349 Y152.764 E8.64624
G1 X212.915 Y153.596 E8.67746
G1 X212.411 Y154.387 E8.70865
G1 X211.842 Y155.132 E8.73983
G1 X211.211 Y155.827 E8.77105
G1 X210.524 Y156.465 E8.80223
G1 X209.785 Y157.042 E8.83342
G1 X208.999 Y157.554 E8.86462
G1 X208.173 Y157.997 E8.89579
G1 X207.311 Y158.369 E8.92702
G1 X206.422 Y158.665 E8.95818
G1 X205.51 Y158.885 E8.98939
G1 X204.583 Y159.026 E9.02057
G1 X203.717 Y159.086 E9.04945
G1 X203.413 Y159.095 E9.05956
G1 X203.087 Y159.1 E9.07041
G1 X78.093 Y159.1 E13.22772
G1 X77.387 Y159.09 E13.25121
G1 X77.078 Y159.081 E13.26149
G1 X75.64 Y159.019 E13.30936
G1 X75.502 Y159.011 E13.31396
G1 X73.021 Y158.94 E13.39651
G1 X70.516 Y158.94 E13.47983
G1 X66.995 Y159.057 E13.597
G1 X66.504 Y159.076 E13.61334
G1 X65.32 Y159.098 E13.65273
G1 X65.116 Y159.1 E13.65952
G1 X32.151 Y159.1 E14.75594
G1 X31.452 Y159.09 E14.77919
G1 X30.515 Y159.036 E14.8104
G1 X29.587 Y158.904 E14.84158
G1 X28.673 Y158.692 E14.87279
G1 X27.781 Y158.403 E14.90397
G1 X26.916 Y158.04 E14.93517
G1 X26.086 Y157.604 E14.96636
G1 X25.296 Y157.099 E14.99754
G1 X24.551 Y156.528 E15.02876
G1 X23.858 Y155.896 E15.05996
G1 X23.221 Y155.208 E15.09114
G1 X22.646 Y154.467 E15.12234
G1 X22.135 Y153.681 E15.15352
G1 X21.693 Y152.853 E15.18474
G1 X21.324 Y151.992 E15.21589
G1 X21.029 Y151.101 E15.24711
G1 X20.811 Y150.189 E15.2783
G1 X20.671 Y149.262 E15.30948
G1 X20.614 Y148.407 E15.33798
G1 X20.605 Y148.094 E15.34839
G1 X20.6 Y147.778 E15.35891
G1 X20.6 Y86.62 E17.39303
G1 X20.609 Y85.946 E17.41545
G1 X20.661 Y85.01 E17.44663
G1 X20.794 Y84.081 E17.47784
G1 X21.004 Y83.167 E17.50903
G1 X21.292 Y82.275 E17.54021
G1 X21.655 Y81.41 E17.57141
G1 X22.09 Y80.579 E17.60261
G1 X22.594 Y79.788 E17.6338
G1 X23.164 Y79.043 E17.665
G1 X23.795 Y78.35 E17.69617
G1 X24.483 Y77.712 E17.72738
G1 X25.223 Y77.136 E17.75857
G1 X26.009 Y76.624 E17.78977
G1 X26.836 Y76.182 E17.82096
G1 X27.698 Y75.811 E17.85217
G0 F6000 X28.062 Y76.104
G1 F1200 X28.942 Y75.834 E17.88279
G1 X29.842 Y75.641 E17.9134
G1 X30.756 Y75.527 E17.94404
G1 X31.303 Y75.497 E17.96226
G1 X31.616 Y75.488 E17.97267
G1 X31.916 Y75.484 E17.98265
G1 X202.716 Y75.4 E23.66348
G1 X203.548 Y75.411 E23.69116
G1 X204.468 Y75.465 E23.72181
G1 X205.378 Y75.598 E23.7524
G1 X206.274 Y75.81 E23.78302
G1 X207.149 Y76.099 E23.81367
G1 X207.994 Y76.462 E23.84426
G1 X208.806 Y76.898 E23.87492
G1 X209.576 Y77.402 E23.90552
G1 X210.299 Y77.971 E23.93612
G1 X210.971 Y78.601 E23.96676
G1 X211.585 Y79.287 E23.99738
G1 X212.138 Y80.023 E24.028
G1 X212.624 Y80.805 E24.05863
G1 X213.041 Y81.626 E24.08925
G1 X213.385 Y82.48 E24.11987
G1 X213.654 Y83.361 E24.15051
G1 X213.845 Y84.261 E24.18111
G1 X213.957 Y85.175 E24.21174
G1 X213.985 Y85.679 E24.22853
G1 X213.995 Y85.999 E24.23918
G1 X214 Y86.33 E24.25019
G1 X213.999 Y147.494 E26.28451
G1 X213.99 Y148.222 E26.30873
G1 X213.939 Y149.141 E26.33934
G1 X213.808 Y150.053 E26.36998
G1 X213.598 Y150.949 E26.40059
G1 X213.312 Y151.824 E26.43121
G1 X212.951 Y152.671 E26.46183
G1 X212.517 Y153.483 E26.49246
G1 X212.015 Y154.255 E26.52308
G1 X211.447 Y154.98 E26.55372
G1 X210.819 Y155.653 E26.58433
G1 X210.135 Y156.269 E26.61495
G1 X209.4 Y156.823 E26.64556
G1 X208.62 Y157.312 E26.67618
G1 X207.8 Y157.731 E26.70681
G1 X206.947 Y158.077 E26.73742
G1 X206.067 Y158.348 E26.76805
G1 X205.167 Y158.541 E26.79866
G1 X204.253 Y158.656 E26.8293
G1 X203.705 Y158.686 E26.84756
G1 X203.401 Y158.695 E26.85767
G1 X203.087 Y158.7 E26.86812
G1 X78.099 Y158.7 E31.02524
G1 X77.393 Y158.69 E31.04872
G1 X77.094 Y158.682 E31.05867
G1 X75.663 Y158.62 E31.10631
G1 X75.537 Y158.613 E31.11051
G1 X72.997 Y158.54 E31.19502
G1 X70.503 Y158.54 E31.27797
G1 X66.959 Y158.657 E31.39591
G1 X66.876 Y158.662 E31.39868
G1 X66.497 Y158.676 E31.41129
G1 X65.313 Y158.698 E31.45068
G1 X65.116 Y158.7 E31.45723
G1 X32.156 Y158.7 E32.55348
G1 X31.457 Y158.69 E32.57673
G1 X30.538 Y158.637 E32.60735
G1 X29.627 Y158.504 E32.63797
G1 X28.731 Y158.293 E32.66859
G1 X27.857 Y158.005 E32.6992
G1 X27.011 Y157.642 E32.72981
G1 X26.199 Y157.207 E32.76045
G1 X25.429 Y156.703 E32.79106
G1 X24.705 Y156.134 E32.82169
G1 X24.033 Y155.505 E32.8523
G1 X23.418 Y154.819 E32.88295
G1 X22.865 Y154.083 E32.91356
G1 X22.378 Y153.302 E32.94418
G1 X21.961 Y152.481 E32.9748
G1 X21.616 Y151.627 E33.00544
G1 X21.347 Y150.747 E33.03604
G1 X21.155 Y149.847 E33.06665
G1 X21.042 Y148.933 E33.09728
G1 X21.013 Y148.396 E33.11517
G1 X21.004 Y148.083 E33.12559
G1 X21 Y147.778 E33.13573
G1 X21 Y86.625 E35.16969
G1 X21.009 Y85.951 E35.19211
G1 X21.061 Y85.032 E35.22272
G1 X21.193 Y84.121 E35.25334
G1 X21.403 Y83.225 E35.28395
G1 X21.691 Y82.35 E35.31459
G1 X22.053 Y81.504 E35.34519
G1 X22.487 Y80.692 E35.37581
G1 X22.99 Y79.921 E35.40643
G1 X23.558 Y79.196 E35.43706
G1 X24.187 Y78.524 E35.46768
G1 X24.872 Y77.909 E35.4983
G1 X25.607 Y77.355 E35.52891
G1 X26.388 Y76.867 E35.55954
G1 X27.209 Y76.449 E35.59018
G1 X28.062 Y76.104 E35.62079
G0 F6000 X27.579 Y76.722
G1 F1200 X28.424 Y76.403 E35.65083
G1 X29.293 Y76.159 E35.68085
G1 X30.181 Y75.993 E35.71089
G1 X31.315 Y75.897 E35.74875
G1 X31.628 Y75.888 E35.75916
G1 X31.916 Y75.884 E35.76874
G1 X202.716 Y75.8 E41.44957
G1 X203.542 Y75.811 E41.47705
G1 X204.444 Y75.865 E41.5071
G1 X205.337 Y75.998 E41.53713
G1 X206.215 Y76.209 E41.56716
G1 X207.071 Y76.497 E41.5972
G1 X207.898 Y76.86 E41.62724
G1 X208.69 Y77.295 E41.6573
G1 X209.44 Y77.798 E41.68733
G1 X210.142 Y78.365 E41.71735
G1 X210.792 Y78.992 E41.74738
G1 X211.384 Y79.675 E41.77745
G1 X211.913 Y80.407 E41.80748
G1 X212.375 Y81.182 E41.83749
G1 X212.767 Y81.996 E41.86754
G1 X213.085 Y82.841 E41.89757
G1 X213.328 Y83.711 E41.92762
G1 X213.492 Y84.599 E41.95765
G1 X213.585 Y85.691 E41.9941
G1 X213.595 Y86.011 E42.00475
G1 X213.6 Y86.33 E42.01536
G1 X213.599 Y147.489 E44.04952
G1 X213.59 Y148.217 E44.07373
G1 X213.539 Y149.119 E44.10378
G1 X213.408 Y150.012 E44.1338
G1 X213.199 Y150.891 E44.16385
G1 X212.913 Y151.747 E44.19387
G1 X212.552 Y152.575 E44.22391
G1 X212.12 Y153.368 E44.25395
G1 X211.619 Y154.12 E44.284
G1 X211.053 Y154.824 E44.31405
G1 X210.428 Y155.475 E44.34406
G1 X209.747 Y156.069 E44.37412
G1 X209.016 Y156.599 E44.40415
G1 X208.242 Y157.064 E44.43418
G1 X207.429 Y157.458 E44.46423
G1 X206.585 Y157.778 E44.49425
G1 X205.715 Y158.023 E44.52431
G1 X204.828 Y158.189 E44.55433
G1 X203.693 Y158.287 E44.59222
G1 X203.389 Y158.296 E44.60233
G1 X203.087 Y158.3 E44.61238
G1 X78.105 Y158.3 E48.7693
G1 X77.399 Y158.29 E48.79278
G1 X77.111 Y158.282 E48.80236
G1 X75.836 Y158.228 E48.84481
G1 X75.571 Y158.213 E48.85364
G1 X73.009 Y158.14 E48.93888
G1 X70.49 Y158.14 E49.02267
G1 X66.972 Y158.257 E49.13974
G1 X66.489 Y158.276 E49.15582
G1 X65.116 Y158.3 E49.20149
G1 X32.162 Y158.3 E50.29754
G1 X31.463 Y158.29 E50.3208
G1 X30.562 Y158.237 E50.35081
G1 X29.668 Y158.105 E50.38087
G1 X28.79 Y157.894 E50.41091
G1 X27.934 Y157.606 E50.44094
G1 X27.107 Y157.244 E50.47097
G1 X26.315 Y156.81 E50.50101
G1 X25.564 Y156.307 E50.53107
G1 X24.861 Y155.74 E50.56111
G1 X24.211 Y155.113 E50.59115
G1 X23.619 Y154.431 E50.62119
G1 X23.09 Y153.7 E50.6512
G1 X22.627 Y152.924 E50.68125
G1 X22.235 Y152.111 E50.71127
G1 X21.916 Y151.266 E50.74131
G1 X21.673 Y150.396 E50.77136
G1 X21.508 Y149.508 E50.8014
G1 X21.413 Y148.384 E50.83891
G1 X21.404 Y148.071 E50.84933
G1 X21.4 Y147.778 E50.85908
G1 X21.4 Y86.631 E52.89283
G1 X21.409 Y85.957 E52.91525
G1 X21.461 Y85.055 E52.9453
G1 X21.593 Y84.162 E52.97533
G1 X21.803 Y83.283 E53.00539
G1 X22.09 Y82.427 E53.03541
G1 X22.451 Y81.6 E53.06543
G1 X22.884 Y80.807 E53.09548
G1 X23.386 Y80.056 E53.12552
G1 X23.952 Y79.353 E53.15554
G1 X24.579 Y78.702 E53.1856
G1 X25.26 Y78.109 E53.21564
G1 X25.991 Y77.579 E53.24567
G1 X26.766 Y77.115 E53.27571
G1 X27.579 Y76.722 E53.30574
G1 F2700 E48.30574
;MESH:RIGHT_PANEL-SIDE_REAR003.stl
G0 F6000 X35.594 Y85.417
G0 X35.595 Y87.209
G0 X53.743 Y87.661
G0 X54.377 Y87.832
G0 X54.868 Y88.323
G0 X55.039 Y88.957
G0 X55.039 Y90.043
G0 X54.902 Y90.556
G0 X54.511 Y91.404
;TYPE:WALL-INNER
G1 F2700 E53.30574
G1 F1200 X55.104 Y90.811 E53.33364
G1 X55.3 Y90.079 E53.35884
G1 X55.3 Y88.921 E53.39736
G1 X55.104 Y88.189 E53.42256
G1 X54.511 Y87.596 E53.45045
G1 X53.779 Y87.4 E53.47566
G1 X35.621 Y87.4 E54.0796
G1 X34.889 Y87.596 E54.1048
G1 X34.296 Y88.189 E54.13269
G1 X34.1 Y88.921 E54.1579
G1 X34.101 Y90.053 E54.19555
G1 X34.157 Y90.44 E54.20855
G1 X33.858 Y90.547 E54.21912
G1 X33.07 Y91.458 E54.25918
G1 X32.834 Y92.641 E54.2993
G1 X33.208 Y93.785 E54.33933
G1 X34.098 Y94.599 E54.37945
G1 X35.272 Y94.869 E54.41951
G1 X36.427 Y94.528 E54.45957
G1 X37.265 Y93.662 E54.49965
G1 X37.571 Y92.496 E54.53974
G1 X37.333 Y91.6 E54.57058
G1 X53.779 Y91.6 E55.11757
G1 X54.511 Y91.404 E55.14278
G0 F6000 X54.304 Y91.045
;TYPE:WALL-OUTER
G1 F1200 X54.745 Y90.604 E55.16352
G1 X54.9 Y90.026 E55.18342
G1 X54.9 Y88.974 E55.21841
G1 X54.745 Y88.396 E55.23832
G1 X54.304 Y87.955 E55.25906
G1 X53.726 Y87.8 E55.27896
G1 X35.674 Y87.8 E55.87938
G1 X35.096 Y87.955 E55.89928
G1 X34.655 Y88.396 E55.92002
G1 X34.5 Y88.974 E55.93993
G1 X34.501 Y90.024 E55.97485
G1 X34.547 Y90.339 E55.98544
G1 X34.689 Y90.651 E55.99684
G1 X34.704 Y90.668 E55.99759
G1 X34.092 Y90.888 E56.01922
G1 X33.442 Y91.64 E56.05228
G1 X33.247 Y92.616 E56.08539
G1 X33.556 Y93.561 E56.11846
G1 X34.29 Y94.233 E56.15156
G1 X35.259 Y94.456 E56.18463
G1 X36.213 Y94.174 E56.21771
G1 X36.905 Y93.459 E56.25081
G1 X37.157 Y92.497 E56.28389
G1 X36.902 Y91.535 E56.31699
G1 X36.575 Y91.2 E56.33256
G1 X53.726 Y91.2 E56.903
G1 X54.304 Y91.045 E56.9229
G0 F6000 X54.524 Y91.426
G1 F2700 E51.9229
G0 F6000 X53.805 Y91.791
G0 X53.611 Y90.336
G0 X53.611 Y96.664
G0 X53.805 Y95.209
G0 X54.868 Y96.323
G0 X55.039 Y96.957
G0 X55.039 Y98.043
G0 X54.902 Y98.556
G0 X54.511 Y99.404
;TYPE:WALL-INNER
G1 F2700 E56.9229
G1 F1200 X55.104 Y98.811 E56.9508
G1 X55.3 Y98.079 E56.976
G1 X55.3 Y96.921 E57.01452
G1 X55.104 Y96.189 E57.03972
G1 X54.511 Y95.596 E57.06761
G1 X53.779 Y95.4 E57.09282
G1 X35.621 Y95.4 E57.69676
G1 X34.889 Y95.596 E57.72196
G1 X34.296 Y96.189 E57.74985
G1 X34.1 Y96.921 E57.77506
G1 X34.1 Y98.079 E57.81357
G1 X34.296 Y98.811 E57.83878
G1 X34.889 Y99.404 E57.86667
G1 X35.621 Y99.6 E57.89187
G1 X53.779 Y99.6 E58.49581
G1 X54.511 Y99.404 E58.52101
G0 F6000 X54.304 Y99.045
;TYPE:WALL-OUTER
G1 F1200 X54.745 Y98.604 E58.54176
G1 X54.9 Y98.026 E58.56166
G1 X54.9 Y96.974 E58.59665
G1 X54.745 Y96.396 E58.61655
G1 X54.304 Y95.955 E58.6373
G1 X53.726 Y95.8 E58.6572
G1 X35.674 Y95.8 E59.25761
G1 X35.096 Y95.955 E59.27752
G1 X34.655 Y96.396 E59.29826
G1 X34.5 Y96.974 E59.31816
G1 X34.5 Y98.026 E59.35315
G1 X34.655 Y98.604 E59.37306
G1 X35.096 Y99.045 E59.3938
G1 X35.674 Y99.2 E59.4137
G1 X53.726 Y99.2 E60.01412
G1 X54.304 Y99.045 E60.03402
G0 F6000 X54.524 Y99.426
G1 F2700 E55.03402
G0 F6000 X53.805 Y99.791
G0 X53.611 Y98.336
G0 X53.611 Y104.664
G0 X53.805 Y103.209
G0 X54.868 Y104.323
G0 X55.039 Y104.957
G0 X55.039 Y106.043
G0 X54.902 Y106.556
G0 X54.511 Y107.404
;TYPE:WALL-INNER
G1 F2700 E60.03402
G1 F1200 X55.104 Y106.811 E60.06191
G1 X55.3 Y106.079 E60.08712
G1 X55.3 Y104.921 E60.12563
G1 X55.104 Y104.189 E60.15084
G1 X54.511 Y103.596 E60.17873
G1 X53.779 Y103.4 E60.20393
G1 X35.621 Y103.4 E60.80787
G1 X34.889 Y103.596 E60.83307
G1 X34.296 Y104.189 E60.86097
G1 X34.1 Y104.921 E60.88617
G1 X34.1 Y106.079 E60.92469
G1 X34.296 Y106.811 E60.94989
G1 X34.889 Y107.404 E60.97778
G1 X35.621 Y107.6 E61.00299
G1 X53.779 Y107.6 E61.60693
G1 X54.511 Y107.404 E61.63213
G0 F6000 X54.304 Y107.045
;TYPE:WALL-OUTER
G1 F1200 X54.745 Y106.604 E61.65287
G1 X54.9 Y106.026 E61.67278
G1 X54.9 Y104.974 E61.70777
G1 X54.745 Y104.396 E61.72767
G1 X54.304 Y103.955 E61.74841
G1 X53.726 Y103.8 E61.76832
G1 X35.674 Y103.8 E62.36873
G1 X35.096 Y103.955 E62.38863
G1 X34.655 Y104.396 E62.40938
G1 X34.5 Y104.974 E62.42928
G1 X34.5 Y106.026 E62.46427
G1 X34.655 Y106.604 E62.48417
G1 X35.096 Y107.045 E62.50492
G1 X35.674 Y107.2 E62.52482
G1 X53.726 Y107.2 E63.12523
G1 X54.304 Y107.045 E63.14513
G0 F6000 X54.524 Y107.426
G1 F2700 E58.14513
G0 F6000 X53.805 Y107.791
G0 X53.611 Y106.336
G0 X53.611 Y112.664
G0 X53.805 Y111.209
G0 X54.868 Y112.323
G0 X55.039 Y112.957
G0 X55.039 Y114.043
G0 X54.902 Y114.556
G0 X54.511 Y115.404
;TYPE:WALL-INNER
G1 F2700 E63.14513
G1 F1200 X55.104 Y114.811 E63.17303
G1 X55.3 Y114.079 E63.19823
G1 X55.3 Y112.921 E63.23675
G1 X55.104 Y112.189 E63.26195
G1 X54.511 Y111.596 E63.28984
G1 X53.779 Y111.4 E63.31505
G1 X35.621 Y111.4 E63.91899
G1 X34.889 Y111.596 E63.94419
G1 X34.296 Y112.189 E63.97208
G1 X34.1 Y112.921 E63.99729
G1 X34.1 Y114.079 E64.0358
G1 X34.296 Y114.811 E64.06101
G1 X34.889 Y115.404 E64.0889
G1 X35.621 Y115.6 E64.1141
G1 X53.779 Y115.6 E64.71804
G1 X54.511 Y115.404 E64.74324
G0 F6000 X54.304 Y115.045
;TYPE:WALL-OUTER
G1 F1200 X54.745 Y114.604 E64.76399
G1 X54.9 Y114.026 E64.78389
G1 X54.9 Y112.974 E64.81888
G1 X54.745 Y112.396 E64.83878
G1 X54.304 Y111.955 E64.85953
G1 X53.726 Y111.8 E64.87943
G1 X35.674 Y111.8 E65.47984
G1 X35.096 Y111.955 E65.49975
G1 X34.655 Y112.396 E65.52049
G1 X34.5 Y112.974 E65.54039
G1 X34.5 Y114.026 E65.57538
G1 X34.655 Y114.604 E65.59529
G1 X35.096 Y115.045 E65.61603
G1 X35.674 Y115.2 E65.63593
G1 X53.726 Y115.2 E66.23635
G1 X54.304 Y115.045 E66.25625
G0 F6000 X54.524 Y115.426
G1 F2700 E61.25625
G0 F6000 X53.805 Y115.791
G0 X53.611 Y114.336
G0 X53.611 Y120.664
G0 X53.805 Y119.209
G0 X54.868 Y120.323
G0 X55.039 Y120.957
G0 X55.039 Y122.043
G0 X54.902 Y122.556
G0 X54.511 Y123.404
;TYPE:WALL-INNER
G1 F2700 E66.25625
G1 F1200 X55.104 Y122.811 E66.28414
G1 X55.3 Y122.079 E66.30935
G1 X55.3 Y120.921 E66.34786
G1 X55.104 Y120.189 E66.37307
G1 X54.511 Y119.596 E66.40096
G1 X53.779 Y119.4 E66.42616
G1 X35.621 Y119.4 E67.0301
G1 X34.889 Y119.596 E67.0553
G1 X34.296 Y120.189 E67.0832
G1 X34.1 Y120.921 E67.1084
G1 X34.1 Y122.079 E67.14692
G1 X34.296 Y122.811 E67.17212
G1 X34.889 Y123.404 E67.20001
G1 X35.621 Y123.6 E67.22522
G1 X53.779 Y123.6 E67.82916
G1 X54.511 Y123.404 E67.85436
G0 F6000 X54.304 Y123.045
;TYPE:WALL-OUTER
G1 F1200 X54.745 Y122.604 E67.8751
G1 X54.9 Y122.026 E67.89501
G1 X54.9 Y120.974 E67.93
G1 X54.745 Y120.396 E67.9499
G1 X54.304 Y119.955 E67.97064
G1 X53.726 Y119.8 E67.99055
G1 X35.674 Y119.8 E68.59096
G1 X35.096 Y119.955 E68.61086
