;FLAVOR:Marlin
;TIME:19989
;Filament used: 16.6922m
;Layer height: 0.2
;MINX:39.7
;MINY:28.219
;MINZ:0.2
;MAXX:195.3
;MAXY:206.781
;MAXZ:9.2
;Generated with Cura_SteamEngine master
M140 S50
M105
M190 S50
M104 S200
M105
M109 S200
M82 ;absolute extrusion mode
; Ender 3 Custom Start G-code
G92 E0 ; Reset Extruder
G28 ; Home all axes
G1 Z2.0 F3000 ; Move Z Axis up little to prevent scratching of Heat Bed
G1 X0.1 Y20 Z0.3 F5000.0 ; Move to start position
G1 X0.1 Y200.0 Z0.3 F1500.0 E15 ; Draw the first line
G1 X0.4 Y200.0 Z0.3 F5000.0 ; Move to side a little
G1 X0.4 Y20 Z0.3 F1500.0 E30 ; Draw the second line
G92 E0 ; Reset Extruder
G1 Z2.0 F3000 ; Move Z Axis up little to prevent scratching of Heat Bed
G1 X5 Y20 Z0.3 F5000.0 ; Move over to prevent blob squish
G92 E0
G92 E0
G1 F2700 E-5
;LAYER_COUNT:46
;LAYER:0
M107
G0 F6000 X42.053 Y32.567 Z0.2
;TYPE:SKIRT
G1 F2700 E0
G1 F1200 X42.653 Y31.846 E0.0312
G1 X43.311 Y31.178 E0.06238
G1 X44.025 Y30.569 E0.0936
G1 X44.787 Y30.023 E0.12478
G1 X45.593 Y29.544 E0.15596
G1 X46.437 Y29.135 E0.18715
G1 X47.313 Y28.799 E0.21836
G1 X48.214 Y28.54 E0.24954
G1 X49.134 Y28.358 E0.28073
G1 X50.385 Y28.238 E0.32253
G1 X50.62 Y28.229 E0.33035
G1 X50.937 Y28.221 E0.3409
G1 X51.148 Y28.219 E0.34792
G1 X183.492 Y28.219 E4.7497
G1 X184.35 Y28.23 E4.77824
G1 X185.286 Y28.283 E4.80942
G1 X186.215 Y28.416 E4.84063
G1 X187.128 Y28.628 E4.87181
G1 X188.021 Y28.916 E4.90302
G1 X188.885 Y29.28 E4.9342
G1 X189.716 Y29.716 E4.96541
G1 X190.506 Y30.221 E4.9966
G1 X191.25 Y30.791 E5.02777
G1 X191.943 Y31.423 E5.05896
G1 X192.58 Y32.112 E5.09017
G1 X193.156 Y32.852 E5.12136
G1 X193.667 Y33.639 E5.15257
G1 X194.108 Y34.466 E5.18375
G1 X194.333 Y34.965 E5.20195
G1 X194.423 Y35.179 E5.20967
G1 X194.749 Y36.058 E5.24085
G1 X194.999 Y36.962 E5.27205
G1 X195.182 Y37.957 E5.3057
G1 X195.191 Y38.023 E5.30791
G1 X195.291 Y39.36 E5.35251
G1 X195.3 Y40.098 E5.37706
G1 X195.299 Y194.964 E10.52792
G1 X195.288 Y195.703 E10.5525
G1 X195.234 Y196.639 E10.58368
G1 X195.1 Y197.567 E10.61487
G1 X194.858 Y198.589 E10.6498
G1 X194.399 Y199.882 E10.69544
G1 X194.312 Y200.086 E10.70281
G1 X193.908 Y200.932 E10.73399
G1 X193.433 Y201.741 E10.7652
G1 X192.891 Y202.506 E10.79638
G1 X192.285 Y203.223 E10.8276
G1 X191.621 Y203.885 E10.85879
G1 X190.903 Y204.488 E10.88998
G1 X190.136 Y205.028 E10.92117
G1 X189.326 Y205.5 E10.95236
G1 X188.479 Y205.902 E10.98354
G1 X187.6 Y206.23 E11.01474
G1 X186.697 Y206.483 E11.04593
G1 X185.775 Y206.657 E11.07714
G1 X184.565 Y206.765 E11.11755
G1 X184.062 Y206.779 E11.13428
G1 X183.852 Y206.781 E11.14127
G1 X51.345 Y206.78 E15.54847
G1 X50.664 Y206.77 E15.57112
G1 X49.728 Y206.716 E15.6023
G1 X48.8 Y206.583 E15.63348
G1 X47.886 Y206.371 E15.66469
G1 X46.994 Y206.082 E15.69588
G1 X46.13 Y205.718 E15.72706
G1 X45.299 Y205.282 E15.75827
G1 X44.509 Y204.776 E15.78948
G1 X43.765 Y204.206 E15.82065
G1 X43.072 Y203.574 E15.85184
G1 X42.436 Y202.885 E15.88303
G1 X41.86 Y202.144 E15.91425
G1 X41.35 Y201.357 E15.94544
G1 X40.97 Y200.656 E15.97196
G1 X40.855 Y200.424 E15.98057
G1 X40.475 Y199.567 E16.01175
G1 X40.169 Y198.68 E16.04296
G1 X39.94 Y197.771 E16.07414
G1 X39.789 Y196.845 E16.10534
G1 X39.721 Y196.007 E16.13331
G1 X39.708 Y195.574 E16.14771
G1 X39.7 Y194.847 E16.1719
G1 X39.701 Y39.971 E21.32309
G1 X39.712 Y39.282 E21.34601
G1 X39.767 Y38.346 E21.3772
G1 X39.902 Y37.418 E21.40839
G1 X40.115 Y36.505 E21.43957
G1 X40.557 Y35.227 E21.48455
G1 X40.652 Y34.999 E21.49276
G1 X41.049 Y34.15 E21.52393
G1 X41.518 Y33.337 E21.55515
G1 X42.053 Y32.567 E21.58634
G0 F6000 X42.403 Y32.769
G1 F1200 X42.995 Y32.064 E21.61696
G1 X43.646 Y31.414 E21.64755
G1 X44.351 Y30.822 E21.67817
G1 X45.105 Y30.293 E21.70881
G1 X45.902 Y29.833 E21.73941
G1 X46.736 Y29.442 E21.77005
G1 X47.601 Y29.126 E21.80068
G1 X48.49 Y28.886 E21.83131
G1 X49.396 Y28.724 E21.86192
G1 X50.4 Y28.638 E21.89543
G1 X50.635 Y28.629 E21.90326
G1 X50.941 Y28.621 E21.91344
G1 X51.152 Y28.619 E21.92045
G1 X183.492 Y28.619 E26.3221
G1 X184.344 Y28.63 E26.35044
G1 X185.263 Y28.683 E26.38106
G1 X186.174 Y28.816 E26.41168
G1 X187.07 Y29.027 E26.4423
G1 X187.945 Y29.315 E26.47293
G1 X188.791 Y29.678 E26.50355
G1 X189.602 Y30.113 E26.53416
G1 X190.373 Y30.617 E26.5648
G1 X191.097 Y31.186 E26.59543
G1 X191.769 Y31.815 E26.62604
G1 X192.384 Y32.5 E26.65666
G1 X192.937 Y33.236 E26.68728
G1 X193.424 Y34.018 E26.71792
G1 X193.964 Y35.12 E26.75873
G1 X194.054 Y35.334 E26.76646
G1 X194.374 Y36.197 E26.79707
G1 X194.617 Y37.085 E26.82769
G1 X194.786 Y38.011 E26.859
G1 X194.795 Y38.077 E26.86121
G1 X194.891 Y39.365 E26.90417
G1 X194.9 Y40.098 E26.92855
G1 X194.899 Y194.958 E32.07922
G1 X194.888 Y195.697 E32.1038
G1 X194.834 Y196.616 E32.13442
G1 X194.701 Y197.527 E32.16504
G1 X194.473 Y198.479 E32.1976
G1 X194.031 Y199.725 E32.24157
G1 X193.944 Y199.929 E32.24895
G1 X193.547 Y200.76 E32.27958
G1 X193.079 Y201.552 E32.31018
G1 X192.543 Y202.301 E32.34081
G1 X191.945 Y203.001 E32.37143
G1 X191.289 Y203.647 E32.40205
G1 X190.578 Y204.233 E32.4327
G1 X189.82 Y204.755 E32.46331
G1 X189.019 Y205.209 E32.49393
G1 X188.182 Y205.592 E32.52455
G1 X187.315 Y205.901 E32.55516
G1 X186.424 Y206.134 E32.58579
G1 X185.517 Y206.288 E32.61639
G1 X184.552 Y206.365 E32.64859
G1 X184.058 Y206.379 E32.66502
G1 X183.848 Y206.381 E32.67201
G1 X51.351 Y206.38 E37.07888
G1 X50.67 Y206.37 E37.10153
G1 X49.751 Y206.316 E37.13215
G1 X48.84 Y206.183 E37.16277
G1 X47.944 Y205.972 E37.19339
G1 X47.07 Y205.683 E37.224
G1 X46.224 Y205.32 E37.25462
G1 X45.413 Y204.885 E37.28523
G1 X44.642 Y204.381 E37.31587
G1 X43.919 Y203.811 E37.34649
G1 X43.247 Y203.182 E37.3771
G1 X42.633 Y202.496 E37.40772
G1 X42.08 Y201.76 E37.43834
G1 X41.593 Y200.978 E37.46898
G1 X41.329 Y200.479 E37.48776
G1 X41.214 Y200.247 E37.49637
G1 X40.841 Y199.405 E37.527
G1 X40.543 Y198.534 E37.55762
G1 X40.321 Y197.64 E37.58826
G1 X40.178 Y196.731 E37.61886
G1 X40.121 Y195.99 E37.64358
G1 X40.108 Y195.569 E37.65759
G1 X40.1 Y194.847 E37.68161
G1 X40.101 Y39.978 E42.83257
G1 X40.112 Y39.289 E42.85549
G1 X40.167 Y38.37 E42.88611
G1 X40.301 Y37.459 E42.91674
G1 X40.514 Y36.563 E42.94737
G1 X40.926 Y35.381 E42.989
G1 X41.021 Y35.153 E42.99722
G1 X41.412 Y34.319 E43.02785
G1 X41.874 Y33.523 E43.05846
G1 X42.403 Y32.769 E43.0891
G0 F6000 X42.751 Y32.972
G1 F1200 X43.336 Y32.284 E43.11914
G1 X43.98 Y31.651 E43.14917
G1 X44.677 Y31.077 E43.1792
G1 X45.422 Y30.567 E43.20923
G1 X46.21 Y30.124 E43.2393
G1 X47.033 Y29.753 E43.26932
G1 X47.886 Y29.457 E43.29935
G1 X48.762 Y29.237 E43.32939
G1 X49.654 Y29.095 E43.35944
G1 X50.416 Y29.037 E43.38485
G1 X50.651 Y29.028 E43.39268
G1 X50.944 Y29.021 E43.40242
G1 X51.155 Y29.019 E43.40944
G1 X183.492 Y29.019 E47.81099
G1 X184.338 Y29.03 E47.83913
G1 X185.24 Y29.083 E47.86918
G1 X186.133 Y29.215 E47.89921
G1 X187.012 Y29.426 E47.92927
G1 X187.868 Y29.714 E47.95931
G1 X188.695 Y30.076 E47.98934
G1 X189.487 Y30.51 E48.01937
G1 X190.237 Y31.013 E48.04941
G1 X190.94 Y31.58 E48.07945
G1 X191.59 Y32.206 E48.10946
G1 X192.183 Y32.888 E48.13952
G1 X192.712 Y33.62 E48.16956
G1 X193.175 Y34.395 E48.19959
G1 X193.595 Y35.275 E48.23202
G1 X193.685 Y35.489 E48.23974
G1 X193.998 Y36.336 E48.26977
G1 X194.235 Y37.207 E48.2998
G1 X194.389 Y38.065 E48.32879
G1 X194.398 Y38.131 E48.33101
G1 X194.491 Y39.37 E48.37233
G1 X194.5 Y40.098 E48.39655
G1 X194.499 Y194.952 E53.54701
G1 X194.488 Y195.691 E53.57159
G1 X194.434 Y196.592 E53.60161
G1 X194.302 Y197.486 E53.63167
G1 X194.089 Y198.369 E53.66188
G1 X193.663 Y199.568 E53.7042
G1 X193.576 Y199.772 E53.71158
G1 X193.186 Y200.587 E53.74163
G1 X192.725 Y201.363 E53.77165
G1 X192.196 Y202.096 E53.80172
G1 X191.606 Y202.779 E53.83174
G1 X190.957 Y203.407 E53.86177
G1 X190.255 Y203.975 E53.89181
G1 X189.505 Y204.479 E53.92186
G1 X188.714 Y204.915 E53.9519
G1 X187.888 Y205.279 E53.98192
G1 X187.032 Y205.568 E54.01197
G1 X186.155 Y205.781 E54.04199
G1 X185.262 Y205.915 E54.07202
G1 X184.538 Y205.965 E54.09616
G1 X184.054 Y205.979 E54.11227
G1 X183.844 Y205.981 E54.11925
G1 X51.357 Y205.98 E58.52579
G1 X50.676 Y205.97 E58.54844
G1 X49.775 Y205.917 E58.57846
G1 X48.881 Y205.784 E58.60852
G1 X48.003 Y205.573 E58.63855
G1 X47.147 Y205.285 E58.66859
G1 X46.32 Y204.922 E58.69863
G1 X45.529 Y204.487 E58.72866
G1 X44.778 Y203.985 E58.7587
G1 X44.076 Y203.418 E58.78872
G1 X43.426 Y202.791 E58.81875
G1 X42.834 Y202.108 E58.84882
G1 X42.304 Y201.377 E58.87885
G1 X41.687 Y200.301 E58.9201
G1 X41.572 Y200.069 E58.92871
G1 X41.207 Y199.243 E58.95875
G1 X40.917 Y198.388 E58.98878
G1 X40.703 Y197.51 E59.01884
G1 X40.568 Y196.617 E59.04887
G1 X40.52 Y195.973 E59.07035
G1 X40.508 Y195.564 E59.08396
G1 X40.5 Y194.847 E59.10781
G1 X40.501 Y39.984 E64.25858
G1 X40.512 Y39.295 E64.28149
G1 X40.567 Y38.394 E64.31152
G1 X40.701 Y37.501 E64.34155
G1 X40.913 Y36.623 E64.37159
G1 X41.296 Y35.535 E64.40996
G1 X41.391 Y35.307 E64.41817
G1 X41.775 Y34.489 E64.44823
G1 X42.229 Y33.709 E64.47825
G1 X42.751 Y32.972 E64.50828
G1 F2700 E59.50828
;MESH:TFT_PANEL.stl
G0 F6000 X50.086 Y39.206
G0 X51.114 Y39.633
G0 X55.251 Y40.025
G0 X53.688 Y41.649
G0 X54.136 Y43.434
G0 X54.922 Y44.22
G0 X55.892 Y44.481
G0 X57.161 Y44.366
;TYPE:WALL-INNER
G1 F2700 E64.50828
G1 F1200 X58.01 Y43.517 E64.54822
G1 X58.321 Y42.356 E64.58819
G1 X58.01 Y41.195 E64.62817
G1 X57.161 Y40.346 E64.66811
G1 X56.671 Y40.214 E64.68498
G1 X56 Y40.035 E64.70808
G1 X55.329 Y40.214 E64.73118
G1 X54.839 Y40.346 E64.74806
G1 X53.99 Y41.195 E64.78799
G1 X53.679 Y42.356 E64.82797
G1 X53.99 Y43.517 E64.86795
G1 X54.839 Y44.366 E64.90788
G1 X56 Y44.677 E64.94786
G1 X57.161 Y44.366 E64.98783
G0 F6000 X56.954 Y44.007
;TYPE:WALL-OUTER
G1 F1200 X57.651 Y43.31 E65.02062
G1 X57.907 Y42.356 E65.05347
G1 X57.651 Y41.402 E65.08632
G1 X56.954 Y40.705 E65.11911
G1 X56 Y40.449 E65.15196
G1 X55.046 Y40.705 E65.18481
G1 X54.349 Y41.402 E65.2176
G1 X54.093 Y42.356 E65.25045
G1 X54.349 Y43.31 E65.2833
G1 X55.046 Y44.007 E65.31609
G1 X56 Y44.263 E65.34894
G1 X56.954 Y44.007 E65.38179
G0 F6000 X57.174 Y44.388
G1 F2700 E60.38179
G0 F6000 X58.164 Y43.607
G0 X58.164 Y41.105
G0 X56.749 Y40.025
G0 X178.251 Y40.025
G0 X176.836 Y41.105
G0 X176.836 Y43.13
G0 X177.839 Y44.366
;TYPE:WALL-INNER
G1 F2700 E65.38179
G1 F1200 X179 Y44.677 E65.42177
G1 X180.161 Y44.366 E65.46175
G1 X181.01 Y43.517 E65.50168
G1 X181.321 Y42.356 E65.54166
G1 X181.01 Y41.195 E65.58163
G1 X180.161 Y40.346 E65.62157
G1 X179.671 Y40.214 E65.63845
G1 X179 Y40.035 E65.66154
G1 X178.329 Y40.214 E65.68464
G1 X177.839 Y40.346 E65.70152
G1 X176.99 Y41.195 E65.74146
G1 X176.679 Y42.356 E65.78143
G1 X176.99 Y43.517 E65.82141
G1 X177.839 Y44.366 E65.86134
G0 F6000 X178.046 Y44.007
;TYPE:WALL-OUTER
G1 F1200 X179 Y44.263 E65.8942
G1 X179.954 Y44.007 E65.92705
G1 X180.651 Y43.31 E65.95983
G1 X180.907 Y42.356 E65.99269
G1 X180.651 Y41.402 E66.02554
G1 X179.954 Y40.705 E66.05832
G1 X179 Y40.449 E66.09118
G1 X178.046 Y40.705 E66.12403
G1 X177.349 Y41.402 E66.15681
G1 X177.093 Y42.356 E66.18967
G1 X177.349 Y43.31 E66.22252
G1 X178.046 Y44.007 E66.2553
G0 F6000 X177.826 Y44.388
G1 F2700 E61.2553
G0 F6000 X179 Y44.854
G0 X181.164 Y43.607
G0 X181.164 Y41.105
G0 X179.749 Y40.025
G0 X183.518 Y40.001
G0 X183.518 Y194.999
G0 X179.749 Y194.975
G0 X181.164 Y193.895
G0 X181.164 Y191.393
G0 X179 Y190.146
G0 X177.003 Y191.21
G0 X176.862 Y192.5
G0 X176.99 Y193.805
;TYPE:WALL-INNER
G1 F2700 E66.2553
G1 F1200 X177.839 Y194.654 E66.29524
G1 X178.329 Y194.786 E66.31212
G1 X179 Y194.965 E66.33521
G1 X179.671 Y194.786 E66.35831
G1 X180.161 Y194.654 E66.37519
G1 X181.01 Y193.805 E66.41512
G1 X181.321 Y192.644 E66.4551
G1 X181.01 Y191.483 E66.49508
G1 X180.161 Y190.634 E66.53501
G1 X179 Y190.323 E66.57499
G1 X177.839 Y190.634 E66.61497
G1 X176.99 Y191.483 E66.6549
G1 X176.679 Y192.644 E66.69488
G1 X176.99 Y193.805 E66.73485
G0 F6000 X177.349 Y193.598
;TYPE:WALL-OUTER
G1 F1200 X178.046 Y194.295 E66.76764
G1 X179 Y194.551 E66.80049
G1 X179.954 Y194.295 E66.83334
G1 X180.651 Y193.598 E66.86613
G1 X180.907 Y192.644 E66.89898
G1 X180.651 Y191.69 E66.93183
G1 X179.954 Y190.993 E66.96462
G1 X179 Y190.737 E66.99747
G1 X178.046 Y190.993 E67.03032
G1 X177.349 Y191.69 E67.06311
G1 X177.093 Y192.644 E67.09596
G1 X177.349 Y193.598 E67.12881
G0 F6000 X176.968 Y193.818
G1 F2700 E62.12881
G0 F6000 X178.251 Y194.975
G0 X56.749 Y194.975
G0 X58.01 Y193.805
;TYPE:WALL-INNER
G1 F2700 E67.12881
G1 F1200 X58.321 Y192.644 E67.16879
G1 X58.01 Y191.483 E67.20877
G1 X57.161 Y190.634 E67.2487
G1 X56 Y190.323 E67.28868
G1 X54.839 Y190.634 E67.32865
G1 X53.99 Y191.483 E67.36859
G1 X53.679 Y192.644 E67.40856
G1 X53.99 Y193.805 E67.44854
G1 X54.839 Y194.654 E67.48847
G1 X55.329 Y194.786 E67.50535
G1 X56 Y194.965 E67.52845
G1 X56.671 Y194.786 E67.55155
G1 X57.161 Y194.654 E67.56843
G1 X58.01 Y193.805 E67.60836
G0 F6000 X57.651 Y193.598
;TYPE:WALL-OUTER
G1 F1200 X57.907 Y192.644 E67.64121
G1 X57.651 Y191.69 E67.67407
G1 X56.954 Y190.993 E67.70685
G1 X56 Y190.737 E67.73971
G1 X55.046 Y190.993 E67.77256
G1 X54.349 Y191.69 E67.80534
G1 X54.093 Y192.644 E67.8382
G1 X54.349 Y193.598 E67.87105
G1 X55.046 Y194.295 E67.90383
G1 X56 Y194.551 E67.93669
G1 X56.954 Y194.295 E67.96954
G1 X57.651 Y193.598 E68.00232
G0 F6000 X58.032 Y193.818
G1 F2700 E63.00232
G0 F6000 X58.154 Y192.644
G0 X58.198 Y191.374
G0 X56.877 Y192.137
G0 X88.265 Y157.619
G0 X86.83 Y157.619
G0 X87 Y159.546
;TYPE:WALL-INNER
G1 F2700 E68.00232
G1 F1200 X148 Y159.546 E70.03119
G1 X148 Y56.546 E73.45699
G1 X87 Y56.546 E75.48585
G1 X87 Y159.546 E78.91165
G0 F6000 X87.4 Y159.146
;TYPE:WALL-OUTER
G1 F1200 X147.6 Y159.146 E80.91391
G1 X147.6 Y56.946 E84.31309
G1 X87.4 Y56.946 E86.31535
G1 X87.4 Y159.146 E89.71454
G1 F2700 E84.71454
G0 F6000 X87.1 Y159.146
G0 X117.26 Y159.736
G0 X117.26 Y158.281
G0 X117.26 Y175.242
G0 X117.26 Y173.765
G0 X115.413 Y174.45
G0 X113.79 Y175.405
G0 X112.598 Y176.863
G0 X111.989 Y178.641
G0 X111.99 Y180.287
G0 X112.599 Y182.065
G0 X113.789 Y183.524
G0 X115.411 Y184.478
G0 X117.26 Y184.974
;TYPE:WALL-INNER
G1 F2700 E89.71454
G1 F1200 X118.906 Y184.683 E89.77013
G1 X119.164 Y184.634 E89.77887
G1 X120.62 Y183.793 E89.83479
G1 X120.839 Y183.649 E89.84351
G1 X121.919 Y182.361 E89.89942
G1 X122.066 Y182.143 E89.90816
G1 X122.639 Y180.565 E89.964
G1 X122.692 Y180.308 E89.97273
G1 X122.691 Y178.628 E90.0286
G1 X122.641 Y178.37 E90.03735
G1 X122.066 Y176.794 E90.09314
G1 X121.923 Y176.574 E90.10187
G1 X120.84 Y175.287 E90.15782
G1 X120.624 Y175.141 E90.16649
G1 X119.167 Y174.3 E90.22244
G1 X118.911 Y174.247 E90.23114
G1 X117.26 Y173.958 E90.28688
G1 X115.614 Y174.248 E90.34247
G1 X115.355 Y174.297 E90.35124
G1 X113.9 Y175.139 E90.40715
G1 X113.681 Y175.283 E90.41587
G1 X112.601 Y176.571 E90.47178
G1 X112.454 Y176.789 E90.48052
G1 X111.881 Y178.367 E90.53636
G1 X111.828 Y178.624 E90.54509
G1 X111.829 Y180.304 E90.60096
G1 X111.879 Y180.562 E90.6097
G1 X112.454 Y182.138 E90.6655
G1 X112.597 Y182.358 E90.67423
G1 X113.679 Y183.644 E90.73013
G1 X113.895 Y183.792 E90.73884
G1 X115.353 Y184.631 E90.79478
G1 X115.609 Y184.684 E90.80348
G1 X117.26 Y184.974 E90.85923
G0 F6000 X117.26 Y184.568
;TYPE:WALL-OUTER
G1 F1200 X118.834 Y184.29 E90.91239
G1 X119.023 Y184.254 E90.91879
G1 X120.41 Y183.452 E90.97208
G1 X120.57 Y183.347 E90.97845
G1 X121.599 Y182.12 E91.03171
G1 X121.707 Y181.96 E91.03813
G1 X122.253 Y180.456 E91.09135
G1 X122.292 Y180.267 E91.09777
G1 X122.291 Y178.667 E91.15098
G1 X122.254 Y178.478 E91.15739
G1 X121.706 Y176.974 E91.21063
G1 X121.601 Y176.813 E91.21702
G1 X120.57 Y175.587 E91.2703
G1 X120.412 Y175.48 E91.27665
G1 X119.023 Y174.679 E91.32998
G1 X118.836 Y174.64 E91.33633
G1 X117.26 Y174.364 E91.38955
G1 X115.686 Y174.641 E91.4427
G1 X115.497 Y174.677 E91.4491
G1 X114.11 Y175.48 E91.50241
G1 X113.95 Y175.585 E91.50877
G1 X112.921 Y176.812 E91.56203
G1 X112.813 Y176.972 E91.56845
G1 X112.267 Y178.476 E91.62167
G1 X112.228 Y178.665 E91.62809
G1 X112.229 Y180.265 E91.68131
G1 X112.266 Y180.454 E91.68771
G1 X112.814 Y181.958 E91.74095
G1 X112.919 Y182.119 E91.74734
G1 X113.95 Y183.345 E91.80062
G1 X114.108 Y183.453 E91.80699
G1 X115.497 Y184.252 E91.86029
G1 X115.684 Y184.291 E91.86664
