;FLAVOR:Marlin
;TIME:22071
;Filament used: 18.7403m
;Layer height: 0.2
;MINX:39.7
;MINY:42.741
;MINZ:0.2
;MAXX:195.3
;MAXY:191.359
;MAXZ:12.2
;Generated with Cura_SteamEngine master
M140 S50
M105
M190 S50
M104 S200
M105
M109 S200
M82 ;absolute extrusion mode
; Ender 3 Custom Start G-code
G92 E0 ; Reset Extruder
G28 ; Home all axes
G1 Z2.0 F3000 ; Move Z Axis up little to prevent scratching of Heat Bed
G1 X0.1 Y20 Z0.3 F5000.0 ; Move to start position
G1 X0.1 Y200.0 Z0.3 F1500.0 E15 ; Draw the first line
G1 X0.4 Y200.0 Z0.3 F5000.0 ; Move to side a little
G1 X0.4 Y20 Z0.3 F1500.0 E30 ; Draw the second line
G92 E0 ; Reset Extruder
G1 Z2.0 F3000 ; Move Z Axis up little to prevent scratching of Heat Bed
G1 X5 Y20 Z0.3 F5000.0 ; Move over to prevent blob squish
G92 E0
G92 E0
G1 F2700 E-5
;LAYER_COUNT:61
;LAYER:0
M107
G0 F6000 X42.897 Y46.005 Z0.2
;TYPE:SKIRT
G1 F2700 E0
G1 F1200 X43.585 Y45.368 E0.03119
G1 X44.325 Y44.792 E0.06237
G1 X45.111 Y44.28 E0.09357
G1 X45.938 Y43.838 E0.12476
G1 X46.8 Y43.468 E0.15596
G1 X47.69 Y43.172 E0.18716
G1 X48.602 Y42.954 E0.21835
G1 X49.529 Y42.813 E0.24953
G1 X50.399 Y42.754 E0.27854
G1 X50.719 Y42.745 E0.28918
G1 X51.028 Y42.741 E0.29946
G1 X183.593 Y42.741 E4.70859
G1 X184.449 Y42.752 E4.73706
G1 X185.385 Y42.806 E4.76825
G1 X186.313 Y42.938 E4.79942
G1 X187.227 Y43.15 E4.83063
G1 X188.119 Y43.439 E4.86182
G1 X188.984 Y43.802 E4.89302
G1 X189.814 Y44.238 E4.9242
G1 X190.605 Y44.743 E4.95541
G1 X191.349 Y45.314 E4.98661
G1 X192.042 Y45.946 E5.0178
G1 X192.679 Y46.634 E5.04899
G1 X193.254 Y47.375 E5.08018
G1 X193.765 Y48.161 E5.11136
G1 X194.207 Y48.989 E5.14258
G1 X194.576 Y49.851 E5.17377
G1 X194.871 Y50.741 E5.20495
G1 X195.089 Y51.653 E5.23614
G1 X195.229 Y52.581 E5.26736
G1 X195.287 Y53.442 E5.29606
G1 X195.296 Y53.762 E5.30671
G1 X195.3 Y54.071 E5.31698
G1 X195.299 Y179.759 E9.49738
G1 X195.29 Y180.486 E9.52157
G1 X195.239 Y181.423 E9.55278
G1 X195.107 Y182.351 E9.58395
G1 X194.898 Y183.265 E9.61514
G1 X194.611 Y184.158 E9.64633
G1 X194.249 Y185.024 E9.67755
G1 X193.815 Y185.855 E9.70873
G1 X193.311 Y186.646 E9.73993
G1 X192.742 Y187.391 E9.77111
G1 X192.111 Y188.086 E9.80233
G1 X191.424 Y188.724 E9.83351
G1 X190.685 Y189.301 E9.8647
G1 X189.899 Y189.813 E9.8959
G1 X189.073 Y190.256 E9.92707
G1 X188.211 Y190.628 E9.9583
G1 X187.322 Y190.924 E9.98946
G1 X186.41 Y191.144 E10.02067
G1 X185.483 Y191.285 E10.05185
G1 X184.599 Y191.346 E10.08132
G1 X184.278 Y191.355 E10.09201
G1 X183.97 Y191.359 E10.10225
G1 X51.265 Y191.358 E14.51604
G1 X50.567 Y191.349 E14.53925
G1 X49.631 Y191.297 E14.57043
G1 X48.702 Y191.165 E14.60164
G1 X47.788 Y190.955 E14.63283
G1 X46.895 Y190.668 E14.66403
G1 X46.03 Y190.305 E14.69523
G1 X45.199 Y189.871 E14.72641
G1 X44.408 Y189.367 E14.75761
G1 X43.663 Y188.797 E14.78881
G1 X42.969 Y188.166 E14.82001
G1 X42.332 Y187.479 E14.85117
G1 X41.755 Y186.739 E14.88238
G1 X41.243 Y185.953 E14.91358
G1 X40.8 Y185.126 E14.94478
G1 X40.429 Y184.265 E14.97596
G1 X40.133 Y183.375 E15.00716
G1 X39.914 Y182.463 E15.03835
G1 X39.773 Y181.536 E15.06954
G1 X39.712 Y180.627 E15.09984
G1 X39.703 Y180.27 E15.11172
G1 X39.7 Y179.993 E15.12093
G1 X39.7 Y54.266 E19.30263
G1 X39.709 Y53.601 E19.32475
G1 X39.762 Y52.665 E19.35593
G1 X39.894 Y51.736 E19.38714
G1 X40.105 Y50.822 E19.41834
G1 X40.393 Y49.93 E19.44952
G1 X40.756 Y49.065 E19.48072
G1 X41.191 Y48.234 E19.51191
G1 X41.695 Y47.444 E19.54308
G1 X42.265 Y46.699 E19.57428
G1 X42.897 Y46.005 E19.6055
G0 F6000 X43.288 Y46.18
G1 F1200 X43.973 Y45.564 E19.63614
G1 X44.709 Y45.011 E19.66676
G1 X45.49 Y44.523 E19.69739
G1 X46.31 Y44.105 E19.728
G1 X47.164 Y43.76 E19.75864
G1 X48.044 Y43.49 E19.78925
G1 X48.944 Y43.298 E19.81986
G1 X49.858 Y43.184 E19.8505
G1 X50.41 Y43.154 E19.86888
G1 X50.73 Y43.145 E19.87953
G1 X51.028 Y43.141 E19.88944
G1 X183.593 Y43.141 E24.29857
G1 X184.443 Y43.152 E24.32685
G1 X185.362 Y43.205 E24.35746
G1 X186.273 Y43.338 E24.38808
G1 X187.169 Y43.549 E24.4187
G1 X188.043 Y43.837 E24.44931
G1 X188.89 Y44.2 E24.47996
G1 X189.701 Y44.635 E24.51057
G1 X190.471 Y45.139 E24.54117
G1 X191.195 Y45.708 E24.5718
G1 X191.867 Y46.338 E24.60244
G1 X192.482 Y47.023 E24.63306
G1 X193.035 Y47.759 E24.66368
G1 X193.522 Y48.54 E24.69429
G1 X193.939 Y49.361 E24.72492
G1 X194.284 Y50.215 E24.75555
G1 X194.553 Y51.095 E24.78616
G1 X194.745 Y51.996 E24.8168
G1 X194.858 Y52.909 E24.84739
G1 X194.887 Y53.453 E24.86551
G1 X194.896 Y53.773 E24.87616
G1 X194.9 Y54.071 E24.88607
G1 X194.899 Y179.754 E29.06631
G1 X194.89 Y180.481 E29.09049
G1 X194.839 Y181.4 E29.1211
G1 X194.708 Y182.312 E29.15175
G1 X194.498 Y183.208 E29.18235
G1 X194.212 Y184.083 E29.21297
G1 X193.851 Y184.93 E29.2436
G1 X193.417 Y185.742 E29.27422
G1 X192.915 Y186.514 E29.30485
G1 X192.347 Y187.239 E29.33548
G1 X191.719 Y187.912 E29.3661
G1 X191.035 Y188.528 E29.39671
G1 X190.3 Y189.082 E29.42732
G1 X189.52 Y189.571 E29.45794
G1 X188.7 Y189.99 E29.48857
G1 X187.847 Y190.336 E29.51919
G1 X186.967 Y190.607 E29.54981
G1 X186.067 Y190.8 E29.58043
G1 X185.153 Y190.915 E29.61107
G1 X184.588 Y190.946 E29.62989
G1 X184.267 Y190.955 E29.64057
G1 X183.97 Y190.959 E29.65045
G1 X51.27 Y190.958 E34.06407
G1 X50.572 Y190.949 E34.08728
G1 X49.653 Y190.897 E34.1179
G1 X48.742 Y190.766 E34.14851
G1 X47.846 Y190.556 E34.17912
G1 X46.971 Y190.269 E34.20975
G1 X46.124 Y189.907 E34.24038
G1 X45.312 Y189.473 E34.27101
G1 X44.541 Y188.971 E34.30161
G1 X43.816 Y188.403 E34.33224
G1 X43.143 Y187.774 E34.36288
G1 X42.528 Y187.09 E34.39347
G1 X41.974 Y186.355 E34.42408
G1 X41.486 Y185.574 E34.45471
G1 X41.067 Y184.754 E34.48534
G1 X40.721 Y183.901 E34.51596
G1 X40.451 Y183.021 E34.54657
G1 X40.258 Y182.12 E34.57722
G1 X40.144 Y181.207 E34.60782
G1 X40.112 Y180.617 E34.62748
G1 X40.103 Y180.26 E34.63935
G1 X40.1 Y179.993 E34.64823
G1 X40.1 Y54.272 E38.82973
G1 X40.109 Y53.607 E38.85185
G1 X40.161 Y52.687 E38.8825
G1 X40.293 Y51.776 E38.91312
G1 X40.504 Y50.88 E38.94373
G1 X40.791 Y50.005 E38.97436
G1 X41.154 Y49.159 E39.00498
G1 X41.588 Y48.347 E39.0356
G1 X42.091 Y47.576 E39.06622
G1 X42.66 Y46.852 E39.09685
G1 X43.288 Y46.18 E39.12744
G0 F6000 X43.68 Y46.358
G1 F1200 X44.361 Y45.765 E39.15747
G1 X45.093 Y45.235 E39.18753
G1 X45.868 Y44.772 E39.21756
G1 X46.681 Y44.379 E39.24759
G1 X47.526 Y44.059 E39.27764
G1 X48.395 Y43.816 E39.30766
G1 X49.283 Y43.65 E39.3377
G1 X50.421 Y43.554 E39.37569
G1 X50.741 Y43.545 E39.38633
G1 X51.028 Y43.541 E39.39588
G1 X183.593 Y43.541 E43.80501
G1 X184.437 Y43.552 E43.83308
G1 X185.339 Y43.605 E43.86314
G1 X186.232 Y43.737 E43.89316
G1 X187.11 Y43.948 E43.92319
G1 X187.966 Y44.236 E43.95323
G1 X188.793 Y44.598 E43.98326
G1 X189.585 Y45.033 E44.01331
G1 X190.336 Y45.535 E44.04336
G1 X191.039 Y46.102 E44.0734
G1 X191.689 Y46.729 E44.10344
G1 X192.281 Y47.411 E44.13347
G1 X192.811 Y48.142 E44.1635
G1 X193.273 Y48.918 E44.19354
G1 X193.666 Y49.731 E44.22358
G1 X193.984 Y50.576 E44.2536
G1 X194.227 Y51.446 E44.28365
G1 X194.392 Y52.334 E44.31369
G1 X194.487 Y53.464 E44.35141
G1 X194.496 Y53.784 E44.36205
G1 X194.5 Y54.071 E44.3716
G1 X194.499 Y179.749 E48.55167
G1 X194.49 Y180.476 E48.57585
G1 X194.439 Y181.378 E48.6059
G1 X194.308 Y182.272 E48.63595
G1 X194.099 Y183.15 E48.66597
G1 X193.813 Y184.007 E48.69602
G1 X193.452 Y184.835 E48.72606
G1 X193.02 Y185.627 E48.75607
G1 X192.519 Y186.379 E48.78612
G1 X191.953 Y187.083 E48.81616
G1 X191.328 Y187.734 E48.84618
G1 X190.647 Y188.328 E48.87624
G1 X189.916 Y188.859 E48.90629
G1 X189.142 Y189.323 E48.9363
G1 X188.329 Y189.717 E48.96635
G1 X187.485 Y190.037 E48.99637
G1 X186.615 Y190.282 E49.02643
G1 X185.728 Y190.448 E49.05645
G1 X184.577 Y190.546 E49.09487
G1 X184.256 Y190.555 E49.10555
G1 X183.97 Y190.559 E49.11506
G1 X51.275 Y190.558 E53.52852
G1 X50.577 Y190.549 E53.55173
G1 X49.676 Y190.498 E53.58175
G1 X48.782 Y190.366 E53.61181
G1 X47.904 Y190.157 E53.64182
G1 X47.047 Y189.87 E53.67188
G1 X46.22 Y189.509 E53.7019
G1 X45.427 Y189.076 E53.73195
G1 X44.676 Y188.575 E53.76197
G1 X43.972 Y188.009 E53.79202
G1 X43.321 Y187.383 E53.82206
G1 X42.728 Y186.702 E53.85209
G1 X42.198 Y185.971 E53.88212
G1 X41.734 Y185.196 E53.91217
G1 X41.34 Y184.383 E53.94221
G1 X41.02 Y183.539 E53.97224
G1 X40.776 Y182.669 E54.00229
G1 X40.61 Y181.781 E54.03233
G1 X40.512 Y180.607 E54.07152
G1 X40.503 Y180.25 E54.0834
G1 X40.5 Y179.993 E54.09194
G1 X40.5 Y54.277 E58.27328
G1 X40.509 Y53.612 E58.2954
G1 X40.561 Y52.71 E58.32545
G1 X40.693 Y51.817 E58.35547
G1 X40.903 Y50.939 E58.3855
G1 X41.19 Y50.082 E58.41556
G1 X41.552 Y49.255 E58.44558
G1 X41.985 Y48.463 E58.4756
G1 X42.487 Y47.712 E58.50565
G1 X43.054 Y47.008 E58.53571
G1 X43.68 Y46.358 E58.56573
G1 F2700 E53.56573
;MESH:BOTTOM_REAR.stl
G0 F6000 X138.464 Y131.373
G0 X137.054 Y130.985
G0 X137.115 Y132.759
G0 X137.41 Y134.517
G0 X138.296 Y136.108
G0 X139.558 Y137.268
G0 X141.048 Y137.91
G0 X142.954 Y138.288
;TYPE:WALL-INNER
G1 F2700 E58.56573
G1 F1200 X144.733 Y137.838 E58.62676
G1 X146.21 Y136.872 E58.68546
G1 X146.299 Y136.787 E58.68955
G1 X147.378 Y135.4 E58.748
G1 X147.974 Y133.665 E58.80902
G1 X147.973 Y131.889 E58.86809
G1 X147.947 Y131.769 E58.87217
G1 X147.377 Y130.117 E58.9303
G1 X146.249 Y128.67 E58.99132
G1 X144.732 Y127.681 E59.05155
G1 X142.954 Y127.23 E59.11256
G1 X141.216 Y127.375 E59.17057
G1 X141.095 Y127.399 E59.17467
G1 X139.468 Y128.114 E59.23378
G1 X138.118 Y129.356 E59.29479
G1 X137.277 Y130.912 E59.35362
G1 X137.24 Y131.03 E59.35773
G1 X136.952 Y132.759 E59.41603
G1 X137.256 Y134.57 E59.47711
G1 X138.101 Y136.126 E59.536
G1 X138.179 Y136.22 E59.54006
G1 X139.468 Y137.405 E59.5983
G1 X141.065 Y138.104 E59.65628
G1 X141.182 Y138.141 E59.66036
G1 X142.954 Y138.288 E59.7195
G0 F6000 X142.921 Y137.884
;TYPE:WALL-OUTER
G1 F1200 X144.57 Y137.467 E59.77607
G1 X145.961 Y136.557 E59.83136
G1 X146.002 Y136.518 E59.83324
G1 X147.021 Y135.207 E59.88847
G1 X147.574 Y133.598 E59.94506
G1 X147.573 Y131.932 E60.00047
G1 X147.561 Y131.877 E60.00234
G1 X147.021 Y130.31 E60.05747
G1 X145.975 Y128.969 E60.11403
G1 X144.569 Y128.052 E60.16986
G1 X142.921 Y127.634 E60.22641
G1 X141.271 Y127.772 E60.28148
G1 X141.215 Y127.783 E60.28338
G1 X139.69 Y128.453 E60.33878
G1 X138.438 Y129.605 E60.39537
G1 X137.647 Y131.069 E60.45071
G1 X137.63 Y131.123 E60.4526
G1 X137.358 Y132.759 E60.50776
G1 X137.639 Y134.438 E60.56438
G1 X138.433 Y135.9 E60.61971
G1 X138.469 Y135.943 E60.62158
G1 X139.69 Y137.065 E60.67673
G1 X141.206 Y137.729 E60.73178
G1 X141.26 Y137.746 E60.73366
G1 X142.921 Y137.884 E60.7891
G0 F6000 X142.957 Y138.322
G1 F2700 E55.7891
G0 F6000 X139.362 Y137.567
G0 X140.169 Y136.332
G0 X95.39 Y135.898
G0 X96.329 Y137.022
G0 X95.859 Y137.211
G0 X92.954 Y138.288
;TYPE:WALL-INNER
G1 F2700 E60.7891
G1 F1200 X94.733 Y137.838 E60.85013
G1 X96.21 Y136.872 E60.90883
G1 X96.299 Y136.787 E60.91292
G1 X97.378 Y135.4 E60.97137
G1 X97.974 Y133.665 E61.03239
G1 X97.973 Y131.889 E61.09146
G1 X97.947 Y131.769 E61.09554
G1 X97.377 Y130.117 E61.15366
G1 X96.249 Y128.67 E61.21469
G1 X94.732 Y127.681 E61.27492
G1 X92.954 Y127.23 E61.33593
G1 X91.216 Y127.375 E61.39393
G1 X91.095 Y127.399 E61.39804
G1 X89.468 Y128.114 E61.45715
G1 X88.118 Y129.356 E61.51816
G1 X87.277 Y130.912 E61.57699
G1 X87.24 Y131.03 E61.5811
G1 X86.952 Y132.759 E61.6394
G1 X87.256 Y134.57 E61.70048
G1 X88.101 Y136.126 E61.75937
G1 X88.179 Y136.22 E61.76343
G1 X89.468 Y137.405 E61.82167
G1 X91.065 Y138.104 E61.87965
G1 X91.182 Y138.141 E61.88373
G1 X92.954 Y138.288 E61.94287
G0 F6000 X92.921 Y137.884
;TYPE:WALL-OUTER
G1 F1200 X94.57 Y137.467 E61.99944
G1 X95.961 Y136.557 E62.05473
G1 X96.002 Y136.518 E62.05661
G1 X97.021 Y135.207 E62.11184
G1 X97.574 Y133.598 E62.16842
G1 X97.573 Y131.932 E62.22384
G1 X97.561 Y131.877 E62.22571
G1 X97.021 Y130.31 E62.28083
G1 X95.975 Y128.969 E62.3374
G1 X94.569 Y128.052 E62.39323
G1 X92.921 Y127.634 E62.44978
G1 X91.271 Y127.772 E62.50485
G1 X91.215 Y127.783 E62.50675
G1 X89.69 Y128.453 E62.56215
G1 X88.438 Y129.605 E62.61874
G1 X87.647 Y131.069 E62.67408
G1 X87.63 Y131.123 E62.67596
G1 X87.358 Y132.759 E62.73113
G1 X87.639 Y134.438 E62.78775
G1 X88.433 Y135.9 E62.84308
G1 X88.469 Y135.943 E62.84495
G1 X89.69 Y137.065 E62.9001
G1 X91.206 Y137.729 E62.95515
G1 X91.26 Y137.746 E62.95703
G1 X92.921 Y137.884 E63.01246
G0 F6000 X92.957 Y138.322
G1 F2700 E58.01246
G0 F6000 X94.811 Y138.015
G0 X94.219 Y136.665
G0 X94.811 Y181.024
G0 X94.811 Y179.549
G0 X183.7 Y179.759
;TYPE:WALL-INNER
G1 F2700 E63.01246
G1 F1200 X51.3 Y179.759 E67.41611
G1 X51.299 Y54.341 E71.58753
G1 X183.7 Y54.341 E75.9912
G1 X183.7 Y179.759 E80.16262
G0 F6000 X184.1 Y180.159
;TYPE:WALL-OUTER
G1 F1200 X50.9 Y180.159 E84.59287
G1 X50.899 Y53.941 E88.7909
G1 X184.1 Y53.941 E93.22118
G1 X184.1 Y180.159 E97.41921
G0 F6000 X183.83 Y179.889
G0 X183.59 Y179.369
G0 X183.31 Y179.369
;TYPE:SKIN
G1 F1200 X51.69 Y179.369 E101.79691
G1 X51.689 Y54.731 E105.94238
G1 X183.31 Y54.731 E110.32012
G1 X183.31 Y179.369 E114.46559
G1 F2700 E109.46559
G0 F6000 X183.59 Y179.369
G0 X183.49 Y136.958
G0 X184.965 Y136.958
G0 X146.251 Y134.791
G0 X147.548 Y135.492
G0 X146.279 Y136.958
G1 F2700 E114.46559
G0 F6000 X146.454 Y137.178
G1 F1200 X146.589 Y137.049 E114.4718
G1 X147.725 Y135.588 E114.53336
G1 X148.364 Y133.73 E114.59871
G1 X148.363 Y131.848 E114.6613
G1 X148.323 Y131.664 E114.66757
G1 X147.724 Y129.928 E114.72865
G1 X146.516 Y128.379 E114.79398
G1 X144.89 Y127.319 E114.85854
G1 X142.987 Y126.836 E114.92384
G1 X141.162 Y126.989 E114.98475
G1 X140.978 Y127.025 E114.99099
G1 X139.252 Y127.783 E115.05369
G1 X137.806 Y129.113 E115.11903
G1 X136.916 Y130.76 E115.1813
G1 X136.86 Y130.939 E115.18754
G1 X136.556 Y132.759 E115.24891
G1 X136.882 Y134.699 E115.31434
G1 X137.777 Y136.346 E115.37668
G1 X137.896 Y136.489 E115.38287
G1 X139.252 Y137.736 E115.44414
G1 X140.928 Y138.469 E115.50498
G1 X141.106 Y138.526 E115.5112
G1 X142.987 Y138.682 E115.57398
G1 X144.891 Y138.2 E115.6393
G1 X146.454 Y137.178 E115.70141
G1 F2700 E110.70141
G0 F6000 X146.279 Y136.958
G0 X144.667 Y137.689
G0 X142.941 Y138.125
G0 X141.123 Y137.954
G0 X139.558 Y137.268
G0 X138.487 Y136.27
G0 X137.073 Y134.633
G0 X138.467 Y134.153
G0 X96.71 Y133.455
G0 X98.165 Y133.697
G0 X97.477 Y135.452
G1 F2700 E115.70141
G0 F6000 X97.725 Y135.588
G1 F1200 X98.364 Y133.73 E115.76676
G1 X98.363 Y131.848 E115.82936
G1 X98.323 Y131.664 E115.83562
G1 X97.724 Y129.928 E115.8967
G1 X96.516 Y128.379 E115.96204
G1 X94.89 Y127.319 E116.0266
G1 X92.987 Y126.836 E116.0919
G1 X91.162 Y126.989 E116.15281
G1 X90.978 Y127.025 E116.15904
G1 X89.252 Y127.783 E116.22174
G1 X87.806 Y129.113 E116.28709
G1 X86.916 Y130.76 E116.34935
G1 X86.86 Y130.939 E116.35559
G1 X86.556 Y132.759 E116.41696
G1 X86.882 Y134.699 E116.48239
G1 X87.777 Y136.346 E116.54474
G1 X87.896 Y136.489 E116.55093
G1 X89.252 Y137.736 E116.6122
G1 X90.928 Y138.469 E116.67304
G1 X91.106 Y138.526 E116.67926
G1 X92.987 Y138.682 E116.74203
G1 X94.891 Y138.2 E116.80736
G1 X96.454 Y137.178 E116.86947
G1 X96.589 Y137.049 E116.87568
G1 X97.725 Y135.588 E116.93724
G1 F2700 E111.93724
G0 F6000 X97.477 Y135.452
G0 X96.11 Y136.745
G0 X94.812 Y137.594
G0 X92.971 Y138.481
G0 X92.849 Y137.011
G0 X92.971 Y181.024
G0 X92.971 Y179.549
G0 X51.929 Y179.649
G1 F2700 E116.93724
G0 F6000 X51.929 Y179.208
G1 F1200 X51.849 Y179.128 E116.941
G0 F6000 X51.849 Y178.562
G1 F1200 X52.494 Y179.208 E116.97136
G0 F6000 X53.06 Y179.208
G1 F1200 X51.849 Y177.997 E117.02832
G0 F6000 X51.849 Y177.431
G1 F1200 X53.626 Y179.208 E117.11191
G0 F6000 X54.191 Y179.208
G1 F1200 X51.849 Y176.865 E117.22209
G0 F6000 X51.849 Y176.3
G1 F1200 X54.757 Y179.208 E117.35887
G0 F6000 X55.323 Y179.208
G1 F1200 X51.849 Y175.734 E117.52228
G0 F6000 X51.849 Y175.168
G1 F1200 X55.889 Y179.208 E117.71231
G0 F6000 X56.454 Y179.208
G1 F1200 X51.849 Y174.603 E117.92892
G0 F6000 X51.849 Y174.037
G1 F1200 X57.02 Y179.208 E118.17214
G0 F6000 X57.586 Y179.208
G1 F1200 X51.849 Y173.471 E118.44199
G0 F6000 X51.849 Y172.905
G1 F1200 X58.151 Y179.208 E118.73844
G0 F6000 X58.717 Y179.208
G1 F1200 X51.849 Y172.34 E119.06149
G0 F6000 X51.849 Y171.774
G1 F1200 X59.283 Y179.208 E119.41117
G0 F6000 X59.848 Y179.208
