;FLAVOR:Marlin
;TIME:30030
;Filament used: 23.1833m
;Layer height: 0.2
;MINX:39.7
;MINY:18.999
;MINZ:0.2
;MAXX:195.3
;MAXY:216
;MAXZ:15
;Generated with Cura_SteamEngine master
M140 S50
M105
M190 S50
M104 S200
M105
M109 S200
M82 ;absolute extrusion mode
; Ender 3 Custom Start G-code
G92 E0 ; Reset Extruder
G28 ; Home all axes
G1 Z2.0 F3000 ; Move Z Axis up little to prevent scratching of Heat Bed
G1 X0.1 Y20 Z0.3 F5000.0 ; Move to start position
G1 X0.1 Y200.0 Z0.3 F1500.0 E15 ; Draw the first line
G1 X0.4 Y200.0 Z0.3 F5000.0 ; Move to side a little
G1 X0.4 Y20 Z0.3 F1500.0 E30 ; Draw the second line
G92 E0 ; Reset Extruder
G1 Z2.0 F3000 ; Move Z Axis up little to prevent scratching of Heat Bed
G1 X5 Y20 Z0.3 F5000.0 ; Move over to prevent blob squish
G92 E0
G92 E0
G1 F2700 E-5
;LAYER_COUNT:75
;LAYER:0
M107
G0 F6000 X41.2 Y24.576 Z0.2
;TYPE:SKIRT
G1 F2700 E0
G1 F1200 X41.705 Y23.786 E0.03119
G1 X42.276 Y23.042 E0.06238
G1 X42.972 Y22.286 E0.09656
G1 X43.068 Y22.191 E0.10105
G1 X43.762 Y21.561 E0.13222
G1 X44.507 Y20.991 E0.16342
G1 X45.298 Y20.488 E0.1946
G1 X46.129 Y20.053 E0.2258
G1 X46.995 Y19.691 E0.25702
G1 X47.887 Y19.404 E0.28818
G1 X48.802 Y19.194 E0.31941
G1 X49.73 Y19.063 E0.35058
G1 X50.494 Y19.014 E0.37604
G1 X50.847 Y19.004 E0.38779
G1 X51.158 Y19 E0.39813
G1 X183.492 Y18.999 E4.79958
G1 X184.369 Y19.011 E4.82875
G1 X185.305 Y19.066 E4.85993
G1 X186.233 Y19.2 E4.89112
G1 X187.147 Y19.413 E4.92233
G1 X188.039 Y19.703 E4.95353
G1 X188.903 Y20.067 E4.98471
G1 X189.732 Y20.504 E5.01588
G1 X190.522 Y21.01 E5.04709
G1 X191.266 Y21.582 E5.0783
G1 X191.975 Y22.232 E5.11029
G1 X192.068 Y22.325 E5.11467
G1 X192.702 Y23.016 E5.14586
G1 X193.276 Y23.758 E5.17706
G1 X193.783 Y24.547 E5.20825
G1 X194.222 Y25.375 E5.23942
G1 X194.589 Y26.239 E5.27064
G1 X194.881 Y27.13 E5.30183
G1 X195.095 Y28.043 E5.33302
G1 X195.232 Y28.971 E5.36422
G1 X195.284 Y29.745 E5.39002
G1 X195.297 Y30.227 E5.40606
G1 X195.3 Y30.529 E5.4161
G1 X195.299 Y204.4 E11.19908
G1 X195.29 Y205.127 E11.22326
G1 X195.239 Y206.064 E11.25447
G1 X195.107 Y206.992 E11.28564
G1 X194.898 Y207.906 E11.31683
G1 X194.611 Y208.799 E11.34803
G1 X194.249 Y209.665 E11.37924
G1 X193.815 Y210.496 E11.41043
G1 X193.311 Y211.287 E11.44162
G1 X192.742 Y212.032 E11.4728
G1 X192.111 Y212.727 E11.50402
G1 X191.424 Y213.365 E11.53521
G1 X190.685 Y213.942 E11.56639
G1 X189.899 Y214.454 E11.59759
G1 X189.073 Y214.897 E11.62876
G1 X188.211 Y215.269 E11.65999
G1 X187.322 Y215.565 E11.69115
G1 X186.41 Y215.785 E11.72236
G1 X185.483 Y215.926 E11.75354
G1 X184.599 Y215.987 E11.78302
G1 X184.278 Y215.996 E11.7937
G1 X183.97 Y216 E11.80394
G1 X51.265 Y215.999 E16.21773
G1 X50.567 Y215.99 E16.24095
G1 X49.631 Y215.938 E16.27213
G1 X48.702 Y215.806 E16.30333
G1 X47.788 Y215.596 E16.33453
G1 X46.895 Y215.309 E16.36572
G1 X46.03 Y214.946 E16.39692
G1 X45.199 Y214.512 E16.42811
G1 X44.408 Y214.008 E16.4593
G1 X43.663 Y213.438 E16.4905
G1 X42.969 Y212.807 E16.5217
G1 X42.332 Y212.12 E16.55286
G1 X41.755 Y211.38 E16.58407
G1 X41.243 Y210.594 E16.61527
G1 X40.8 Y209.767 E16.64647
G1 X40.429 Y208.906 E16.67765
G1 X40.133 Y208.016 E16.70885
G1 X39.914 Y207.104 E16.74005
G1 X39.773 Y206.177 E16.77123
G1 X39.712 Y205.268 E16.80153
G1 X39.703 Y204.911 E16.81341
G1 X39.7 Y204.634 E16.82263
G1 X39.7 Y30.61 E22.61069
G1 X39.71 Y29.941 E22.63294
G1 X39.764 Y29.004 E22.66416
G1 X39.898 Y28.076 E22.69534
G1 X40.11 Y27.162 E22.72655
G1 X40.399 Y26.27 E22.75774
G1 X40.763 Y25.406 E22.78892
G1 X41.2 Y24.576 E22.82012
G0 F6000 X41.597 Y24.689
G1 F1200 X42.101 Y23.919 E22.85073
G1 X42.67 Y23.196 E22.88133
G1 X43.253 Y22.571 E22.90975
G1 X43.349 Y22.476 E22.91425
G1 X44.031 Y21.857 E22.94488
G1 X44.764 Y21.3 E22.9755
G1 X45.542 Y20.809 E23.0061
G1 X46.361 Y20.387 E23.03674
G1 X47.213 Y20.037 E23.06738
G1 X48.091 Y19.763 E23.09797
G1 X48.991 Y19.566 E23.12861
G1 X49.904 Y19.448 E23.15923
G1 X50.505 Y19.414 E23.17925
G1 X50.858 Y19.404 E23.191
G1 X51.158 Y19.4 E23.20098
G1 X183.492 Y19.399 E27.60242
G1 X184.362 Y19.411 E27.63136
G1 X185.281 Y19.466 E27.66198
G1 X186.192 Y19.599 E27.6926
G1 X187.088 Y19.812 E27.72324
G1 X187.962 Y20.101 E27.75385
G1 X188.808 Y20.465 E27.78448
G1 X189.619 Y20.901 E27.81511
G1 X190.388 Y21.406 E27.84571
G1 X191.112 Y21.976 E27.87636
G1 X191.692 Y22.515 E27.90269
G1 X191.785 Y22.608 E27.90707
G1 X192.407 Y23.286 E27.93767
G1 X192.968 Y24.016 E27.96829
G1 X193.464 Y24.792 E27.99892
G1 X193.89 Y25.608 E28.02954
G1 X194.244 Y26.458 E28.06016
G1 X194.522 Y27.336 E28.09079
G1 X194.724 Y28.234 E28.12141
G1 X194.847 Y29.147 E28.15205
G1 X194.884 Y29.758 E28.17241
G1 X194.897 Y30.231 E28.18815
G1 X194.9 Y30.529 E28.19806
G1 X194.899 Y204.395 E33.98086
G1 X194.89 Y205.122 E34.00505
G1 X194.839 Y206.041 E34.03566
G1 X194.708 Y206.953 E34.0663
G1 X194.498 Y207.849 E34.09691
G1 X194.212 Y208.724 E34.12753
G1 X193.851 Y209.571 E34.15815
G1 X193.417 Y210.383 E34.18878
G1 X192.915 Y211.155 E34.2194
G1 X192.347 Y211.88 E34.25004
G1 X191.719 Y212.553 E34.28065
G1 X191.035 Y213.169 E34.31127
G1 X190.3 Y213.723 E34.34188
G1 X189.52 Y214.212 E34.3725
G1 X188.7 Y214.631 E34.40313
G1 X187.847 Y214.977 E34.43374
G1 X186.967 Y215.248 E34.46437
G1 X186.067 Y215.441 E34.49498
G1 X185.153 Y215.556 E34.52562
G1 X184.588 Y215.587 E34.54444
G1 X184.267 Y215.596 E34.55513
G1 X183.97 Y215.6 E34.565
G1 X51.27 Y215.599 E38.97862
G1 X50.572 Y215.59 E39.00184
G1 X49.653 Y215.538 E39.03246
G1 X48.742 Y215.407 E39.06307
G1 X47.846 Y215.197 E39.09368
G1 X46.971 Y214.91 E39.12431
G1 X46.124 Y214.548 E39.15494
G1 X45.312 Y214.114 E39.18556
G1 X44.541 Y213.612 E39.21616
G1 X43.816 Y213.044 E39.2468
G1 X43.143 Y212.415 E39.27744
G1 X42.528 Y211.731 E39.30803
G1 X41.974 Y210.996 E39.33864
G1 X41.486 Y210.215 E39.36927
G1 X41.067 Y209.395 E39.3999
G1 X40.721 Y208.542 E39.43052
G1 X40.451 Y207.662 E39.46113
G1 X40.258 Y206.761 E39.49178
G1 X40.144 Y205.848 E39.52238
G1 X40.112 Y205.258 E39.54203
G1 X40.103 Y204.901 E39.55391
G1 X40.1 Y204.634 E39.56279
G1 X40.1 Y30.616 E45.35065
G1 X40.11 Y29.947 E45.37291
G1 X40.164 Y29.027 E45.40356
G1 X40.297 Y28.117 E45.43415
G1 X40.509 Y27.221 E45.46477
G1 X40.798 Y26.346 E45.49542
G1 X41.161 Y25.501 E45.52601
G1 X41.597 Y24.689 E45.55666
G0 F6000 X41.994 Y24.805
G1 F1200 X42.497 Y24.055 E45.5867
G1 X43.064 Y23.353 E45.61671
G1 X43.534 Y22.855 E45.63949
G1 X43.63 Y22.76 E45.64398
G1 X44.3 Y22.154 E45.67403
G1 X45.02 Y21.609 E45.70406
G1 X45.786 Y21.13 E45.73411
G1 X46.591 Y20.721 E45.76414
G1 X47.429 Y20.385 E45.79417
G1 X48.294 Y20.124 E45.82422
G1 X49.178 Y19.941 E45.85425
G1 X50.516 Y19.814 E45.89895
G1 X50.869 Y19.804 E45.91069
G1 X51.158 Y19.8 E45.92031
G1 X183.492 Y19.799 E50.32175
G1 X184.356 Y19.811 E50.35049
G1 X185.258 Y19.865 E50.38055
G1 X186.151 Y19.999 E50.41058
G1 X187.029 Y20.211 E50.44062
G1 X187.884 Y20.5 E50.47064
G1 X188.711 Y20.863 E50.50068
G1 X189.502 Y21.298 E50.53071
G1 X190.252 Y21.802 E50.56076
G1 X190.955 Y22.37 E50.59082
G1 X191.409 Y22.798 E50.61157
G1 X191.502 Y22.891 E50.61595
G1 X192.112 Y23.557 E50.64599
G1 X192.661 Y24.274 E50.67602
G1 X193.143 Y25.038 E50.70607
G1 X193.557 Y25.841 E50.73611
G1 X193.897 Y26.677 E50.76613
G1 X194.163 Y27.54 E50.79617
G1 X194.351 Y28.423 E50.82619
G1 X194.46 Y29.32 E50.85625
G1 X194.485 Y29.771 E50.87127
G1 X194.497 Y30.236 E50.88674
G1 X194.5 Y30.529 E50.89649
G1 X194.499 Y204.39 E56.67913
G1 X194.49 Y205.117 E56.70331
G1 X194.439 Y206.019 E56.73336
G1 X194.308 Y206.913 E56.76341
G1 X194.099 Y207.791 E56.79343
G1 X193.813 Y208.648 E56.82348
G1 X193.452 Y209.476 E56.85352
G1 X193.02 Y210.268 E56.88353
G1 X192.519 Y211.02 E56.91358
G1 X191.953 Y211.724 E56.94363
G1 X191.328 Y212.375 E56.97364
G1 X190.647 Y212.969 E57.0037
G1 X189.916 Y213.5 E57.03375
G1 X189.142 Y213.964 E57.06376
G1 X188.329 Y214.358 E57.09381
G1 X187.485 Y214.678 E57.12383
G1 X186.615 Y214.923 E57.1539
G1 X185.728 Y215.089 E57.18391
G1 X184.577 Y215.187 E57.22233
G1 X184.256 Y215.196 E57.23301
G1 X183.97 Y215.2 E57.24252
G1 X51.275 Y215.199 E61.65598
G1 X50.577 Y215.19 E61.6792
G1 X49.676 Y215.139 E61.70921
G1 X48.782 Y215.007 E61.73927
G1 X47.904 Y214.798 E61.76929
G1 X47.047 Y214.511 E61.79935
G1 X46.22 Y214.15 E61.82936
G1 X45.427 Y213.717 E61.85941
G1 X44.676 Y213.216 E61.88944
G1 X43.972 Y212.65 E61.91948
G1 X43.321 Y212.024 E61.94952
G1 X42.728 Y211.343 E61.97955
G1 X42.198 Y210.612 E62.00958
G1 X41.734 Y209.837 E62.03963
G1 X41.34 Y209.024 E62.06968
G1 X41.02 Y208.18 E62.0997
G1 X40.776 Y207.31 E62.12975
G1 X40.61 Y206.422 E62.1598
G1 X40.512 Y205.248 E62.19898
G1 X40.503 Y204.891 E62.21086
G1 X40.5 Y204.634 E62.21941
G1 X40.5 Y30.622 E68.00707
G1 X40.51 Y29.953 E68.02932
G1 X40.564 Y29.051 E68.05938
G1 X40.697 Y28.158 E68.08941
G1 X40.908 Y27.28 E68.11944
G1 X41.196 Y26.424 E68.14948
G1 X41.559 Y25.597 E68.17952
G1 X41.994 Y24.805 E68.20957
G1 F2700 E63.20957
;MESH:REAR_PANEL.stl
G0 F6000 X55.123 Y34.793
G0 X53.819 Y34.039
G0 X53.949 Y35.3
G0 X54.226 Y36.327
G0 X54.973 Y37.074
G0 X55.897 Y37.323
G0 X57.161 Y37.31
;TYPE:WALL-INNER
G1 F2700 E68.20957
G1 F1200 X58.01 Y36.461 E68.24951
G1 X58.321 Y35.3 E68.28948
G1 X58.01 Y34.139 E68.32946
G1 X57.161 Y33.29 E68.36939
G1 X56 Y32.979 E68.40937
G1 X54.839 Y33.29 E68.44935
G1 X53.99 Y34.139 E68.48928
G1 X53.679 Y35.3 E68.52926
G1 X53.99 Y36.461 E68.56923
G1 X54.839 Y37.31 E68.60917
G1 X56 Y37.621 E68.64914
G1 X57.161 Y37.31 E68.68912
G0 F6000 X56.954 Y36.951
;TYPE:WALL-OUTER
G1 F1200 X57.651 Y36.254 E68.7219
G1 X57.907 Y35.3 E68.75476
G1 X57.651 Y34.346 E68.78761
G1 X56.954 Y33.649 E68.8204
G1 X56 Y33.393 E68.85325
G1 X55.046 Y33.649 E68.8861
G1 X54.349 Y34.346 E68.91889
G1 X54.093 Y35.3 E68.95174
G1 X54.349 Y36.254 E68.98459
G1 X55.046 Y36.951 E69.01738
G1 X56 Y37.207 E69.05023
G1 X56.954 Y36.951 E69.08308
G0 F6000 X57.174 Y37.332
G1 F2700 E64.08308
G0 F6000 X59.01 Y37.481
G0 X59.461 Y55.343
G0 X59.632 Y55.977
G0 X60.123 Y56.468
G0 X60.636 Y56.605
G0 X62.611 Y56.704
;TYPE:WALL-INNER
G1 F2700 E69.08308
G1 F1200 X63.204 Y56.111 E69.11097
G1 X63.4 Y55.379 E69.13618
G1 X63.4 Y37.221 E69.74012
G1 X63.204 Y36.489 E69.76532
G1 X62.611 Y35.896 E69.79321
G1 X61.879 Y35.7 E69.81842
G1 X60.721 Y35.7 E69.85693
G1 X59.989 Y35.896 E69.88214
G1 X59.396 Y36.489 E69.91003
G1 X59.2 Y37.221 E69.93523
G1 X59.2 Y55.379 E70.53917
G1 X59.396 Y56.111 E70.56437
G1 X59.989 Y56.704 E70.59227
G1 X60.721 Y56.9 E70.61747
G1 X61.879 Y56.9 E70.65599
G1 X62.611 Y56.704 E70.68119
G0 F6000 X62.404 Y56.345
;TYPE:WALL-OUTER
G1 F1200 X62.845 Y55.904 E70.70193
G1 X63 Y55.326 E70.72184
G1 X63 Y37.274 E71.32225
G1 X62.845 Y36.696 E71.34215
G1 X62.404 Y36.255 E71.3629
G1 X61.826 Y36.1 E71.3828
G1 X60.774 Y36.1 E71.41779
G1 X60.196 Y36.255 E71.43769
G1 X59.755 Y36.696 E71.45844
G1 X59.6 Y37.274 E71.47834
G1 X59.6 Y55.326 E72.07875
G1 X59.755 Y55.904 E72.09866
G1 X60.196 Y56.345 E72.1194
G1 X60.774 Y56.5 E72.1393
G1 X61.826 Y56.5 E72.17429
G1 X62.404 Y56.345 E72.1942
G0 F6000 X62.624 Y56.726
G1 F2700 E67.1942
G0 F6000 X63.591 Y55.405
G0 X66.009 Y55.405
G0 X67.123 Y56.468
G0 X67.636 Y56.605
G0 X69.611 Y56.704
;TYPE:WALL-INNER
G1 F2700 E72.1942
G1 F1200 X70.204 Y56.111 E72.22209
G1 X70.4 Y55.379 E72.24729
G1 X70.4 Y37.221 E72.85123
G1 X70.204 Y36.489 E72.87643
G1 X69.611 Y35.896 E72.90433
G1 X68.879 Y35.7 E72.92953
G1 X67.721 Y35.7 E72.96805
G1 X66.989 Y35.896 E72.99325
G1 X66.396 Y36.489 E73.02114
G1 X66.2 Y37.221 E73.04635
G1 X66.2 Y55.379 E73.65029
G1 X66.396 Y56.111 E73.67549
G1 X66.989 Y56.704 E73.70338
G1 X67.721 Y56.9 E73.72859
G1 X68.879 Y56.9 E73.7671
G1 X69.611 Y56.704 E73.79231
G0 F6000 X69.404 Y56.345
;TYPE:WALL-OUTER
G1 F1200 X69.845 Y55.904 E73.81305
G1 X70 Y55.326 E73.83295
G1 X70 Y37.274 E74.43336
G1 X69.845 Y36.696 E74.45327
G1 X69.404 Y36.255 E74.47401
G1 X68.826 Y36.1 E74.49391
G1 X67.774 Y36.1 E74.5289
G1 X67.196 Y36.255 E74.54881
G1 X66.755 Y36.696 E74.56955
G1 X66.6 Y37.274 E74.58946
G1 X66.6 Y55.326 E75.18987
G1 X66.755 Y55.904 E75.20977
G1 X67.196 Y56.345 E75.23051
G1 X67.774 Y56.5 E75.25042
G1 X68.826 Y56.5 E75.28541
G1 X69.404 Y56.345 E75.30531
G0 F6000 X69.624 Y56.726
G1 F2700 E70.30531
G0 F6000 X70.591 Y55.405
G0 X73.009 Y55.405
G0 X74.123 Y56.468
G0 X74.636 Y56.605
G0 X76.611 Y56.704
;TYPE:WALL-INNER
G1 F2700 E75.30531
G1 F1200 X77.204 Y56.111 E75.3332
G1 X77.4 Y55.379 E75.35841
G1 X77.4 Y37.221 E75.96235
G1 X77.204 Y36.489 E75.98755
G1 X76.611 Y35.896 E76.01544
G1 X75.879 Y35.7 E76.04065
G1 X74.721 Y35.7 E76.07916
G1 X73.989 Y35.896 E76.10437
G1 X73.396 Y36.489 E76.13226
G1 X73.2 Y37.221 E76.15746
G1 X73.2 Y55.379 E76.7614
G1 X73.396 Y56.111 E76.7866
G1 X73.989 Y56.704 E76.8145
G1 X74.721 Y56.9 E76.8397
G1 X75.879 Y56.9 E76.87822
G1 X76.611 Y56.704 E76.90342
G0 F6000 X76.404 Y56.345
;TYPE:WALL-OUTER
G1 F1200 X76.845 Y55.904 E76.92416
G1 X77 Y55.326 E76.94407
G1 X77 Y37.274 E77.54448
G1 X76.845 Y36.696 E77.56438
G1 X76.404 Y36.255 E77.58513
G1 X75.826 Y36.1 E77.60503
G1 X74.774 Y36.1 E77.64002
G1 X74.196 Y36.255 E77.65992
G1 X73.755 Y36.696 E77.68067
G1 X73.6 Y37.274 E77.70057
G1 X73.6 Y55.326 E78.30098
G1 X73.755 Y55.904 E78.32089
G1 X74.196 Y56.345 E78.34163
G1 X74.774 Y56.5 E78.36153
G1 X75.826 Y56.5 E78.39652
G1 X76.404 Y56.345 E78.41643
G0 F6000 X76.624 Y56.726
G1 F2700 E73.41643
G0 F6000 X77.591 Y55.405
G0 X80.009 Y55.405
G0 X81.123 Y56.468
G0 X81.636 Y56.605
G0 X83.611 Y56.704
;TYPE:WALL-INNER
G1 F2700 E78.41643
G1 F1200 X84.204 Y56.111 E78.44432
G1 X84.4 Y55.379 E78.46952
G1 X84.4 Y37.221 E79.07346
G1 X84.204 Y36.489 E79.09866
G1 X83.611 Y35.896 E79.12656
G1 X82.879 Y35.7 E79.15176
G1 X81.721 Y35.7 E79.19028
G1 X80.989 Y35.896 E79.21548
G1 X80.396 Y36.489 E79.24337
G1 X80.2 Y37.221 E79.26858
G1 X80.2 Y55.379 E79.87252
G1 X80.396 Y56.111 E79.89772
G1 X80.989 Y56.704 E79.92561
G1 X81.721 Y56.9 E79.95082
G1 X82.879 Y56.9 E79.98933
G1 X83.611 Y56.704 E80.01454
G0 F6000 X83.404 Y56.345
;TYPE:WALL-OUTER
G1 F1200 X83.845 Y55.904 E80.03528
G1 X84 Y55.326 E80.05518
G1 X84 Y37.274 E80.65559
G1 X83.845 Y36.696 E80.6755
G1 X83.404 Y36.255 E80.69624
G1 X82.826 Y36.1 E80.71614
G1 X81.774 Y36.1 E80.75113
G1 X81.196 Y36.255 E80.77104
G1 X80.755 Y36.696 E80.79178
G1 X80.6 Y37.274 E80.81168
G1 X80.6 Y55.326 E81.4121
G1 X80.755 Y55.904 E81.432
G1 X81.196 Y56.345 E81.45274
G1 X81.774 Y56.5 E81.47265
G1 X82.826 Y56.5 E81.50764
G1 X83.404 Y56.345 E81.52754
G0 F6000 X83.624 Y56.726
G1 F2700 E76.52754
G0 F6000 X84.591 Y55.405
G0 X87.009 Y55.405
G0 X88.123 Y56.468
G0 X88.636 Y56.605
G0 X90.611 Y56.704
;TYPE:WALL-INNER
G1 F2700 E81.52754
G1 F1200 X91.204 Y56.111 E81.55543
G1 X91.4 Y55.379 E81.58064
G1 X91.4 Y37.221 E82.18458
G1 X91.204 Y36.489 E82.20978
G1 X90.611 Y35.896 E82.23767
G1 X89.879 Y35.7 E82.26288
G1 X88.721 Y35.7 E82.30139
G1 X87.989 Y35.896 E82.3266
G1 X87.396 Y36.489 E82.35449
G1 X87.2 Y37.221 E82.37969
G1 X87.2 Y55.379 E82.98363
G1 X87.396 Y56.111 E83.00883
G1 X87.989 Y56.704 E83.03673
G1 X88.721 Y56.9 E83.06193
G1 X89.879 Y56.9 E83.10045
G1 X90.611 Y56.704 E83.12565
G0 F6000 X90.404 Y56.345
;TYPE:WALL-OUTER
G1 F1200 X90.845 Y55.904 E83.14639
G1 X91 Y55.326 E83.1663
G1 X91 Y37.274 E83.76671
G1 X90.845 Y36.696 E83.78661
G1 X90.404 Y36.255 E83.80736
G1 X89.826 Y36.1 E83.82726
G1 X88.774 Y36.1 E83.86225
G1 X88.196 Y36.255 E83.88215
G1 X87.755 Y36.696 E83.9029
G1 X87.6 Y37.274 E83.9228
G1 X87.6 Y55.326 E84.52321
G1 X87.755 Y55.904 E84.54312
G1 X88.196 Y56.345 E84.56386
G1 X88.774 Y56.5 E84.58376
G1 X89.826 Y56.5 E84.61875
G1 X90.404 Y56.345 E84.63866
G0 F6000 X90.624 Y56.726
G1 F2700 E79.63866
G0 F6000 X91.591 Y55.405
G0 X94.009 Y55.405
G0 X95.123 Y56.468
G0 X95.636 Y56.605
G0 X97.611 Y56.704
;TYPE:WALL-INNER
G1 F2700 E84.63866
G1 F1200 X98.204 Y56.111 E84.66655
G1 X98.4 Y55.379 E84.69175
G1 X98.4 Y37.221 E85.29569
G1 X98.204 Y36.489 E85.32089
G1 X97.611 Y35.896 E85.34879
G1 X96.879 Y35.7 E85.37399
G1 X95.721 Y35.7 E85.41251
G1 X94.989 Y35.896 E85.43771
G1 X94.396 Y36.489 E85.4656
G1 X94.2 Y37.221 E85.49081
G1 X94.2 Y55.379 E86.09474
G1 X94.396 Y56.111 E86.11995
G1 X94.989 Y56.704 E86.14784
G1 X95.721 Y56.9 E86.17305
G1 X96.879 Y56.9 E86.21156
G1 X97.611 Y56.704 E86.23677
G0 F6000 X97.404 Y56.345
