;FLAVOR:Marlin
;TIME:17623
;Filament used: 15.0586m
;Layer height: 0.2
;MINX:39.7
;MINY:54.659
;MINZ:0.2
;MAXX:195.3
;MAXY:181.241
;MAXZ:12.2
;Generated with Cura_SteamEngine master
M140 S50
M105
M190 S50
M104 S200
M105
M109 S200
M82 ;absolute extrusion mode
; Ender 3 Custom Start G-code
G92 E0 ; Reset Extruder
G28 ; Home all axes
G1 Z2.0 F3000 ; Move Z Axis up little to prevent scratching of Heat Bed
G1 X0.1 Y20 Z0.3 F5000.0 ; Move to start position
G1 X0.1 Y200.0 Z0.3 F1500.0 E15 ; Draw the first line
G1 X0.4 Y200.0 Z0.3 F5000.0 ; Move to side a little
G1 X0.4 Y20 Z0.3 F1500.0 E30 ; Draw the second line
G92 E0 ; Reset Extruder
G1 Z2.0 F3000 ; Move Z Axis up little to prevent scratching of Heat Bed
G1 X5 Y20 Z0.3 F5000.0 ; Move over to prevent blob squish
G92 E0
G92 E0
G1 F2700 E-5
;LAYER_COUNT:61
;LAYER:0
M107
G0 F6000 X44.326 Y56.71 Z0.2
;TYPE:SKIRT
G1 F2700 E0
G1 F1200 X45.112 Y56.198 E0.0312
G1 X45.939 Y55.756 E0.06239
G1 X46.801 Y55.386 E0.09359
G1 X47.691 Y55.09 E0.12478
G1 X48.603 Y54.872 E0.15597
G1 X49.53 Y54.731 E0.18716
G1 X50.401 Y54.672 E0.21619
G1 X50.722 Y54.663 E0.22687
G1 X51.03 Y54.659 E0.23712
G1 X183.593 Y54.659 E4.64618
G1 X184.449 Y54.67 E4.67466
G1 X185.385 Y54.724 E4.70584
G1 X186.313 Y54.856 E4.73702
G1 X187.227 Y55.068 E4.76822
G1 X188.119 Y55.357 E4.79941
G1 X188.984 Y55.72 E4.83061
G1 X189.814 Y56.156 E4.86179
G1 X190.605 Y56.661 E4.89301
G1 X191.349 Y57.232 E4.9242
G1 X192.042 Y57.864 E4.95539
G1 X192.679 Y58.552 E4.98658
G1 X193.254 Y59.293 E5.01777
G1 X193.765 Y60.079 E5.04896
G1 X194.207 Y60.907 E5.08017
G1 X194.576 Y61.769 E5.11136
G1 X194.871 Y62.659 E5.14255
G1 X195.089 Y63.571 E5.17373
G1 X195.229 Y64.499 E5.20495
G1 X195.287 Y65.36 E5.23365
G1 X195.296 Y65.68 E5.2443
G1 X195.3 Y65.989 E5.25458
G1 X195.3 Y169.653 E8.70245
G1 X195.291 Y170.37 E8.7263
G1 X195.239 Y171.307 E8.75752
G1 X195.108 Y172.235 E8.78869
G1 X194.898 Y173.149 E8.81988
G1 X194.611 Y174.042 E8.85108
G1 X194.249 Y174.907 E8.88226
G1 X193.815 Y175.738 E8.91345
G1 X193.311 Y176.53 E8.94467
G1 X192.742 Y177.275 E8.97585
G1 X192.111 Y177.969 E9.00705
G1 X191.424 Y178.607 E9.03823
G1 X190.684 Y179.184 E9.06944
G1 X189.898 Y179.696 E9.10064
G1 X189.072 Y180.139 E9.13181
G1 X188.211 Y180.51 E9.163
G1 X187.321 Y180.807 E9.1942
G1 X186.409 Y181.026 E9.2254
G1 X185.482 Y181.167 E9.25658
G1 X184.601 Y181.228 E9.28596
G1 X184.281 Y181.237 E9.2966
G1 X183.972 Y181.241 E9.30688
G1 X51.265 Y181.24 E13.72074
G1 X50.567 Y181.231 E13.74395
G1 X49.631 Y181.179 E13.77513
G1 X48.702 Y181.047 E13.80634
G1 X47.788 Y180.837 E13.83753
G1 X46.895 Y180.55 E13.86873
G1 X46.03 Y180.187 E13.89993
G1 X45.199 Y179.753 E13.93111
G1 X44.408 Y179.249 E13.96231
G1 X43.663 Y178.679 E13.99351
G1 X42.969 Y178.048 E14.02471
G1 X42.332 Y177.361 E14.05587
G1 X41.755 Y176.621 E14.08708
G1 X41.243 Y175.835 E14.11828
G1 X40.8 Y175.008 E14.14948
G1 X40.429 Y174.147 E14.18066
G1 X40.133 Y173.257 E14.21186
G1 X39.914 Y172.345 E14.24305
G1 X39.773 Y171.418 E14.27424
G1 X39.713 Y170.529 E14.30388
G1 X39.704 Y170.196 E14.31496
G1 X39.7 Y169.899 E14.32483
G1 X39.701 Y66.184 E17.77441
G1 X39.71 Y65.519 E17.79653
G1 X39.763 Y64.583 E17.82771
G1 X39.895 Y63.654 E17.85892
G1 X40.106 Y62.74 E17.89012
G1 X40.394 Y61.848 E17.9213
G1 X40.757 Y60.983 E17.9525
G1 X41.192 Y60.152 E17.98369
G1 X41.696 Y59.362 E18.01486
G1 X42.266 Y58.617 E18.04606
G1 X42.898 Y57.923 E18.07728
G1 X43.586 Y57.286 E18.10846
G1 X44.326 Y56.71 E18.13965
G0 F6000 X44.71 Y56.929
G1 F1200 X45.491 Y56.441 E18.17028
G1 X46.311 Y56.023 E18.2009
G1 X47.165 Y55.678 E18.23153
G1 X48.045 Y55.408 E18.26215
G1 X48.945 Y55.216 E18.29275
G1 X49.859 Y55.102 E18.32339
G1 X50.412 Y55.072 E18.34181
G1 X50.733 Y55.063 E18.35249
G1 X51.03 Y55.059 E18.36237
G1 X183.593 Y55.059 E22.77143
G1 X184.443 Y55.07 E22.79971
G1 X185.362 Y55.123 E22.83032
G1 X186.273 Y55.256 E22.86094
G1 X187.169 Y55.467 E22.89156
G1 X188.043 Y55.755 E22.92217
G1 X188.89 Y56.118 E22.95282
G1 X189.701 Y56.553 E22.98343
G1 X190.471 Y57.057 E23.01403
G1 X191.195 Y57.626 E23.04466
G1 X191.867 Y58.256 E23.0753
G1 X192.482 Y58.941 E23.10592
G1 X193.035 Y59.677 E23.13654
G1 X193.522 Y60.458 E23.16715
G1 X193.939 Y61.279 E23.19778
G1 X194.284 Y62.133 E23.22841
G1 X194.553 Y63.013 E23.25902
G1 X194.745 Y63.914 E23.28966
G1 X194.858 Y64.827 E23.32025
G1 X194.887 Y65.371 E23.33837
G1 X194.896 Y65.691 E23.34902
G1 X194.9 Y65.989 E23.35893
G1 X194.9 Y169.648 E26.80665
G1 X194.891 Y170.365 E26.8305
G1 X194.84 Y171.284 E26.86111
G1 X194.709 Y172.196 E26.89175
G1 X194.499 Y173.092 E26.92236
G1 X194.212 Y173.967 E26.95299
G1 X193.851 Y174.814 E26.98361
G1 X193.417 Y175.626 E27.01424
G1 X192.915 Y176.397 E27.04484
G1 X192.347 Y177.122 E27.07547
G1 X191.719 Y177.795 E27.10608
G1 X191.035 Y178.411 E27.1367
G1 X190.3 Y178.965 E27.16731
G1 X189.519 Y179.454 E27.19796
G1 X188.699 Y179.872 E27.22857
G1 X187.846 Y180.218 E27.25919
G1 X186.966 Y180.489 E27.28981
G1 X186.066 Y180.683 E27.32044
G1 X185.152 Y180.797 E27.35107
G1 X184.59 Y180.828 E27.36979
G1 X184.27 Y180.837 E27.38044
G1 X183.972 Y180.841 E27.39035
G1 X51.27 Y180.84 E31.80404
G1 X50.572 Y180.831 E31.82726
G1 X49.653 Y180.779 E31.85787
G1 X48.742 Y180.648 E31.88848
G1 X47.846 Y180.438 E31.91909
G1 X46.971 Y180.151 E31.94972
G1 X46.124 Y179.789 E31.98036
G1 X45.312 Y179.355 E32.01098
G1 X44.541 Y178.853 E32.04158
G1 X43.816 Y178.285 E32.07221
G1 X43.143 Y177.656 E32.10285
G1 X42.528 Y176.972 E32.13344
G1 X41.974 Y176.237 E32.16406
G1 X41.486 Y175.456 E32.19469
G1 X41.067 Y174.636 E32.22531
G1 X40.721 Y173.783 E32.25593
G1 X40.451 Y172.903 E32.28655
G1 X40.258 Y172.002 E32.31719
G1 X40.144 Y171.089 E32.34779
G1 X40.113 Y170.518 E32.36681
G1 X40.104 Y170.185 E32.37789
G1 X40.1 Y169.899 E32.38741
G1 X40.101 Y66.19 E35.83678
G1 X40.11 Y65.525 E35.8589
G1 X40.162 Y64.605 E35.88955
G1 X40.294 Y63.694 E35.92017
G1 X40.505 Y62.798 E35.95078
G1 X40.792 Y61.923 E35.98141
G1 X41.155 Y61.077 E36.01203
G1 X41.589 Y60.265 E36.04265
G1 X42.092 Y59.494 E36.07327
G1 X42.661 Y58.77 E36.1039
G1 X43.289 Y58.098 E36.13449
G1 X43.974 Y57.482 E36.16513
G1 X44.71 Y56.929 E36.19575
G0 F6000 X45.094 Y57.153
G1 F1200 X45.869 Y56.69 E36.22578
G1 X46.682 Y56.297 E36.25581
G1 X47.527 Y55.977 E36.28586
G1 X48.396 Y55.734 E36.31587
G1 X49.284 Y55.568 E36.34592
G1 X50.423 Y55.472 E36.38394
G1 X50.744 Y55.463 E36.39462
G1 X51.03 Y55.459 E36.40413
G1 X183.593 Y55.459 E40.8132
G1 X184.437 Y55.47 E40.84127
G1 X185.339 Y55.523 E40.87132
G1 X186.232 Y55.655 E40.90135
G1 X187.11 Y55.866 E40.93138
G1 X187.966 Y56.154 E40.96142
G1 X188.793 Y56.516 E40.99145
G1 X189.585 Y56.951 E41.0215
G1 X190.336 Y57.453 E41.05154
G1 X191.039 Y58.02 E41.08158
G1 X191.689 Y58.647 E41.11162
G1 X192.281 Y59.329 E41.14166
G1 X192.811 Y60.06 E41.17169
G1 X193.273 Y60.836 E41.20173
G1 X193.666 Y61.649 E41.23176
G1 X193.984 Y62.494 E41.26179
G1 X194.227 Y63.364 E41.29183
G1 X194.392 Y64.252 E41.32187
G1 X194.487 Y65.382 E41.35959
G1 X194.496 Y65.702 E41.37024
G1 X194.5 Y65.989 E41.37979
G1 X194.5 Y169.643 E44.82733
G1 X194.491 Y170.36 E44.85118
G1 X194.44 Y171.262 E44.88123
G1 X194.309 Y172.155 E44.91125
G1 X194.1 Y173.034 E44.9413
G1 X193.813 Y173.89 E44.97133
G1 X193.452 Y174.718 E45.00137
G1 X193.02 Y175.511 E45.03141
G1 X192.519 Y176.262 E45.06143
G1 X191.953 Y176.966 E45.09148
G1 X191.327 Y177.617 E45.12152
G1 X190.646 Y178.211 E45.15157
G1 X189.916 Y178.742 E45.18159
G1 X189.141 Y179.206 E45.21164
G1 X188.328 Y179.599 E45.24167
G1 X187.484 Y179.92 E45.27171
G1 X186.615 Y180.164 E45.30173
G1 X185.727 Y180.331 E45.33178
G1 X184.579 Y180.428 E45.3701
G1 X184.259 Y180.437 E45.38075
G1 X183.972 Y180.441 E45.39029
G1 X51.275 Y180.44 E49.80381
G1 X50.577 Y180.431 E49.82703
G1 X49.676 Y180.38 E49.85704
G1 X48.782 Y180.248 E49.8871
G1 X47.904 Y180.039 E49.91712
G1 X47.047 Y179.752 E49.94718
G1 X46.22 Y179.391 E49.97719
G1 X45.427 Y178.958 E50.00724
G1 X44.676 Y178.457 E50.03727
G1 X43.972 Y177.891 E50.06731
G1 X43.321 Y177.265 E50.09735
G1 X42.728 Y176.584 E50.12739
G1 X42.198 Y175.853 E50.15742
G1 X41.734 Y175.078 E50.18746
G1 X41.34 Y174.265 E50.21751
G1 X41.02 Y173.421 E50.24753
G1 X40.776 Y172.551 E50.27758
G1 X40.61 Y171.663 E50.30763
G1 X40.513 Y170.508 E50.34618
G1 X40.504 Y170.175 E50.35726
G1 X40.5 Y169.899 E50.36644
G1 X40.501 Y66.195 E53.81565
G1 X40.51 Y65.53 E53.83777
G1 X40.562 Y64.628 E53.86782
G1 X40.694 Y63.735 E53.89785
G1 X40.904 Y62.857 E53.92787
G1 X41.191 Y62 E53.95793
G1 X41.553 Y61.173 E53.98796
G1 X41.986 Y60.381 E54.01798
G1 X42.488 Y59.63 E54.04802
G1 X43.055 Y58.926 E54.07809
G1 X43.681 Y58.276 E54.1081
G1 X44.362 Y57.683 E54.13814
G1 X45.094 Y57.153 E54.1682
G1 F2700 E49.1682
;MESH:BOTTOM_FRONT.stl
G0 F6000 X89.129 Y96.644
G0 X87.964 Y95.739
G0 X87.396 Y97.573
G0 X87.115 Y99.259
G0 X87.409 Y101.015
G0 X88.286 Y102.6
G0 X89.555 Y103.766
G0 X91.184 Y104.481
G0 X92.803 Y104.603
G0 X94.725 Y104.34
;TYPE:WALL-INNER
G1 F2700 E54.1682
G1 F1200 X96.261 Y103.338 E54.22919
G1 X97.333 Y101.959 E54.28729
G1 X97.395 Y101.857 E54.29126
G1 X97.971 Y100.175 E54.35039
G1 X97.972 Y98.342 E54.41136
G1 X97.407 Y96.699 E54.46914
G1 X97.358 Y96.588 E54.47318
G1 X96.274 Y95.199 E54.53178
G1 X96.178 Y95.125 E54.53581
G1 X94.725 Y94.178 E54.5935
G1 X93.034 Y93.748 E54.65153
G1 X92.913 Y93.733 E54.65559
G1 X91.173 Y93.878 E54.71366
G1 X91.058 Y93.916 E54.71769
G1 X89.465 Y94.616 E54.77556
G1 X88.117 Y95.858 E54.83652
G1 X87.273 Y97.421 E54.8956
G1 X87.239 Y97.536 E54.89959
G1 X86.952 Y99.259 E54.95769
G1 X87.254 Y101.068 E55.01869
G1 X88.093 Y102.614 E55.07719
G1 X88.167 Y102.709 E55.0812
G1 X89.465 Y103.903 E55.13986
G1 X91.144 Y104.639 E55.20083
G1 X92.885 Y104.782 E55.25893
G1 X93.006 Y104.777 E55.26296
G1 X94.725 Y104.34 E55.32195
G0 F6000 X94.562 Y103.969
;TYPE:WALL-OUTER
G1 F1200 X95.986 Y103.04 E55.3785
G1 X97.003 Y101.732 E55.43361
G1 X97.031 Y101.686 E55.4354
G1 X97.571 Y100.108 E55.49087
G1 X97.572 Y98.409 E55.54738
G1 X97.034 Y96.845 E55.60239
G1 X97.012 Y96.795 E55.60421
G1 X95.99 Y95.485 E55.65947
G1 X95.947 Y95.452 E55.66128
G1 X94.562 Y94.549 E55.71627
G1 X92.959 Y94.142 E55.77127
G1 X92.904 Y94.135 E55.77312
G1 X91.253 Y94.273 E55.82822
G1 X91.201 Y94.29 E55.83004
G1 X89.687 Y94.955 E55.88504
G1 X88.437 Y96.107 E55.94158
G1 X87.645 Y97.573 E55.997
G1 X87.63 Y97.625 E55.9988
G1 X87.358 Y99.259 E56.05389
G1 X87.638 Y100.936 E56.11044
G1 X88.43 Y102.395 E56.16566
G1 X88.463 Y102.438 E56.16746
G1 X89.687 Y103.563 E56.22276
G1 X91.243 Y104.246 E56.27927
G1 X92.894 Y104.381 E56.33437
G1 X92.949 Y104.379 E56.3362
G1 X94.562 Y103.969 E56.39156
G0 F6000 X94.738 Y104.371
G1 F2700 E51.39156
G0 F6000 X96.392 Y103.481
G0 X95.393 Y102.395
G0 X139.133 Y101.882
G0 X138.026 Y102.839
G0 X141.144 Y104.639
;TYPE:WALL-INNER
G1 F2700 E56.39156
G1 F1200 X142.885 Y104.782 E56.44966
G1 X143.006 Y104.777 E56.45368
G1 X144.725 Y104.34 E56.51268
G1 X146.261 Y103.338 E56.57367
G1 X147.333 Y101.959 E56.63177
G1 X147.395 Y101.857 E56.63574
G1 X147.971 Y100.175 E56.69487
G1 X147.972 Y98.342 E56.75584
G1 X147.407 Y96.699 E56.81362
G1 X147.358 Y96.588 E56.81766
G1 X146.274 Y95.199 E56.87626
G1 X146.178 Y95.125 E56.88029
G1 X144.725 Y94.178 E56.93798
G1 X143.034 Y93.748 E56.99601
G1 X142.913 Y93.733 E57.00007
G1 X141.173 Y93.878 E57.05814
G1 X141.058 Y93.916 E57.06217
G1 X139.465 Y94.616 E57.12004
G1 X138.117 Y95.858 E57.18101
G1 X137.273 Y97.421 E57.24009
G1 X137.239 Y97.536 E57.24407
G1 X136.952 Y99.259 E57.30217
G1 X137.254 Y101.068 E57.36317
G1 X138.093 Y102.614 E57.42168
G1 X138.167 Y102.709 E57.42568
G1 X139.465 Y103.903 E57.48434
G1 X141.144 Y104.639 E57.54531
G0 F6000 X141.243 Y104.246
;TYPE:WALL-OUTER
G1 F1200 X142.894 Y104.381 E57.60041
G1 X142.949 Y104.379 E57.60224
G1 X144.562 Y103.969 E57.65759
G1 X145.986 Y103.04 E57.71414
G1 X147.003 Y101.732 E57.76925
G1 X147.031 Y101.686 E57.77104
G1 X147.571 Y100.108 E57.82651
G1 X147.572 Y98.409 E57.88302
G1 X147.034 Y96.845 E57.93803
G1 X147.012 Y96.795 E57.93985
G1 X145.99 Y95.485 E57.99511
G1 X145.947 Y95.452 E57.99692
G1 X144.562 Y94.549 E58.05191
G1 X142.959 Y94.142 E58.10691
G1 X142.904 Y94.135 E58.10876
G1 X141.253 Y94.273 E58.16386
G1 X141.201 Y94.29 E58.16568
G1 X139.687 Y94.955 E58.22068
G1 X138.437 Y96.107 E58.27722
G1 X137.645 Y97.573 E58.33264
G1 X137.63 Y97.625 E58.33444
G1 X137.358 Y99.259 E58.38953
G1 X137.638 Y100.936 E58.44608
G1 X138.43 Y102.395 E58.5013
G1 X138.463 Y102.438 E58.5031
G1 X139.687 Y103.563 E58.5584
G1 X141.243 Y104.246 E58.61492
G0 F6000 X141.136 Y104.672
G1 F2700 E53.61492
G0 F6000 X139.359 Y104.065
G0 X140.166 Y102.83
G0 X139.359 Y170.906
G0 X139.359 Y169.431
G0 X51.3 Y169.641
;TYPE:WALL-INNER
G1 F2700 E58.61492
G1 F1200 X51.3 Y66.259 E62.05341
G1 X183.7 Y66.259 E66.45706
G1 X183.701 Y169.641 E69.89556
G1 X51.3 Y169.641 E74.29923
G0 F6000 X50.9 Y170.041
;TYPE:WALL-OUTER
G1 F1200 X50.9 Y65.859 E77.76434
G1 X184.1 Y65.859 E82.19459
G1 X184.101 Y170.041 E85.6597
G1 X50.9 Y170.041 E90.08998
G0 F6000 X51.17 Y169.771
G0 X51.41 Y169.251
G0 X51.69 Y169.251
;TYPE:SKIN
G1 F1200 X51.69 Y66.649 E93.50254
G1 X183.31 Y66.649 E97.88023
G1 X183.311 Y169.251 E101.29279
G1 X51.69 Y169.251 E105.67052
G1 F2700 E100.67052
G0 F6000 X51.41 Y169.251
G0 X51.51 Y103.997
G0 X50.035 Y103.997
G0 X89.133 Y101.882
G0 X88.026 Y102.839
G0 X89.404 Y103.997
G1 F2700 E105.67052
G0 F6000 X89.249 Y104.234
G1 F1200 X91.047 Y105.023 E105.73583
G1 X92.877 Y105.172 E105.7969
G1 X93.062 Y105.165 E105.80305
G1 X94.883 Y104.702 E105.86555
G1 X96.528 Y103.629 E105.93087
G1 X97.655 Y102.181 E105.9919
G1 X97.75 Y102.023 E105.99803
G1 X98.361 Y100.24 E106.06072
G1 X98.362 Y98.277 E106.12601
G1 X97.77 Y96.557 E106.18651
G1 X97.695 Y96.387 E106.19269
G1 X96.551 Y94.92 E106.25457
G1 X96.404 Y94.807 E106.26073
G1 X94.883 Y93.816 E106.32111
G1 X93.106 Y93.364 E106.3821
G1 X92.921 Y93.341 E106.3883
G1 X91.095 Y93.494 E106.44924
G1 X90.918 Y93.551 E106.45543
G1 X89.249 Y94.285 E106.51607
G1 X87.805 Y95.616 E106.58139
G1 X86.91 Y97.271 E106.64397
G1 X86.858 Y97.449 E106.65013
G1 X86.556 Y99.259 E106.71117
G1 X86.88 Y101.197 E106.77652
G1 X87.765 Y102.828 E106.83824
G1 X87.879 Y102.974 E106.8444
G1 X89.249 Y104.234 E106.90631
G1 F2700 E101.90631
G0 F6000 X89.404 Y103.997
G0 X91.184 Y104.481
G0 X92.983 Y104.617
G0 X94.659 Y104.191
G0 X95.865 Y103.404
G0 X97.49 Y102.067
G0 X96.255 Y101.286
G0 X138.466 Y100.652
G0 X137.071 Y101.131
G0 X138.001 Y102.676
G1 F2700 E106.90631
G0 F6000 X137.765 Y102.828
G1 F1200 X137.879 Y102.974 E106.91247
G1 X139.249 Y104.234 E106.97438
G1 X141.047 Y105.023 E107.03968
G1 X142.877 Y105.172 E107.10075
G1 X143.062 Y105.165 E107.10691
G1 X144.883 Y104.702 E107.1694
G1 X146.528 Y103.629 E107.23472
G1 X147.655 Y102.181 E107.29575
G1 X147.75 Y102.023 E107.30189
G1 X148.361 Y100.24 E107.36457
G1 X148.362 Y98.277 E107.42986
G1 X147.77 Y96.557 E107.49036
G1 X147.695 Y96.387 E107.49654
G1 X146.551 Y94.92 E107.55842
G1 X146.404 Y94.807 E107.56459
G1 X144.883 Y93.816 E107.62497
G1 X143.106 Y93.364 E107.68595
G1 X142.921 Y93.341 E107.69215
G1 X141.095 Y93.494 E107.7531
G1 X140.918 Y93.551 E107.75928
G1 X139.249 Y94.285 E107.81992
G1 X137.805 Y95.616 E107.88524
G1 X136.91 Y97.271 E107.94782
G1 X136.858 Y97.449 E107.95399
G1 X136.556 Y99.259 E108.01502
G1 X136.88 Y101.197 E108.08037
G1 X137.765 Y102.828 E108.14209
G1 F2700 E103.14209
G0 F6000 X138.001 Y102.676
G0 X137.409 Y101.015
G0 X137.115 Y99.259
G0 X137.422 Y97.482
G0 X138.246 Y95.959
G0 X139.555 Y94.752
G0 X141.206 Y94.037
G0 X143.003 Y93.906
G0 X144.659 Y94.327
G0 X146.16 Y95.314
G0 X146.695 Y95.998
G0 X146.989 Y95.774
G0 X145.827 Y96.68
G0 X146.989 Y64.994
G0 X146.989 Y66.469
G0 X183.518 Y66.441
G0 X183.591 Y67.184
G1 F2700 E108.14209
G0 F6000 X183.149 Y67.184
G1 F1200 X182.774 Y66.808 E108.15976
G0 F6000 X182.208 Y66.808
G1 F1200 X183.149 Y67.75 E108.20404
G0 F6000 X183.149 Y68.315
G1 F1200 X181.643 Y66.808 E108.2749
G0 F6000 X181.077 Y66.808
G1 F1200 X183.149 Y68.881 E108.37239
G0 F6000 X183.149 Y69.447
G1 F1200 X180.511 Y66.808 E108.49649
G0 F6000 X179.945 Y66.808
G1 F1200 X183.149 Y70.012 E108.6472
G0 F6000 X183.149 Y70.578
G1 F1200 X179.38 Y66.808 E108.8245
