;FLAVOR:Marlin
;TIME:8268
;Filament used: 6.18627m
;Layer height: 0.2
;MINX:20.6
;MINY:75.001
;MINZ:0.2
;MAXX:214.401
;MAXY:159.1
;MAXZ:3.2
;Generated with Cura_SteamEngine master
M140 S50
M105
M190 S50
M104 S200
M105
M109 S200
M82 ;absolute extrusion mode
; Ender 3 Custom Start G-code
G92 E0 ; Reset Extruder
G28 ; Home all axes
G1 Z2.0 F3000 ; Move Z Axis up little to prevent scratching of Heat Bed
G1 X0.1 Y20 Z0.3 F5000.0 ; Move to start position
G1 X0.1 Y200.0 Z0.3 F1500.0 E15 ; Draw the first line
G1 X0.4 Y200.0 Z0.3 F5000.0 ; Move to side a little
G1 X0.4 Y20 Z0.3 F1500.0 E30 ; Draw the second line
G92 E0 ; Reset Extruder
G1 Z2.0 F3000 ; Move Z Axis up little to prevent scratching of Heat Bed
G1 X5 Y20 Z0.3 F5000.0 ; Move over to prevent blob squish
G92 E0
G92 E0
G1 F2700 E-5
;LAYER_COUNT:16
;LAYER:0
M107
G0 F6000 X27.698 Y75.727 Z0.2
;TYPE:SKIRT
G1 F2700 E0
G1 F1200 X28.588 Y75.432 E0.03119
G1 X29.5 Y75.213 E0.06238
G1 X30.427 Y75.073 E0.09356
G1 X31.288 Y75.014 E0.12227
G1 X31.563 Y75.006 E0.13142
G1 X31.888 Y75.001 E0.14223
G1 X48.147 Y75.009 E0.683
G1 X48.809 Y75.019 E0.70503
G1 X49.745 Y75.073 E0.73621
G1 X50.674 Y75.207 E0.76743
G1 X51.587 Y75.419 E0.7986
G1 X52.479 Y75.709 E0.8298
G1 X53.344 Y76.073 E0.86101
G1 X54.174 Y76.51 E0.89221
G1 X55.187 Y77.176 E0.93253
G1 X55.845 Y77.663 E0.95976
G1 X57.935 Y79.164 E1.04534
G1 X60.028 Y80.579 E1.12937
G1 X62.158 Y81.934 E1.21334
G1 X64.327 Y83.228 E1.29734
G1 X66.503 Y84.445 E1.38026
G1 X68.735 Y85.61 E1.46401
G1 X71.006 Y86.717 E1.54803
G1 X73.329 Y87.768 E1.63284
G1 X75.584 Y88.712 E1.71415
G1 X78.021 Y89.655 E1.80106
G1 X80.311 Y90.462 E1.88181
G1 X82.753 Y91.25 E1.96716
G1 X85.158 Y91.95 E2.05047
G1 X87.584 Y92.583 E2.13386
G1 X90.055 Y93.154 E2.21821
G1 X92.525 Y93.652 E2.30202
G1 X95.01 Y94.078 E2.38587
G1 X97.468 Y94.429 E2.46846
G1 X99.975 Y94.715 E2.55238
G1 X102.509 Y94.933 E2.63697
G1 X105.012 Y95.076 E2.72036
G1 X107.509 Y95.148 E2.80344
G1 X110.034 Y95.15 E2.88743
G1 X112.557 Y95.08 E2.97137
G1 X115.072 Y94.94 E3.05515
G1 X117.585 Y94.727 E3.13904
G1 X120.073 Y94.446 E3.22231
G1 X122.571 Y94.092 E3.30623
G1 X125.052 Y93.668 E3.38994
G1 X127.506 Y93.179 E3.47317
G1 X129.947 Y92.618 E3.55647
G1 X132.418 Y91.976 E3.64139
G1 X134.844 Y91.273 E3.72539
G1 X137.216 Y90.512 E3.80825
G1 X139.589 Y89.676 E3.89193
G1 X141.933 Y88.775 E3.97545
G1 X144.283 Y87.794 E4.06015
G1 X146.569 Y86.764 E4.14354
G1 X148.806 Y85.679 E4.22624
G1 X151.059 Y84.504 E4.31075
G1 X153.275 Y83.27 E4.39511
G1 X155.413 Y81.998 E4.47786
G1 X157.558 Y80.637 E4.56235
G1 X159.635 Y79.237 E4.64566
G1 X162.388 Y77.249 E4.7586
G1 X163.113 Y76.753 E4.78782
G1 X163.929 Y76.29 E4.81902
G1 X164.781 Y75.899 E4.8502
G1 X165.664 Y75.582 E4.88141
G1 X166.57 Y75.341 E4.91259
G1 X167.494 Y75.178 E4.94379
G1 X168.742 Y75.085 E4.98542
G1 X169.836 Y75.067 E5.02181
G1 X202.904 Y75.085 E6.12166
G1 X203.559 Y75.095 E6.14344
G1 X204.495 Y75.15 E6.17463
G1 X205.423 Y75.283 E6.20581
G1 X206.337 Y75.496 E6.23702
G1 X207.229 Y75.785 E6.26821
G1 X208.093 Y76.15 E6.29941
G1 X208.923 Y76.586 E6.33059
G1 X209.713 Y77.092 E6.36179
G1 X210.457 Y77.663 E6.39299
G1 X211.149 Y78.296 E6.42418
G1 X211.785 Y78.985 E6.45536
G1 X212.36 Y79.726 E6.48656
G1 X212.87 Y80.513 E6.51775
G1 X213.311 Y81.341 E6.54895
G1 X213.68 Y82.203 E6.58014
G1 X213.974 Y83.094 E6.61135
G1 X214.191 Y84.006 E6.64253
G1 X214.33 Y84.934 E6.67374
G1 X214.386 Y85.759 E6.70124
G1 X214.396 Y86.087 E6.71215
G1 X214.401 Y86.422 E6.7233
G1 X214.399 Y147.517 E8.75533
G1 X214.389 Y148.242 E8.77944
G1 X214.336 Y149.178 E8.81062
G1 X214.204 Y150.107 E8.84183
G1 X213.992 Y151.02 E8.87301
G1 X213.704 Y151.913 E8.90421
G1 X213.341 Y152.778 E8.93541
G1 X212.906 Y153.608 E8.96658
G1 X212.401 Y154.399 E8.99779
G1 X211.831 Y155.143 E9.02897
G1 X211.199 Y155.837 E9.06019
G1 X210.511 Y156.474 E9.09137
G1 X209.771 Y157.05 E9.12256
G1 X208.985 Y157.561 E9.15374
G1 X208.158 Y158.003 E9.18493
G1 X207.296 Y158.373 E9.21613
G1 X206.406 Y158.669 E9.24733
G1 X205.494 Y158.887 E9.27852
G1 X204.566 Y159.027 E9.30973
G1 X203.731 Y159.085 E9.33757
G1 X203.409 Y159.095 E9.34828
G1 X203.068 Y159.1 E9.35963
G1 X32.165 Y159.099 E15.04388
G1 X31.467 Y159.09 E15.0671
G1 X30.531 Y159.038 E15.09828
G1 X29.602 Y158.906 E15.12949
G1 X28.688 Y158.696 E15.16068
G1 X27.795 Y158.409 E15.19188
G1 X26.93 Y158.046 E15.22308
G1 X26.099 Y157.612 E15.25426
G1 X25.308 Y157.108 E15.28546
G1 X24.563 Y156.538 E15.31666
G1 X23.869 Y155.907 E15.34785
G1 X23.232 Y155.22 E15.37901
G1 X22.655 Y154.48 E15.41022
G1 X22.143 Y153.694 E15.44142
G1 X21.7 Y152.867 E15.47263
G1 X21.329 Y152.006 E15.50381
G1 X21.033 Y151.116 E15.53501
G1 X20.814 Y150.204 E15.5662
G1 X20.673 Y149.277 E15.59739
G1 X20.612 Y148.367 E15.62772
G1 X20.603 Y148.008 E15.63967
G1 X20.6 Y147.732 E15.64885
G1 X20.6 Y86.536 E17.68423
G1 X20.609 Y85.862 E17.70665
G1 X20.661 Y84.926 E17.73783
G1 X20.794 Y83.997 E17.76905
G1 X21.004 Y83.083 E17.80024
G1 X21.292 Y82.191 E17.83142
G1 X21.655 Y81.326 E17.86262
G1 X22.09 Y80.495 E17.89381
G1 X22.594 Y79.704 E17.92501
G1 X23.164 Y78.959 E17.95621
G1 X23.795 Y78.266 E17.98738
G1 X24.483 Y77.628 E18.01859
G1 X25.223 Y77.052 E18.04978
G1 X26.009 Y76.54 E18.08098
G1 X26.836 Y76.098 E18.11217
G1 X27.698 Y75.727 E18.14338
G0 F6000 X28.062 Y76.02
G1 F1200 X28.942 Y75.75 E18.17399
G1 X29.842 Y75.557 E18.20461
G1 X30.756 Y75.443 E18.23524
G1 X31.3 Y75.413 E18.25337
G1 X31.575 Y75.405 E18.26252
G1 X31.888 Y75.401 E18.27293
G1 X48.141 Y75.409 E18.8135
G1 X48.803 Y75.419 E18.83552
G1 X49.722 Y75.473 E18.86614
G1 X50.633 Y75.606 E18.89676
G1 X51.529 Y75.818 E18.92739
G1 X52.403 Y76.107 E18.95801
G1 X53.249 Y76.471 E18.98864
G1 X54.06 Y76.907 E19.01926
G1 X54.949 Y77.498 E19.05477
G1 X55.617 Y77.993 E19.08242
G1 X57.707 Y79.493 E19.16799
G1 X59.811 Y80.916 E19.25247
G1 X61.916 Y82.255 E19.33544
G1 X64.133 Y83.578 E19.42131
G1 X66.329 Y84.806 E19.505
G1 X68.554 Y85.967 E19.58847
G1 X70.844 Y87.083 E19.6732
G1 X73.116 Y88.111 E19.75614
G1 X75.509 Y89.113 E19.84243
G1 X77.84 Y90.014 E19.92555
G1 X80.204 Y90.848 E20.00892
G1 X82.623 Y91.628 E20.09346
G1 X85.05 Y92.335 E20.17754
G1 X87.499 Y92.974 E20.26172
G1 X89.953 Y93.541 E20.34549
G1 X92.449 Y94.044 E20.43017
G1 X94.952 Y94.473 E20.51464
G1 X97.403 Y94.824 E20.59699
G1 X99.967 Y95.117 E20.68283
G1 X102.453 Y95.33 E20.76581
G1 X104.977 Y95.474 E20.8499
G1 X107.532 Y95.548 E20.93491
G1 X110.045 Y95.55 E21.0185
G1 X112.59 Y95.48 E21.10318
G1 X115.095 Y95.34 E21.18662
G1 X117.593 Y95.129 E21.27
G1 X120.138 Y94.841 E21.35519
G1 X122.623 Y94.488 E21.43867
G1 X125.126 Y94.061 E21.52312
G1 X127.609 Y93.566 E21.60733
G1 X130.066 Y93.001 E21.69119
G1 X132.515 Y92.365 E21.77534
G1 X134.94 Y91.663 E21.85931
G1 X137.334 Y90.895 E21.94293
G1 X139.76 Y90.04 E22.02848
G1 X142.051 Y89.159 E22.11012
G1 X144.423 Y88.169 E22.19561
G1 X146.757 Y87.117 E22.28076
G1 X149 Y86.029 E22.36368
G1 X151.26 Y84.851 E22.44844
G1 X153.452 Y83.629 E22.53191
G1 X155.625 Y82.336 E22.61602
G1 X157.773 Y80.974 E22.70061
G1 X159.856 Y79.57 E22.78416
G1 X162.622 Y77.573 E22.89763
G1 X163.339 Y77.083 E22.92651
G1 X164.141 Y76.631 E22.95713
G1 X164.979 Y76.25 E22.98775
G1 X165.847 Y75.944 E23.01836
G1 X166.739 Y75.714 E23.049
G1 X167.647 Y75.562 E23.07962
G1 X168.749 Y75.485 E23.11636
G1 X169.835 Y75.467 E23.15249
G1 X202.898 Y75.485 E24.25217
G1 X203.553 Y75.495 E24.27395
G1 X204.472 Y75.549 E24.30457
G1 X205.383 Y75.683 E24.3352
G1 X206.279 Y75.895 E24.36582
G1 X207.153 Y76.184 E24.39644
G1 X207.999 Y76.548 E24.42707
G1 X208.809 Y76.984 E24.45767
G1 X209.58 Y77.488 E24.48831
G1 X210.303 Y78.058 E24.51893
G1 X210.974 Y78.688 E24.54954
G1 X211.588 Y79.374 E24.58016
G1 X212.141 Y80.11 E24.61078
G1 X212.627 Y80.892 E24.6414
G1 X213.043 Y81.713 E24.67201
G1 X213.387 Y82.567 E24.70264
G1 X213.655 Y83.448 E24.73326
G1 X213.846 Y84.348 E24.76387
G1 X213.958 Y85.262 E24.79449
G1 X213.986 Y85.771 E24.81145
G1 X213.996 Y86.099 E24.82236
G1 X214.001 Y86.422 E24.83311
G1 X213.999 Y147.511 E26.86493
G1 X213.989 Y148.236 E26.88905
G1 X213.936 Y149.155 E26.91967
G1 X213.804 Y150.066 E26.95028
G1 X213.593 Y150.963 E26.98093
G1 X213.306 Y151.837 E27.01153
G1 X212.943 Y152.683 E27.04215
G1 X212.508 Y153.495 E27.07279
G1 X212.005 Y154.266 E27.1034
G1 X211.437 Y154.99 E27.13401
G1 X210.808 Y155.662 E27.16463
G1 X210.122 Y156.277 E27.19527
G1 X209.387 Y156.831 E27.22588
G1 X208.606 Y157.318 E27.25649
G1 X207.785 Y157.736 E27.28714
G1 X206.932 Y158.081 E27.31774
G1 X206.051 Y158.35 E27.34838
G1 X205.151 Y158.543 E27.37899
G1 X204.237 Y158.656 E27.40962
G1 X203.719 Y158.685 E27.42688
G1 X203.397 Y158.695 E27.43759
G1 X203.068 Y158.7 E27.44854
G1 X32.17 Y158.699 E33.13263
G1 X31.472 Y158.69 E33.15585
G1 X30.553 Y158.638 E33.18646
G1 X29.642 Y158.507 E33.21707
G1 X28.746 Y158.297 E33.24768
G1 X27.871 Y158.01 E33.27831
G1 X27.024 Y157.648 E33.30895
G1 X26.212 Y157.214 E33.33957
G1 X25.441 Y156.712 E33.37017
G1 X24.716 Y156.144 E33.4008
G1 X24.043 Y155.515 E33.43144
G1 X23.428 Y154.831 E33.46203
G1 X22.874 Y154.096 E33.49265
G1 X22.386 Y153.315 E33.52328
G1 X21.967 Y152.495 E33.5539
G1 X21.621 Y151.642 E33.58452
G1 X21.351 Y150.762 E33.61513
G1 X21.158 Y149.861 E33.64578
G1 X21.044 Y148.948 E33.67638
G1 X21.012 Y148.357 E33.69607
G1 X21.003 Y147.998 E33.70801
G1 X21 Y147.732 E33.71686
G1 X21 Y86.541 E35.75208
G1 X21.009 Y85.867 E35.7745
G1 X21.061 Y84.948 E35.80512
G1 X21.193 Y84.037 E35.83573
G1 X21.403 Y83.141 E35.86634
G1 X21.691 Y82.266 E35.89698
G1 X22.053 Y81.42 E35.92759
G1 X22.487 Y80.608 E35.95821
G1 X22.99 Y79.837 E35.98883
G1 X23.558 Y79.112 E36.01946
G1 X24.187 Y78.44 E36.05007
G1 X24.872 Y77.825 E36.08069
G1 X25.607 Y77.271 E36.11131
G1 X26.388 Y76.783 E36.14194
G1 X27.209 Y76.365 E36.17258
G1 X28.062 Y76.02 E36.20318
G0 F6000 X27.579 Y76.638
G1 F1200 X28.424 Y76.319 E36.23322
G1 X29.293 Y76.075 E36.26324
G1 X30.181 Y75.909 E36.29329
G1 X31.311 Y75.813 E36.33101
G1 X31.586 Y75.805 E36.34016
G1 X31.887 Y75.801 E36.35017
G1 X48.135 Y75.809 E36.89058
G1 X48.797 Y75.819 E36.9126
G1 X49.699 Y75.873 E36.94266
G1 X50.592 Y76.006 E36.97269
G1 X51.47 Y76.218 E37.00273
G1 X52.326 Y76.506 E37.03277
G1 X53.153 Y76.869 E37.06281
G1 X53.944 Y77.304 E37.09283
G1 X54.711 Y77.819 E37.12356
G1 X55.398 Y78.327 E37.15198
G1 X57.464 Y79.811 E37.23658
G1 X59.594 Y81.251 E37.3221
G1 X61.73 Y82.61 E37.4063
G1 X63.912 Y83.912 E37.49081
G1 X66.128 Y85.151 E37.57525
G1 X68.372 Y86.323 E37.65946
G1 X70.683 Y87.449 E37.74496
G1 X72.975 Y88.486 E37.82863
G1 X75.346 Y89.479 E37.91413
G1 X77.71 Y90.393 E37.99843
G1 X80.085 Y91.231 E38.08219
G1 X82.494 Y92.007 E38.16637
G1 X84.942 Y92.721 E38.25118
G1 X87.413 Y93.365 E38.33611
G1 X89.86 Y93.93 E38.41964
G1 X92.407 Y94.444 E38.50607
G1 X94.864 Y94.865 E38.58898
G1 X97.368 Y95.223 E38.67311
G1 X99.888 Y95.511 E38.75747
G1 X102.465 Y95.732 E38.84349
G1 X104.944 Y95.873 E38.92608
G1 X107.521 Y95.948 E39.01183
G1 X110.056 Y95.95 E39.09614
G1 X112.587 Y95.88 E39.18035
G1 X115.117 Y95.738 E39.26464
G1 X117.67 Y95.523 E39.34985
G1 X120.167 Y95.24 E39.43343
G1 X122.675 Y94.885 E39.51768
G1 X125.234 Y94.448 E39.60402
G1 X127.639 Y93.969 E39.68559
G1 X130.183 Y93.384 E39.77241
G1 X132.622 Y92.75 E39.85622
G1 X135.068 Y92.042 E39.94092
G1 X137.484 Y91.267 E40.02531
G1 X139.857 Y90.431 E40.10899
G1 X142.214 Y89.524 E40.19299
G1 X144.605 Y88.527 E40.27915
G1 X146.889 Y87.497 E40.36248
G1 X149.209 Y86.371 E40.44825
G1 X151.433 Y85.212 E40.53167
G1 X153.673 Y83.964 E40.61695
G1 X155.823 Y82.685 E40.70016
G1 X158.006 Y81.3 E40.78614
G1 X160.068 Y79.91 E40.86885
G1 X162.856 Y77.898 E40.98321
G1 X163.565 Y77.414 E41.01176
G1 X164.353 Y76.972 E41.04181
G1 X165.177 Y76.602 E41.07185
G1 X166.03 Y76.307 E41.10187
G1 X166.906 Y76.088 E41.13191
G1 X167.798 Y75.947 E41.16194
G1 X168.756 Y75.885 E41.19387
G1 X169.835 Y75.867 E41.22977
G1 X202.892 Y75.885 E42.32925
G1 X203.547 Y75.895 E42.35103
G1 X204.448 Y75.949 E42.38105
G1 X205.341 Y76.082 E42.41108
G1 X206.219 Y76.294 E42.44113
G1 X207.075 Y76.583 E42.47117
G1 X207.902 Y76.946 E42.50121
G1 X208.693 Y77.381 E42.53124
G1 X209.443 Y77.884 E42.56127
G1 X210.146 Y78.451 E42.59131
G1 X210.795 Y79.079 E42.62135
G1 X211.387 Y79.761 E42.65139
G1 X211.916 Y80.493 E42.68143
G1 X212.378 Y81.269 E42.71146
G1 X212.769 Y82.083 E42.7415
G1 X213.087 Y82.928 E42.77153
G1 X213.329 Y83.798 E42.80156
G1 X213.493 Y84.687 E42.83163
G1 X213.586 Y85.783 E42.86821
G1 X213.596 Y86.111 E42.87913
G1 X213.601 Y86.422 E42.88947
G1 X213.599 Y147.506 E44.92114
G1 X213.589 Y148.231 E44.94525
G1 X213.537 Y149.132 E44.97527
G1 X213.405 Y150.026 E45.00533
G1 X213.194 Y150.904 E45.03536
G1 X212.907 Y151.76 E45.06539
G1 X212.545 Y152.587 E45.09541
G1 X212.111 Y153.38 E45.12548
G1 X211.609 Y154.13 E45.1555
G1 X211.043 Y154.834 E45.18554
G1 X210.416 Y155.484 E45.21558
G1 X209.735 Y156.077 E45.24562
G1 X209.003 Y156.607 E45.27567
G1 X208.228 Y157.07 E45.3057
G1 X207.415 Y157.462 E45.33572
G1 X206.57 Y157.782 E45.36577
G1 X205.7 Y158.025 E45.39582
G1 X204.812 Y158.19 E45.42586
G1 X203.707 Y158.285 E45.46274
G1 X203.385 Y158.295 E45.47346
G1 X203.068 Y158.3 E45.484
G1 X32.175 Y158.299 E51.16793
G1 X31.477 Y158.29 E51.19115
G1 X30.576 Y158.239 E51.22116
G1 X29.682 Y158.107 E51.25122
G1 X28.804 Y157.898 E51.28124
G1 X27.947 Y157.611 E51.3113
G1 X27.12 Y157.25 E51.34131
G1 X26.327 Y156.817 E51.37136
G1 X25.576 Y156.316 E51.40139
G1 X24.872 Y155.75 E51.43143
G1 X24.221 Y155.124 E51.46147
G1 X23.628 Y154.443 E51.4915
G1 X23.098 Y153.712 E51.52153
G1 X22.634 Y152.937 E51.55158
G1 X22.24 Y152.124 E51.58163
G1 X21.92 Y151.28 E51.61165
G1 X21.676 Y150.41 E51.6417
G1 X21.51 Y149.522 E51.67175
G1 X21.412 Y148.347 E51.71096
G1 X21.403 Y147.988 E51.72291
G1 X21.4 Y147.732 E51.73142
G1 X21.4 Y86.547 E53.76644
G1 X21.409 Y85.873 E53.78886
G1 X21.461 Y84.971 E53.81891
G1 X21.593 Y84.078 E53.84894
G1 X21.803 Y83.199 E53.879
G1 X22.09 Y82.343 E53.90902
G1 X22.451 Y81.516 E53.93904
G1 X22.884 Y80.723 E53.96909
G1 X23.386 Y79.972 E53.99913
G1 X23.952 Y79.269 E54.02915
G1 X24.579 Y78.618 E54.05921
G1 X25.26 Y78.025 E54.08925
G1 X25.991 Y77.495 E54.11928
G1 X26.766 Y77.031 E54.14932
G1 X27.579 Y76.638 E54.17936
G1 F2700 E49.17936
;MESH:LEFT_SIDE_REAR.stl
G0 F6000 X55.165 Y127.031
G0 X54.422 Y125.745
G0 X55.955 Y125.722
G0 X57.318 Y125.865
G0 X58.506 Y126.552
G0 X59.31 Y127.657
G0 X59.596 Y129
G0 X59.339 Y130.207
G0 X58.685 Y131.649
;TYPE:WALL-INNER
G1 F2700 E54.17936
G1 F1200 X59.556 Y130.449 E54.22867
G1 X59.863 Y129 E54.27794
G1 X59.556 Y127.551 E54.3272
G1 X58.685 Y126.352 E54.37649
G1 X57.401 Y125.612 E54.42578
G1 X55.928 Y125.456 E54.47505
G1 X54.519 Y125.914 E54.52433
G1 X53.417 Y126.906 E54.57364
G1 X52.814 Y128.259 E54.62291
G1 X52.814 Y129.742 E54.67223
G1 X53.417 Y131.094 E54.72147
G1 X54.519 Y132.086 E54.77079
G1 X55.928 Y132.544 E54.82006
G1 X57.401 Y132.389 E54.86933
G1 X58.685 Y131.649 E54.91862
G0 F6000 X58.411 Y131.345
;TYPE:WALL-OUTER
G1 F1200 X59.182 Y130.283 E54.96227
G1 X59.454 Y129 E55.00589
G1 X59.182 Y127.717 E55.04951
G1 X58.411 Y126.656 E55.09313
G1 X57.275 Y126.001 E55.13675
G1 X55.971 Y125.863 E55.18036
G1 X54.723 Y126.268 E55.224
G1 X53.748 Y127.146 E55.26764
G1 X53.214 Y128.344 E55.31126
G1 X53.214 Y129.657 E55.35493
G1 X53.748 Y130.854 E55.39853
G1 X54.723 Y131.732 E55.44217
G1 X55.971 Y132.137 E55.48581
G1 X57.275 Y132 E55.52942
G1 X58.411 Y131.345 E55.57303
G0 F6000 X58.705 Y131.672
G1 F2700 E50.57303
G0 F6000 X59.734 Y130.528
G0 X58.376 Y129.923
G0 X73.148 Y125.133
G0 X78.003 Y128.267
G0 X165.508 Y96.761
G0 X166.13 Y94.986
G0 X181.029 Y90.157
G0 X179.725 Y90.91
G0 X180.489 Y91.404
;TYPE:WALL-INNER
G1 F2700 E55.57303
G1 F1200 X181.221 Y91.6 E55.59823
G1 X197.507 Y91.6 E56.13991
G1 X197.497 Y92.052 E56.15495
G1 X198.083 Y93.128 E56.1957
G1 X199.131 Y93.766 E56.23651
G1 X200.357 Y93.795 E56.27729
G1 X201.433 Y93.21 E56.31803
G1 X202.074 Y92.165 E56.3588
G1 X202.106 Y90.939 E56.39959
G1 X201.522 Y89.861 E56.44037
G1 X200.9 Y89.478 E56.46467
G1 X200.9 Y88.921 E56.48319
G1 X200.704 Y88.189 E56.5084
G1 X200.111 Y87.596 E56.53629
G1 X199.379 Y87.4 E56.56149
G1 X181.221 Y87.4 E57.16543
