;FLAVOR:Marlin
;TIME:11366
;Filament used: 9.59789m
;Layer height: 0.2
;MINX:39.7
;MINY:78.738
;MINZ:0.2
;MAXX:195.3
;MAXY:164.462
;MAXZ:9.2
;Generated with Cura_SteamEngine master
M140 S50
M105
M190 S50
M104 S200
M105
M109 S200
M82 ;absolute extrusion mode
; Ender 3 Custom Start G-code
G92 E0 ; Reset Extruder
G28 ; Home all axes
G1 Z2.0 F3000 ; Move Z Axis up little to prevent scratching of Heat Bed
G1 X0.1 Y20 Z0.3 F5000.0 ; Move to start position
G1 X0.1 Y200.0 Z0.3 F1500.0 E15 ; Draw the first line
G1 X0.4 Y200.0 Z0.3 F5000.0 ; Move to side a little
G1 X0.4 Y20 Z0.3 F1500.0 E30 ; Draw the second line
G92 E0 ; Reset Extruder
G1 Z2.0 F3000 ; Move Z Axis up little to prevent scratching of Heat Bed
G1 X5 Y20 Z0.3 F5000.0 ; Move over to prevent blob squish
G92 E0
G92 E0
G1 F2700 E-5
;LAYER_COUNT:46
;LAYER:0
M107
G0 F6000 X45.127 Y80.269 Z0.2
;TYPE:SKIRT
G1 F2700 E0
G1 F1200 X45.955 Y79.828 E0.0312
G1 X46.817 Y79.459 E0.06239
G1 X47.708 Y79.165 E0.09359
G1 X48.62 Y78.947 E0.12478
G1 X49.547 Y78.809 E0.15595
G1 X50.401 Y78.751 E0.18442
G1 X50.721 Y78.742 E0.19507
G1 X51.03 Y78.738 E0.20535
G1 X183.593 Y78.738 E4.61441
G1 X184.449 Y78.749 E4.64289
G1 X185.385 Y78.803 E4.67407
G1 X186.313 Y78.935 E4.70525
G1 X187.227 Y79.147 E4.73645
G1 X188.119 Y79.436 E4.76764
G1 X188.984 Y79.799 E4.79884
G1 X189.814 Y80.235 E4.83002
G1 X190.605 Y80.74 E4.86124
G1 X191.349 Y81.311 E4.89243
G1 X192.042 Y81.943 E4.92362
G1 X192.679 Y82.631 E4.95481
G1 X193.254 Y83.372 E4.986
G1 X193.765 Y84.158 E5.01719
G1 X194.207 Y84.986 E5.0484
G1 X194.576 Y85.848 E5.07959
G1 X194.871 Y86.738 E5.11078
G1 X195.089 Y87.65 E5.14196
G1 X195.229 Y88.578 E5.17318
G1 X195.287 Y89.439 E5.20188
G1 X195.296 Y89.759 E5.21253
G1 X195.3 Y90.068 E5.22281
G1 X195.3 Y152.785 E7.30878
G1 X195.29 Y153.509 E7.33286
G1 X195.237 Y154.445 E7.36405
G1 X195.105 Y155.374 E7.39525
G1 X194.893 Y156.288 E7.42646
G1 X194.605 Y157.18 E7.45764
G1 X194.242 Y158.045 E7.48884
G1 X193.807 Y158.875 E7.52001
G1 X193.302 Y159.666 E7.55122
G1 X192.732 Y160.411 E7.58242
G1 X192.028 Y161.176 E7.617
G1 X191.932 Y161.271 E7.62149
G1 X191.238 Y161.901 E7.65266
G1 X190.493 Y162.471 E7.68386
G1 X189.702 Y162.974 E7.71504
G1 X188.871 Y163.409 E7.74624
G1 X188.005 Y163.771 E7.77746
G1 X187.113 Y164.058 E7.80862
G1 X186.198 Y164.268 E7.83985
G1 X185.27 Y164.399 E7.87102
G1 X184.521 Y164.447 E7.89598
G1 X184.034 Y164.459 E7.91218
G1 X183.723 Y164.462 E7.92253
G1 X51.335 Y164.461 E12.32577
G1 X50.631 Y164.45 E12.34919
G1 X49.695 Y164.395 E12.38037
G1 X48.767 Y164.261 E12.41156
G1 X47.853 Y164.048 E12.44277
G1 X46.961 Y163.758 E12.47397
G1 X46.097 Y163.394 E12.50515
G1 X45.267 Y162.957 E12.53635
G1 X44.478 Y162.451 E12.56753
G1 X43.734 Y161.879 E12.59874
G1 X42.983 Y161.187 E12.63271
G1 X42.89 Y161.093 E12.6371
G1 X42.26 Y160.399 E12.66828
G1 X41.691 Y159.654 E12.69946
G1 X41.187 Y158.863 E12.73065
G1 X40.753 Y158.031 E12.76186
G1 X40.391 Y157.166 E12.79305
G1 X40.104 Y156.273 E12.82425
G1 X39.894 Y155.359 E12.85544
G1 X39.763 Y154.431 E12.88661
G1 X39.717 Y153.757 E12.90908
G1 X39.704 Y153.294 E12.92449
G1 X39.7 Y152.863 E12.93882
G1 X39.701 Y90.247 E15.02144
G1 X39.711 Y89.582 E15.04356
G1 X39.765 Y88.645 E15.07478
G1 X39.899 Y87.717 E15.10596
G1 X40.111 Y86.803 E15.13717
G1 X40.4 Y85.911 E15.16836
G1 X40.765 Y85.047 E15.19955
G1 X41.201 Y84.217 E15.23073
G1 X41.707 Y83.427 E15.26194
G1 X42.278 Y82.683 E15.29313
G1 X42.91 Y81.99 E15.32433
G1 X43.599 Y81.354 E15.35551
G1 X44.34 Y80.779 E15.38671
G1 X45.127 Y80.269 E15.4179
G0 F6000 X45.506 Y80.512
G1 F1200 X46.327 Y80.096 E15.44851
G1 X47.181 Y79.752 E15.47913
G1 X48.061 Y79.483 E15.50974
G1 X48.962 Y79.292 E15.54037
G1 X49.876 Y79.18 E15.571
G1 X50.412 Y79.151 E15.58885
G1 X50.732 Y79.142 E15.5995
G1 X51.03 Y79.138 E15.60941
G1 X183.593 Y79.138 E20.01848
G1 X184.443 Y79.149 E20.04675
G1 X185.362 Y79.202 E20.07737
G1 X186.273 Y79.335 E20.10799
G1 X187.169 Y79.546 E20.1386
G1 X188.043 Y79.834 E20.16921
G1 X188.89 Y80.197 E20.19986
G1 X189.701 Y80.632 E20.23047
G1 X190.471 Y81.136 E20.26108
G1 X191.195 Y81.705 E20.29171
G1 X191.867 Y82.335 E20.32234
G1 X192.482 Y83.02 E20.35296
G1 X193.035 Y83.756 E20.38358
G1 X193.522 Y84.537 E20.41419
G1 X193.939 Y85.358 E20.44482
G1 X194.284 Y86.212 E20.47545
G1 X194.553 Y87.092 E20.50606
G1 X194.745 Y87.993 E20.5367
G1 X194.858 Y88.906 E20.5673
G1 X194.887 Y89.45 E20.58542
G1 X194.896 Y89.77 E20.59606
G1 X194.9 Y90.068 E20.60598
G1 X194.9 Y152.779 E22.69175
G1 X194.89 Y153.503 E22.71584
G1 X194.837 Y154.423 E22.74649
G1 X194.705 Y155.334 E22.7771
G1 X194.494 Y156.23 E22.80772
G1 X194.207 Y157.104 E22.83832
G1 X193.844 Y157.951 E22.86897
G1 X193.409 Y158.762 E22.89957
G1 X192.906 Y159.533 E22.93019
G1 X192.337 Y160.257 E22.96082
G1 X191.747 Y160.891 E22.98962
G1 X191.651 Y160.986 E22.99412
G1 X190.969 Y161.605 E23.02475
G1 X190.236 Y162.162 E23.05537
G1 X189.458 Y162.653 E23.08597
G1 X188.639 Y163.075 E23.11661
G1 X187.787 Y163.425 E23.14725
G1 X186.909 Y163.699 E23.17784
G1 X186.009 Y163.896 E23.20848
G1 X185.096 Y164.014 E23.2391
G1 X184.509 Y164.047 E23.25866
G1 X184.03 Y164.059 E23.27459
G1 X183.723 Y164.062 E23.2848
G1 X51.341 Y164.061 E27.68785
G1 X50.637 Y164.05 E27.71126
G1 X49.718 Y163.995 E27.74189
G1 X48.807 Y163.861 E27.77251
G1 X47.912 Y163.649 E27.8031
G1 X47.038 Y163.36 E27.83372
G1 X46.192 Y162.996 E27.86435
G1 X45.381 Y162.56 E27.89498
G1 X44.611 Y162.055 E27.9256
G1 X43.888 Y161.485 E27.95623
G1 X43.268 Y160.906 E27.98444
G1 X43.175 Y160.812 E27.98884
G1 X42.556 Y160.13 E28.01947
G1 X41.999 Y159.397 E28.05009
G1 X41.508 Y158.618 E28.08072
G1 X41.086 Y157.8 E28.11133
G1 X40.737 Y156.948 E28.14196
G1 X40.463 Y156.069 E28.17258
G1 X40.266 Y155.17 E28.20319
G1 X40.148 Y154.257 E28.23381
G1 X40.117 Y153.742 E28.25097
G1 X40.104 Y153.29 E28.26601
G1 X40.1 Y152.859 E28.28034
G1 X40.101 Y90.253 E30.36263
G1 X40.111 Y89.588 E30.38475
G1 X40.165 Y88.669 E30.41537
G1 X40.298 Y87.758 E30.44599
G1 X40.51 Y86.862 E30.47661
G1 X40.799 Y85.987 E30.50726
G1 X41.163 Y85.142 E30.53786
G1 X41.598 Y84.331 E30.56847
G1 X42.103 Y83.56 E30.59913
G1 X42.672 Y82.837 E30.62973
G1 X43.302 Y82.165 E30.66036
G1 X43.988 Y81.551 E30.69099
G1 X44.724 Y80.999 E30.72158
G1 X45.506 Y80.512 E30.75223
G0 F6000 X45.883 Y80.761
G1 F1200 X46.697 Y80.37 E30.78226
G1 X47.542 Y80.051 E30.8123
G1 X48.412 Y79.809 E30.84234
G1 X49.3 Y79.645 E30.87237
G1 X50.423 Y79.551 E30.90985
G1 X50.743 Y79.542 E30.9205
G1 X51.03 Y79.538 E30.93005
G1 X183.593 Y79.538 E35.33911
G1 X184.437 Y79.549 E35.36718
G1 X185.339 Y79.602 E35.39724
G1 X186.232 Y79.734 E35.42726
G1 X187.11 Y79.945 E35.45729
G1 X187.966 Y80.233 E35.48733
G1 X188.793 Y80.595 E35.51736
G1 X189.585 Y81.03 E35.54741
G1 X190.336 Y81.532 E35.57746
G1 X191.039 Y82.099 E35.6075
G1 X191.689 Y82.726 E35.63753
G1 X192.281 Y83.408 E35.66757
G1 X192.811 Y84.139 E35.6976
G1 X193.273 Y84.915 E35.72764
G1 X193.666 Y85.728 E35.75768
G1 X193.984 Y86.573 E35.7877
G1 X194.227 Y87.443 E35.81775
G1 X194.392 Y88.331 E35.84779
G1 X194.487 Y89.461 E35.88551
G1 X194.496 Y89.781 E35.89615
G1 X194.5 Y90.068 E35.9057
G1 X194.5 Y152.774 E37.99131
G1 X194.49 Y153.498 E38.01539
G1 X194.438 Y154.399 E38.04541
G1 X194.306 Y155.293 E38.07547
G1 X194.095 Y156.171 E38.1055
G1 X193.808 Y157.027 E38.13553
G1 X193.446 Y157.855 E38.16558
G1 X193.012 Y158.647 E38.19562
G1 X192.51 Y159.397 E38.22564
G1 X191.944 Y160.101 E38.25568
G1 X191.466 Y160.607 E38.27884
G1 X191.37 Y160.702 E38.28333
G1 X190.7 Y161.308 E38.31337
G1 X189.98 Y161.853 E38.34341
G1 X189.214 Y162.332 E38.37346
G1 X188.409 Y162.741 E38.40349
G1 X187.571 Y163.077 E38.43352
G1 X186.706 Y163.338 E38.46357
G1 X185.822 Y163.521 E38.49359
G1 X184.497 Y163.648 E38.53787
G1 X184.026 Y163.66 E38.55354
G1 X183.824 Y163.662 E38.56026
G1 X51.348 Y163.661 E42.96643
G1 X50.644 Y163.65 E42.98984
G1 X49.742 Y163.596 E43.0199
G1 X48.849 Y163.462 E43.04993
G1 X47.971 Y163.25 E43.07997
G1 X47.115 Y162.961 E43.11002
G1 X46.289 Y162.598 E43.14003
G1 X45.497 Y162.163 E43.17009
G1 X44.748 Y161.659 E43.20011
G1 X44.045 Y161.091 E43.23017
G1 X43.552 Y160.625 E43.25274
G1 X43.459 Y160.531 E43.25713
G1 X42.853 Y159.861 E43.28718
G1 X42.308 Y159.141 E43.31721
G1 X41.83 Y158.375 E43.34725
G1 X41.421 Y157.57 E43.37728
G1 X41.084 Y156.732 E43.40732
G1 X40.824 Y155.867 E43.43736
G1 X40.64 Y154.983 E43.46739
G1 X40.517 Y153.728 E43.50933
G1 X40.504 Y153.287 E43.52401
G1 X40.5 Y152.856 E43.53834
G1 X40.501 Y90.259 E45.62033
G1 X40.511 Y89.594 E45.64245
G1 X40.565 Y88.692 E45.6725
G1 X40.698 Y87.799 E45.70253
G1 X40.909 Y86.921 E45.73257
G1 X41.198 Y86.065 E45.76262
G1 X41.561 Y85.238 E45.79265
G1 X41.995 Y84.447 E45.82266
G1 X42.498 Y83.696 E45.85273
G1 X43.066 Y82.994 E45.88276
G1 X43.693 Y82.344 E45.9128
G1 X44.375 Y81.752 E45.94284
G1 X45.107 Y81.223 E45.97287
G1 X45.883 Y80.761 E46.00291
G1 F2700 E41.00291
;MESH:FRONT_LOWER.stl
G0 F6000 X178.237 Y148.162
G0 X176.732 Y148.162
G0 X177.964 Y149.956
;TYPE:WALL-INNER
G1 F2700 E46.00291
G1 F1200 X179 Y150.233 E46.03858
G1 X180.036 Y149.956 E46.07425
G1 X180.794 Y149.198 E46.1099
G1 X181.071 Y148.162 E46.14557
G1 X180.794 Y147.126 E46.18124
G1 X180.036 Y146.368 E46.21689
G1 X179 Y146.091 E46.25256
G1 X177.964 Y146.368 E46.28823
G1 X177.206 Y147.126 E46.32388
G1 X176.929 Y148.162 E46.35955
G1 X177.206 Y149.198 E46.39522
G1 X177.964 Y149.956 E46.43087
G0 F6000 X178.171 Y149.597
;TYPE:WALL-OUTER
G1 F1200 X179 Y149.819 E46.45942
G1 X179.829 Y149.597 E46.48796
G1 X180.435 Y148.991 E46.51646
G1 X180.657 Y148.162 E46.54501
G1 X180.435 Y147.333 E46.57355
G1 X179.829 Y146.727 E46.60206
G1 X179 Y146.505 E46.6306
G1 X178.171 Y146.727 E46.65915
G1 X177.565 Y147.333 E46.68765
G1 X177.343 Y148.162 E46.71619
G1 X177.565 Y148.991 E46.74474
G1 X178.171 Y149.597 E46.77324
G0 F6000 X177.952 Y149.978
G1 F2700 E41.77324
G0 F6000 X177.035 Y149.298
G0 X178.339 Y148.544
G0 X56.877 Y148.669
G0 X58.181 Y149.423
G0 X57.161 Y150.172
;TYPE:WALL-INNER
G1 F2700 E46.77324
G1 F1200 X58.01 Y149.323 E46.81318
G1 X58.321 Y148.162 E46.85315
G1 X58.01 Y147.001 E46.89313
G1 X57.161 Y146.152 E46.93306
G1 X56 Y145.841 E46.97304
G1 X54.839 Y146.152 E47.01302
G1 X53.99 Y147.001 E47.05295
G1 X53.679 Y148.162 E47.09293
G1 X53.99 Y149.323 E47.1329
G1 X54.839 Y150.172 E47.17284
G1 X56 Y150.483 E47.21282
G1 X57.161 Y150.172 E47.25279
G0 F6000 X56.954 Y149.813
;TYPE:WALL-OUTER
G1 F1200 X57.651 Y149.116 E47.28558
G1 X57.907 Y148.162 E47.31843
G1 X57.651 Y147.208 E47.35128
G1 X56.954 Y146.511 E47.38407
G1 X56 Y146.255 E47.41692
G1 X55.046 Y146.511 E47.44977
G1 X54.349 Y147.208 E47.48256
G1 X54.093 Y148.162 E47.51541
G1 X54.349 Y149.116 E47.54826
G1 X55.046 Y149.813 E47.58105
G1 X56 Y150.069 E47.6139
G1 X56.954 Y149.813 E47.64675
G0 F6000 X57.174 Y150.194
G1 F2700 E42.64675
G0 F6000 X56.509 Y150.262
G0 X54.739 Y150.343
G0 X54.739 Y152.652
G0 X51.3 Y152.862
;TYPE:WALL-INNER
G1 F2700 E47.64675
G1 F1200 X51.3 Y90.338 E49.72631
G1 X183.7 Y90.338 E54.12995
G1 X183.701 Y152.862 E56.20951
G1 X51.3 Y152.862 E60.61318
G0 F6000 X50.9 Y153.262
;TYPE:WALL-OUTER
G1 F1200 X50.9 Y89.938 E62.71935
G1 X184.1 Y89.938 E67.1496
G1 X184.101 Y153.262 E69.25576
G1 X50.9 Y153.262 E73.68605
G0 F6000 X51.17 Y152.992
G0 X51.41 Y152.472
G0 X51.69 Y152.472
;TYPE:SKIN
G1 F1200 X51.69 Y90.728 E75.73966
G1 X183.31 Y90.728 E80.11736
G1 X183.311 Y152.472 E82.17097
G1 X51.69 Y152.472 E86.5487
G1 F2700 E81.5487
G0 F6000 X51.41 Y152.472
G0 X54.782 Y152.652
G0 X55.358 Y150.508
G0 X54.782 Y150.272
G1 F2700 E86.5487
G0 F6000 X54.637 Y150.521
G1 F1200 X56 Y150.887 E86.59564
G1 X57.363 Y150.521 E86.64258
G1 X58.359 Y149.525 E86.68943
G1 X58.725 Y148.162 E86.73637
G1 X58.359 Y146.799 E86.78331
G1 X57.363 Y145.803 E86.83016
G1 X56 Y145.437 E86.8771
G1 X54.637 Y145.803 E86.92404
G1 X53.641 Y146.799 E86.97089
G1 X53.275 Y148.162 E87.01783
G1 X53.641 Y149.525 E87.06477
G1 X54.637 Y150.521 E87.11162
G1 F2700 E82.11162
G0 F6000 X54.782 Y150.272
G0 X56 Y150.316
G0 X56.97 Y150.055
G0 X58.181 Y149.423
G0 X56.877 Y148.669
G0 X178.237 Y148.162
G0 X176.732 Y148.162
G1 F2700 E87.11162
G0 F6000 X176.525 Y148.162
G1 F1200 X176.857 Y149.399 E87.15421
G1 X177.763 Y150.305 E87.19683
G1 X179 Y150.637 E87.23943
G1 X180.237 Y150.305 E87.28203
G1 X181.143 Y149.399 E87.32464
G1 X181.475 Y148.162 E87.36724
G1 X181.143 Y146.925 E87.40984
G1 X180.237 Y146.019 E87.45246
G1 X179 Y145.687 E87.49506
G1 X177.763 Y146.019 E87.53765
G1 X176.857 Y146.925 E87.58027
G1 X176.525 Y148.162 E87.62287
G1 F2700 E82.62287
G0 F6000 X176.815 Y148.162
G0 X177.864 Y146.197
G0 X178.618 Y147.501
G0 X184.965 Y146.196
G0 X183.491 Y146.197
G0 X183.591 Y91.509
G1 F2700 E87.62287
G0 F6000 X183.15 Y91.509
G1 F1200 X182.529 Y90.887 E87.6521
G0 F6000 X181.963 Y90.887
G1 F1200 X183.15 Y92.075 E87.70796
G0 F6000 X183.15 Y92.64
G1 F1200 X181.397 Y90.887 E87.79041
G0 F6000 X180.831 Y90.887
G1 F1200 X183.15 Y93.206 E87.89949
G0 F6000 X183.15 Y93.772
G1 F1200 X180.266 Y90.887 E88.03517
G0 F6000 X179.7 Y90.887
G1 F1200 X183.15 Y94.337 E88.19745
G0 F6000 X183.15 Y94.903
G1 F1200 X179.134 Y90.887 E88.38635
G0 F6000 X178.569 Y90.887
G1 F1200 X183.15 Y95.469 E88.60185
G0 F6000 X183.15 Y96.035
G1 F1200 X178.003 Y90.887 E88.84397
G0 F6000 X177.437 Y90.887
G1 F1200 X183.15 Y96.6 E89.11269
G0 F6000 X183.15 Y97.166
G1 F1200 X176.872 Y90.887 E89.40801
G0 F6000 X176.306 Y90.887
G1 F1200 X183.15 Y97.732 E89.72996
G0 F6000 X183.15 Y98.297
G1 F1200 X175.74 Y90.887 E90.0785
G0 F6000 X175.175 Y90.887
G1 F1200 X183.15 Y98.863 E90.45365
G0 F6000 X183.15 Y99.429
G1 F1200 X174.609 Y90.887 E90.85541
G0 F6000 X174.043 Y90.887
G1 F1200 X183.15 Y99.994 E91.28378
G0 F6000 X183.15 Y100.56
G1 F1200 X173.478 Y90.887 E91.73874
G0 F6000 X172.912 Y90.887
G1 F1200 X183.15 Y101.126 E92.22033
G0 F6000 X183.15 Y101.691
G1 F1200 X172.346 Y90.887 E92.72852
G0 F6000 X171.78 Y90.887
G1 F1200 X183.15 Y102.257 E93.26333
G0 F6000 X183.15 Y102.823
G1 F1200 X171.215 Y90.887 E93.82474
G0 F6000 X170.649 Y90.887
G1 F1200 X183.15 Y103.388 E94.41274
G0 F6000 X183.15 Y103.954
G1 F1200 X170.083 Y90.887 E95.02738
G0 F6000 X169.518 Y90.887
G1 F1200 X183.15 Y104.52 E95.66861
G0 F6000 X183.15 Y105.085
G1 F1200 X168.952 Y90.887 E96.33644
G0 F6000 X168.386 Y90.887
G1 F1200 X183.15 Y105.651 E97.03089
G0 F6000 X183.15 Y106.217
G1 F1200 X167.821 Y90.887 E97.75194
G0 F6000 X167.255 Y90.887
G1 F1200 X183.15 Y106.783 E98.49962
G0 F6000 X183.15 Y107.348
G1 F1200 X166.689 Y90.887 E99.27389
G0 F6000 X166.124 Y90.887
G1 F1200 X183.15 Y107.914 E100.07477
G0 F6000 X183.15 Y108.48
G1 F1200 X165.558 Y90.887 E100.90227
G0 F6000 X164.992 Y90.887
G1 F1200 X183.15 Y109.045 E101.75636
G0 F6000 X183.15 Y109.611
G1 F1200 X164.427 Y90.887 E102.63706
G0 F6000 X163.861 Y90.887
G1 F1200 X183.15 Y110.177 E103.54438
G0 F6000 X183.15 Y110.742
G1 F1200 X163.295 Y90.887 E104.4783
G0 F6000 X162.73 Y90.887
G1 F1200 X183.15 Y111.308 E105.43881
G0 F6000 X183.15 Y111.874
G1 F1200 X162.164 Y90.887 E106.42595
G0 F6000 X161.598 Y90.887
G1 F1200 X183.15 Y112.439 E107.43969
G0 F6000 X183.15 Y113.005
G1 F1200 X161.032 Y90.887 E108.48006
G0 F6000 X160.467 Y90.887
G1 F1200 X183.15 Y113.571 E109.54702
G0 F6000 X183.15 Y114.136
G1 F1200 X159.901 Y90.887 E110.64058
G0 F6000 X159.335 Y90.887
G1 F1200 X183.15 Y114.702 E111.76077
G0 F6000 X183.15 Y115.268
G1 F1200 X158.77 Y90.887 E112.90755
G0 F6000 X158.204 Y90.887
G1 F1200 X183.15 Y115.833 E114.08093
G0 F6000 X183.15 Y116.399
G1 F1200 X157.638 Y90.887 E115.28094
G0 F6000 X157.073 Y90.887
G1 F1200 X183.15 Y116.965 E116.50754
G0 F6000 X183.15 Y117.531
G1 F1200 X156.507 Y90.887 E117.76077
G0 F6000 X155.941 Y90.887
G1 F1200 X183.15 Y118.096 E119.0406
G0 F6000 X183.15 Y118.662
G1 F1200 X155.376 Y90.887 E120.34703
G0 F6000 X154.81 Y90.887
G1 F1200 X183.15 Y119.228 E121.68008
G0 F6000 X183.15 Y119.793
G1 F1200 X154.244 Y90.887 E123.03973
G0 F6000 X153.679 Y90.887
G1 F1200 X183.15 Y120.359 E124.42598
G0 F6000 X183.15 Y120.925
G1 F1200 X153.113 Y90.887 E125.83885
G0 F6000 X152.547 Y90.887
G1 F1200 X183.15 Y121.49 E127.27832
G0 F6000 X183.15 Y122.056
G1 F1200 X151.981 Y90.887 E128.74441
G0 F6000 X151.416 Y90.887
