;FLAVOR:Marlin
;TIME:20951
;Filament used: 16.3836m
;Layer height: 0.2
;MINX:20.599
;MINY:22.358
;MINZ:0.2
;MAXX:214.4
;MAXY:213.541
;MAXZ:10.2
;Generated with Cura_SteamEngine master
M140 S50
M105
M190 S50
M104 S200
M105
M109 S200
M82 ;absolute extrusion mode
; Ender 3 Custom Start G-code
G92 E0 ; Reset Extruder
G28 ; Home all axes
G1 Z2.0 F3000 ; Move Z Axis up little to prevent scratching of Heat Bed
G1 X0.1 Y20 Z0.3 F5000.0 ; Move to start position
G1 X0.1 Y200.0 Z0.3 F1500.0 E15 ; Draw the first line
G1 X0.4 Y200.0 Z0.3 F5000.0 ; Move to side a little
G1 X0.4 Y20 Z0.3 F1500.0 E30 ; Draw the second line
G92 E0 ; Reset Extruder
G1 Z2.0 F3000 ; Move Z Axis up little to prevent scratching of Heat Bed
G1 X5 Y20 Z0.3 F5000.0 ; Move over to prevent blob squish
G92 E0
G92 E0
G1 F2700 E-5
;LAYER_COUNT:51
;LAYER:0
M107
G0 F6000 X131.986 Y25.967 Z0.2
;TYPE:SKIRT
G1 F2700 E0
G1 F1200 X132.49 Y25.478 E0.02336
G1 X133.191 Y24.854 E0.05457
G1 X133.941 Y24.293 E0.08572
G1 X134.738 Y23.797 E0.11694
G1 X135.573 Y23.37 E0.14814
G1 X136.442 Y23.017 E0.17933
G1 X137.337 Y22.739 E0.21051
G1 X138.253 Y22.538 E0.2417
G1 X139.433 Y22.396 E0.28123
G1 X139.586 Y22.386 E0.28633
G1 X140.169 Y22.364 E0.30573
G1 X140.712 Y22.358 E0.32379
G1 X202.693 Y22.358 E2.38529
G1 X203.549 Y22.369 E2.41376
G1 X204.485 Y22.423 E2.44494
G1 X205.413 Y22.555 E2.47612
G1 X206.327 Y22.767 E2.50733
G1 X207.219 Y23.056 E2.53851
G1 X208.084 Y23.419 E2.56971
G1 X208.914 Y23.855 E2.6009
G1 X209.705 Y24.36 E2.63211
G1 X210.449 Y24.931 E2.6633
G1 X211.142 Y25.563 E2.6945
G1 X211.779 Y26.251 E2.72568
G1 X212.354 Y26.992 E2.75688
G1 X212.865 Y27.778 E2.78806
G1 X213.307 Y28.606 E2.81928
G1 X213.676 Y29.468 E2.85047
G1 X213.971 Y30.358 E2.88165
G1 X214.189 Y31.27 E2.91284
G1 X214.329 Y32.198 E2.94405
G1 X214.387 Y33.059 E2.97276
G1 X214.396 Y33.379 E2.9834
G1 X214.4 Y33.688 E2.99368
G1 X214.4 Y201.939 E8.58973
G1 X214.391 Y202.669 E8.61401
G1 X214.34 Y203.605 E8.64519
G1 X214.209 Y204.534 E8.6764
G1 X213.999 Y205.448 E8.70759
G1 X213.712 Y206.341 E8.73878
G1 X213.35 Y207.206 E8.76997
G1 X212.916 Y208.037 E8.80115
G1 X212.412 Y208.829 E8.83238
G1 X211.843 Y209.574 E8.86356
G1 X211.213 Y210.268 E8.89473
G1 X210.525 Y210.906 E8.92594
G1 X209.786 Y211.484 E8.95714
G1 X209.001 Y211.996 E8.98832
G1 X208.174 Y212.439 E9.01952
G1 X207.313 Y212.811 E9.05072
G1 X206.423 Y213.107 E9.08191
G1 X205.511 Y213.327 E9.11311
G1 X204.584 Y213.468 E9.1443
G1 X203.711 Y213.528 E9.17341
G1 X203.435 Y213.536 E9.18259
G1 X203.111 Y213.541 E9.19337
G1 X169.45 Y213.524 E10.31294
G1 X168.827 Y213.515 E10.33366
G1 X167.891 Y213.461 E10.36484
G1 X167.515 Y213.407 E10.37748
G1 X166.962 Y213.328 E10.39606
G1 X166.681 Y213.263 E10.40565
G1 X166.31 Y213.177 E10.41832
G1 X166.049 Y213.117 E10.42722
G1 X165.875 Y213.061 E10.4333
G1 X165.619 Y212.992 E10.44212
G1 X165.261 Y212.862 E10.45479
G1 X165.084 Y212.798 E10.46105
G1 X164.738 Y212.672 E10.4733
G1 X163.887 Y212.278 E10.50449
G1 X163.072 Y211.813 E10.5357
G1 X162.386 Y211.344 E10.56334
G1 X161.769 Y210.888 E10.58885
G1 X159.624 Y209.347 E10.6767
G1 X157.554 Y207.949 E10.75978
G1 X155.431 Y206.599 E10.84346
G1 X153.269 Y205.309 E10.92719
G1 X151.036 Y204.062 E11.01226
G1 X148.839 Y202.914 E11.0947
G1 X146.579 Y201.814 E11.1783
G1 X144.255 Y200.763 E11.26314
G1 X141.974 Y199.808 E11.34538
G1 X139.571 Y198.88 E11.43106
G1 X137.245 Y198.059 E11.5131
G1 X134.851 Y197.289 E11.59674
G1 X132.407 Y196.577 E11.68141
G1 X129.986 Y195.946 E11.76462
G1 X127.541 Y195.381 E11.84809
G1 X125.016 Y194.873 E11.93375
G1 X122.59 Y194.458 E12.01561
G1 X120.105 Y194.103 E12.0991
G1 X117.588 Y193.816 E12.18336
G1 X115.078 Y193.601 E12.26715
G1 X112.559 Y193.457 E12.35107
G1 X110.07 Y193.386 E12.43389
G1 X107.545 Y193.384 E12.51787
G1 X105.024 Y193.455 E12.60175
G1 X102.495 Y193.597 E12.686
G1 X99.988 Y193.809 E12.76968
G1 X97.521 Y194.088 E12.85226
G1 X94.984 Y194.448 E12.93748
G1 X92.523 Y194.868 E13.02052
G1 X90.062 Y195.36 E13.10399
G1 X87.609 Y195.924 E13.18771
G1 X85.178 Y196.555 E13.27124
G1 X82.756 Y197.257 E13.35511
G1 X80.356 Y198.029 E13.43897
G1 X77.974 Y198.869 E13.52297
G1 X75.641 Y199.766 E13.60611
G1 X73.301 Y200.742 E13.69044
G1 X71.016 Y201.774 E13.77383
G1 X68.758 Y202.87 E13.85731
G1 X66.516 Y204.039 E13.9414
G1 X64.302 Y205.272 E14.02569
G1 X62.166 Y206.545 E14.1084
G1 X60.02 Y207.905 E14.1929
G1 X57.933 Y209.314 E14.27665
G1 X55.578 Y211.007 E14.37312
G1 X55.218 Y211.275 E14.38804
G1 X54.443 Y211.803 E14.41924
G1 X53.626 Y212.263 E14.45042
G1 X52.772 Y212.651 E14.48162
G1 X51.888 Y212.966 E14.51283
G1 X50.981 Y213.204 E14.54402
G1 X50.057 Y213.363 E14.5752
G1 X48.817 Y213.453 E14.61655
G1 X47.863 Y213.466 E14.64829
G1 X32.16 Y213.456 E15.17057
G1 X31.453 Y213.446 E15.19409
G1 X30.517 Y213.393 E15.22527
G1 X29.589 Y213.26 E15.25645
G1 X28.675 Y213.048 E15.28766
G1 X27.783 Y212.76 E15.31883
G1 X26.918 Y212.397 E15.35003
G1 X26.087 Y211.961 E15.38125
G1 X25.297 Y211.456 E15.41243
G1 X24.553 Y210.885 E15.44363
G1 X23.859 Y210.254 E15.47482
G1 X23.223 Y209.565 E15.50601
G1 X22.647 Y208.825 E15.5372
G1 X22.136 Y208.038 E15.56841
G1 X21.694 Y207.211 E15.5996
G1 X21.324 Y206.349 E15.6308
G1 X21.029 Y205.459 E15.66198
G1 X20.811 Y204.547 E15.69317
G1 X20.672 Y203.619 E15.72438
G1 X20.614 Y202.765 E15.75285
G1 X20.604 Y202.419 E15.76436
G1 X20.599 Y202.101 E15.77494
G1 X20.601 Y142.456 E17.75874
G1 X20.611 Y141.754 E17.78209
G1 X20.664 Y140.818 E17.81327
G1 X20.797 Y139.89 E17.84445
G1 X21.009 Y138.976 E17.87566
G1 X21.297 Y138.083 E17.90687
G1 X21.661 Y137.219 E17.93805
G1 X22.097 Y136.388 E17.96926
G1 X22.602 Y135.598 E18.00045
G1 X23.172 Y134.854 E18.03162
G1 X23.587 Y134.386 E18.05243
G1 X23.864 Y134.094 E18.06581
G1 X24.211 Y133.74 E18.0823
G1 X131.986 Y25.967 E23.15166
G0 F6000 X132.265 Y26.254
G1 F1200 X132.769 Y25.765 E23.17501
G1 X133.457 Y25.154 E23.20562
G1 X134.195 Y24.604 E23.23623
G1 X134.979 Y24.12 E23.26688
G1 X135.801 Y23.706 E23.29749
G1 X136.656 Y23.365 E23.3281
G1 X137.538 Y23.1 E23.35873
G1 X138.439 Y22.912 E23.38935
G1 X139.459 Y22.796 E23.42349
G1 X139.612 Y22.786 E23.42859
G1 X140.173 Y22.764 E23.44726
G1 X140.712 Y22.758 E23.46519
G1 X202.693 Y22.758 E25.52669
G1 X203.543 Y22.769 E25.55496
G1 X204.462 Y22.822 E25.58558
G1 X205.373 Y22.955 E25.6162
G1 X206.269 Y23.166 E25.64682
G1 X207.143 Y23.454 E25.67742
G1 X207.99 Y23.817 E25.70807
G1 X208.801 Y24.252 E25.73868
G1 X209.571 Y24.756 E25.76929
G1 X210.295 Y25.325 E25.79992
G1 X210.967 Y25.955 E25.83056
G1 X211.582 Y26.64 E25.86117
G1 X212.135 Y27.376 E25.89179
G1 X212.622 Y28.157 E25.92241
G1 X213.039 Y28.978 E25.95303
G1 X213.384 Y29.832 E25.98367
G1 X213.653 Y30.712 E26.01427
G1 X213.845 Y31.613 E26.04491
G1 X213.958 Y32.526 E26.07551
G1 X213.987 Y33.07 E26.09363
G1 X213.996 Y33.39 E26.10428
G1 X214 Y33.688 E26.11419
G1 X214 Y201.934 E31.71007
G1 X213.991 Y202.664 E31.73436
G1 X213.94 Y203.583 E31.76497
G1 X213.809 Y204.494 E31.79558
G1 X213.6 Y205.391 E31.82621
G1 X213.313 Y206.266 E31.85684
G1 X212.952 Y207.112 E31.88744
G1 X212.518 Y207.925 E31.91809
G1 X212.016 Y208.696 E31.94869
G1 X211.449 Y209.421 E31.9793
G1 X210.821 Y210.094 E32.00992
G1 X210.136 Y210.711 E32.04058
G1 X209.401 Y211.265 E32.07119
G1 X208.621 Y211.753 E32.10179
G1 X207.801 Y212.172 E32.13242
G1 X206.948 Y212.519 E32.16305
G1 X206.068 Y212.79 E32.19367
G1 X205.168 Y212.983 E32.22429
G1 X204.255 Y213.098 E32.2549
G1 X203.699 Y213.129 E32.27342
G1 X203.423 Y213.137 E32.2826
G1 X203.111 Y213.141 E32.29298
G1 X169.456 Y213.124 E33.41235
G1 X168.833 Y213.115 E33.43307
G1 X167.914 Y213.062 E33.46369
G1 X167.003 Y212.929 E33.49431
G1 X166.571 Y212.827 E33.50907
G1 X166.267 Y212.762 E33.51941
G1 X165.387 Y212.492 E33.55003
G1 X164.534 Y212.147 E33.58063
G1 X163.713 Y211.729 E33.61127
G1 X162.624 Y211.023 E33.65444
G1 X161.954 Y210.528 E33.68215
G1 X159.852 Y209.017 E33.76825
G1 X157.796 Y207.629 E33.85076
G1 X155.62 Y206.245 E33.93653
G1 X153.448 Y204.95 E34.02063
G1 X151.28 Y203.739 E34.10323
G1 X149.02 Y202.558 E34.18804
G1 X146.712 Y201.434 E34.27343
G1 X144.469 Y200.42 E34.3553
G1 X142.093 Y199.426 E34.44096
G1 X139.711 Y198.505 E34.5259
G1 X137.353 Y197.673 E34.60907
G1 X134.981 Y196.91 E34.69194
G1 X132.515 Y196.191 E34.77738
G1 X130.071 Y195.555 E34.86137
G1 X127.638 Y194.993 E34.94442
G1 X125.097 Y194.482 E35.03063
G1 X122.636 Y194.06 E35.11368
G1 X120.175 Y193.709 E35.19636
G1 X117.596 Y193.414 E35.2827
G1 X115.134 Y193.204 E35.36488
G1 X112.594 Y193.059 E35.4495
G1 X110.046 Y192.986 E35.53428
G1 X107.534 Y192.984 E35.61783
G1 X104.991 Y193.055 E35.70244
G1 X102.472 Y193.197 E35.78636
G1 X99.98 Y193.407 E35.86954
G1 X97.457 Y193.693 E35.95399
G1 X94.932 Y194.052 E36.03882
G1 X92.443 Y194.477 E36.1228
G1 X90.006 Y194.963 E36.20545
G1 X87.483 Y195.543 E36.29155
G1 X85.081 Y196.167 E36.3741
G1 X82.628 Y196.878 E36.45904
G1 X80.206 Y197.657 E36.54366
G1 X77.834 Y198.493 E36.62731
G1 X75.523 Y199.382 E36.70967
G1 X73.148 Y200.373 E36.79526
G1 X70.84 Y201.414 E36.87947
G1 X68.563 Y202.52 E36.96367
G1 X66.315 Y203.692 E37.04799
G1 X64.135 Y204.907 E37.13099
G1 X61.943 Y206.212 E37.21584
G1 X59.788 Y207.579 E37.30072
G1 X57.743 Y208.959 E37.38278
G1 X55.327 Y210.696 E37.48175
G1 X54.979 Y210.955 E37.49618
G1 X54.218 Y211.472 E37.52677
G1 X53.414 Y211.921 E37.5574
G1 X52.575 Y212.299 E37.58801
G1 X51.706 Y212.603 E37.61863
G1 X50.813 Y212.83 E37.64928
G1 X49.905 Y212.979 E37.67988
G1 X48.81 Y213.053 E37.71638
G1 X47.863 Y213.066 E37.74788
G1 X32.166 Y213.056 E38.26997
G1 X31.459 Y213.046 E38.29349
G1 X30.54 Y212.993 E38.3241
G1 X29.629 Y212.86 E38.35472
G1 X28.733 Y212.649 E38.38534
G1 X27.858 Y212.361 E38.41598
G1 X27.012 Y211.998 E38.4466
G1 X26.201 Y211.564 E38.47719
G1 X25.43 Y211.06 E38.50783
G1 X24.706 Y210.491 E38.53845
G1 X24.034 Y209.862 E38.56907
G1 X23.419 Y209.177 E38.59969
G1 X22.866 Y208.441 E38.63031
G1 X22.379 Y207.659 E38.66095
G1 X21.962 Y206.839 E38.69154
G1 X21.617 Y205.985 E38.72218
G1 X21.348 Y205.105 E38.75278
G1 X21.156 Y204.204 E38.78342
G1 X21.043 Y203.291 E38.81402
G1 X21.013 Y202.753 E38.83194
G1 X21.003 Y202.407 E38.84346
G1 X20.999 Y202.101 E38.85364
G1 X21.001 Y142.462 E40.83724
G1 X21.011 Y141.76 E40.86059
G1 X21.064 Y140.841 E40.89121
G1 X21.197 Y139.93 E40.92183
G1 X21.408 Y139.034 E40.95244
G1 X21.696 Y138.159 E40.98308
G1 X22.059 Y137.313 E41.0137
G1 X22.494 Y136.502 E41.04431
G1 X22.998 Y135.731 E41.07495
G1 X23.566 Y135.007 E41.10555
G1 X23.879 Y134.659 E41.12112
G1 X24.15 Y134.373 E41.13422
G1 X24.494 Y134.023 E41.15055
G1 X132.265 Y26.254 E46.21972
G0 F6000 X132.543 Y26.541
G1 F1200 X133.047 Y26.052 E46.24307
G1 X133.723 Y25.453 E46.27311
G1 X134.448 Y24.915 E46.30314
G1 X135.219 Y24.444 E46.33319
G1 X136.028 Y24.043 E46.36322
G1 X136.869 Y23.715 E46.39325
G1 X137.737 Y23.463 E46.42331
G1 X138.623 Y23.288 E46.45335
G1 X139.485 Y23.195 E46.48218
G1 X139.638 Y23.185 E46.48728
G1 X140.178 Y23.164 E46.50526
G1 X140.712 Y23.158 E46.52302
G1 X202.693 Y23.158 E48.58452
G1 X203.537 Y23.169 E48.61259
G1 X204.439 Y23.222 E48.64264
G1 X205.332 Y23.354 E48.67267
G1 X206.21 Y23.565 E48.7027
G1 X207.066 Y23.853 E48.73274
G1 X207.893 Y24.215 E48.76276
G1 X208.685 Y24.65 E48.79282
G1 X209.436 Y25.152 E48.82286
G1 X210.139 Y25.719 E48.8529
G1 X210.789 Y26.346 E48.88294
G1 X211.381 Y27.028 E48.91298
G1 X211.911 Y27.759 E48.94301
G1 X212.373 Y28.535 E48.97305
G1 X212.766 Y29.348 E49.00308
G1 X213.084 Y30.193 E49.03311
G1 X213.327 Y31.063 E49.06315
G1 X213.492 Y31.951 E49.09319
G1 X213.587 Y33.081 E49.13091
G1 X213.596 Y33.401 E49.14156
G1 X213.6 Y33.688 E49.1511
G1 X213.6 Y201.929 E54.74682
G1 X213.591 Y202.659 E54.7711
G1 X213.54 Y203.56 E54.80112
G1 X213.409 Y204.454 E54.83117
G1 X213.2 Y205.333 E54.86122
G1 X212.914 Y206.189 E54.89124
G1 X212.553 Y207.017 E54.92128
G1 X212.121 Y207.81 E54.95132
G1 X211.62 Y208.561 E54.98135
G1 X211.055 Y209.265 E55.01137
G1 X210.429 Y209.917 E55.04143
G1 X209.748 Y210.51 E55.07147
G1 X209.018 Y211.041 E55.10149
G1 X208.243 Y211.506 E55.13155
G1 X207.43 Y211.899 E55.16158
G1 X206.586 Y212.22 E55.19162
G1 X205.717 Y212.465 E55.22165
G1 X204.829 Y212.631 E55.25169
G1 X203.688 Y212.729 E55.28978
G1 X203.412 Y212.737 E55.29897
G1 X203.111 Y212.741 E55.30898
G1 X169.462 Y212.724 E56.42815
G1 X168.839 Y212.715 E56.44887
G1 X167.937 Y212.662 E56.47893
G1 X167.044 Y212.529 E56.50895
G1 X166.896 Y212.497 E56.51399
G1 X166.52 Y212.403 E56.52688
G1 X166.166 Y212.318 E56.53899
G1 X166.02 Y212.278 E56.54402
G1 X165.166 Y211.982 E56.57409
G1 X164.342 Y211.612 E56.60413
G1 X163.554 Y211.171 E56.63416
G1 X162.862 Y210.701 E56.66199
G1 X162.22 Y210.226 E56.68855
G1 X160.103 Y208.705 E56.77525
G1 X157.987 Y207.276 E56.86017
G1 X155.843 Y205.913 E56.94467
G1 X153.642 Y204.6 E57.02991
G1 X151.454 Y203.378 E57.11327
G1 X149.202 Y202.201 E57.19778
G1 X146.902 Y201.081 E57.28287
G1 X144.609 Y200.045 E57.36656
G1 X142.256 Y199.06 E57.4514
G1 X139.841 Y198.127 E57.53751
G1 X137.514 Y197.306 E57.61958
G1 X135.067 Y196.519 E57.70507
G1 X132.622 Y195.806 E57.78978
G1 X130.156 Y195.164 E57.87454
G1 X127.702 Y194.597 E57.95831
G1 X125.211 Y194.096 E58.04282
G1 X122.683 Y193.663 E58.12812
G1 X120.21 Y193.31 E58.21121
G1 X117.674 Y193.02 E58.29611
G1 X115.122 Y192.802 E58.3813
G1 X112.626 Y192.659 E58.46445
G1 X110.058 Y192.586 E58.5499
G1 X107.523 Y192.584 E58.63421
G1 X104.992 Y192.655 E58.71842
G1 X102.452 Y192.798 E58.80304
G1 X99.903 Y193.013 E58.88812
G1 X97.388 Y193.298 E58.9723
G1 X94.92 Y193.648 E59.05521
G1 X92.369 Y194.084 E59.14129
G1 X89.903 Y194.576 E59.22492
G1 X87.397 Y195.152 E59.31045
G1 X84.973 Y195.782 E59.39375
G1 X82.499 Y196.499 E59.47942
G1 X80.098 Y197.271 E59.5633
G1 X77.706 Y198.115 E59.64767
G1 X75.362 Y199.016 E59.73119
G1 X72.979 Y200.01 E59.81707
G1 X70.666 Y201.054 E59.90147
G1 X68.383 Y202.163 E59.98589
G1 X66.142 Y203.331 E60.06994
G1 X63.915 Y204.572 E60.15474
G1 X61.746 Y205.864 E60.23871
G1 X59.58 Y207.237 E60.324
G1 X57.492 Y208.646 E60.40778
G1 X55.103 Y210.363 E60.50564
G1 X54.74 Y210.634 E60.5207
G1 X53.993 Y211.141 E60.55073
G1 X53.204 Y211.58 E60.58076
G1 X52.379 Y211.947 E60.61079
G1 X51.524 Y212.24 E60.64085
G1 X50.647 Y212.456 E60.6709
G1 X49.755 Y212.594 E60.70092
G1 X48.804 Y212.653 E60.73261
G1 X47.863 Y212.666 E60.76391
G1 X32.172 Y212.656 E61.28579
G1 X31.465 Y212.646 E61.30931
G1 X30.563 Y212.593 E61.33936
G1 X29.67 Y212.461 E61.36939
G1 X28.792 Y212.25 E61.39942
G1 X27.936 Y211.963 E61.42945
G1 X27.108 Y211.6 E61.45952
G1 X26.316 Y211.166 E61.48956
G1 X25.566 Y210.664 E61.51957
G1 X24.863 Y210.097 E61.54961
G1 X24.212 Y209.471 E61.57965
G1 X23.62 Y208.789 E61.60969
G1 X23.091 Y208.057 E61.63973
G1 X22.628 Y207.282 E61.66975
G1 X22.235 Y206.468 E61.69982
G1 X21.916 Y205.624 E61.72983
G1 X21.673 Y204.754 E61.75987
G1 X21.508 Y203.866 E61.78991
G1 X21.413 Y202.742 E61.82743
G1 X21.403 Y202.396 E61.83894
G1 X21.399 Y202.101 E61.84876
G1 X21.401 Y142.468 E63.83216
G1 X21.411 Y141.766 E63.85551
G1 X21.464 Y140.864 E63.88556
G1 X21.596 Y139.971 E63.91558
G1 X21.807 Y139.093 E63.94562
G1 X22.095 Y138.237 E63.97566
G1 X22.457 Y137.409 E64.00571
G1 X22.891 Y136.617 E64.03575
G1 X23.394 Y135.867 E64.06579
G1 X24.171 Y134.933 E64.1062
G1 X24.436 Y134.653 E64.11902
G1 X24.777 Y134.305 E64.13522
G1 X132.543 Y26.541 E69.20416
G1 F2700 E64.20416
;MESH:LEFT_SIDE_FRONT.stl
G0 F6000 X58.307 Y139.403
G0 X59.633 Y138.708
G0 X59.6 Y140.458
G0 X59.221 Y141.991
G0 X58.327 Y143.395
;TYPE:WALL-INNER
G1 F2700 E69.20416
G1 F1200 X59.459 Y142.116 E69.26097
G1 X59.868 Y140.458 E69.31777
G1 X59.459 Y138.8 E69.37456
G1 X58.327 Y137.522 E69.43135
G1 X56.731 Y136.915 E69.48814
G1 X55.035 Y137.122 E69.54497
G1 X53.63 Y138.092 E69.60175
G1 X52.836 Y139.604 E69.65855
G1 X52.836 Y141.312 E69.71536
G1 X53.63 Y142.824 E69.77216
G1 X55.035 Y143.794 E69.82895
G1 X56.731 Y143.999 E69.88577
G1 X58.327 Y143.395 E69.94253
G0 F6000 X58.093 Y143.056
;TYPE:WALL-OUTER
G1 F1200 X59.094 Y141.925 E69.99276
G1 X59.456 Y140.458 E70.04302
G1 X59.094 Y138.991 E70.09327
G1 X58.093 Y137.861 E70.14348
G1 X56.681 Y137.324 E70.19373
G1 X55.181 Y137.507 E70.24399
